; generated by PrusaSlicer 2.6.1 on 2023-11-03 at 21:08:00 UTC

; 

; external perimeters extrusion width = 0.45mm
; perimeters extrusion width = 0.45mm
; infill extrusion width = 0.45mm
; solid infill extrusion width = 0.45mm
; top infill extrusion width = 0.45mm
; support material extrusion width = 0.35mm
; first layer extrusion width = 0.55mm

M190 S60 ; set bed temperature and wait for it to be reached
;TYPE:Custom
; Start GCODE (begins)

G28 ; home all axes
G1 Z5 F5000 ; lift nozzle

M109 S200 ; Do this now so we can purge

; Extrude a small amount of waste material
G92 E0
G1 E20 F200
G92 E0

; Start GCODE (ends)
G21 ; set units to millimeters
G90 ; use absolute coordinates
M82 ; use absolute distances for extrusion
G92 E0
; Filament gcode
M107
;LAYER_CHANGE
;Z:0.28
;HEIGHT:0.28
G1 Z.28 F4800
G1 E-.5 F2400
G92 E0
G1 X154.053 Y113.624 F4800
G1 E.5 F2400
;TYPE:Skirt/Brim
;WIDTH:0.55
G1 F1020
G1 X155.757 Y112.124 E.62947
G1 X157.873 Y111.303 E.75891
G1 X159.127 Y111.181 E.83076
G1 X165.169 Y111.181 E1.17534
G1 X167.404 Y111.577 E1.30479
G1 X169.366 Y112.72 E1.43429
G1 X170.814 Y114.467 E1.5637
G1 X171.659 Y117.67 E1.75262
G1 X171.659 Y222.529 E7.73282
G1 X171.262 Y224.764 E7.86228
G1 X170.12 Y226.725 E7.9917
G1 X168.372 Y228.173 E8.12115
G1 X165.169 Y229.019 E8.31008
G1 X159.127 Y229.019 E8.65466
G1 X156.892 Y228.622 E8.78412
G1 X154.538 Y227.118 E8.94343
G1 X150.242 Y222.822 E9.28992
G1 X148.942 Y220.961 E9.41939
G1 X148.341 Y218.233 E9.5787
G1 X148.341 Y130.559 E14.57882
G1 X148.674 Y128.507 E14.69738
G1 X152.97 Y115.618 E15.47221
G1 X154.025 Y113.676 E15.59825
G1 E15.09825 F2400
G92 E0
G1 X165.169 Y162.38 F4800
G1 E.5 F2400
;TYPE:Support material
G1 F1020
G1 X161.961 Y162.38 E.68295
G1 X161.961 Y123.63 E2.89289
G1 X161.645 Y123.334 E2.91758
G1 X160.217 Y123.428 E2.9992
G1 X159.947 Y123.716 E3.02171
G1 X159.947 Y216.1 E8.29045
G1 X160.23 Y216.391 E8.3136
G1 X161.659 Y216.429 E8.39513
G1 X161.961 Y216.134 E8.41921
G1 X161.961 Y199.301 E9.37921
G1 X165.169 Y199.301 E9.56216
G1 X165.169 Y222.529 E10.88687
G1 X159.127 Y222.529 E11.23145
G1 X159.127 Y218.233 E11.47645
G1 X154.831 Y218.233 E11.72145
G1 X154.831 Y130.559 E16.72157
G1 X159.127 Y130.559 E16.96657
G1 X159.127 Y117.67 E17.70164
G1 X165.169 Y117.67 E18.04622
G1 X165.169 Y162.307 E20.59191
G1 E20.09191 F2400
G92 E0
G1 X163.919 Y222.309 F4800
G1 E.5 F2400
G1 F1020
G1 X163.919 Y199.742 E1.78701
G1 X162.939 Y199.742 E1.8429
G1 X162.939 Y222.088 E3.11731
G1 X161.96 Y222.088 E3.17314
G1 X161.96 Y216.752 E3.47746
G1 X161.834 Y216.874 E3.48746
G1 X160.98 Y216.852 E3.53618
G1 X160.98 Y222.088 E3.83479
G1 X160 Y222.088 E3.89068
G1 X160 Y216.787 E4.193
G1 X159.506 Y216.28 E4.23337
G1 X159.506 Y131 E9.09696
G1 X159.02 Y131 E9.12468
G1 X159.02 Y217.792 E14.0745
G1 X158.04 Y217.792 E14.13039
G1 X158.04 Y131 E19.08021
G1 X157.061 Y131 E19.13604
G1 X157.061 Y217.792 E24.08586
G1 X156.081 Y217.792 E24.14175
G1 X156.081 Y130.78 E29.10412
G1 E28.60412 F2400
G92 E0
G1 X160.804 Y149.688 F4800
G1 X161.104 Y128.059
G1 X161.104 Y150.89
G1 X163.919 Y162.16
G1 E.5 F2400
G1 F1020
G1 X163.919 Y118.111 E3.01215
G1 X162.939 Y118.111 E3.06804
G1 X162.939 Y161.939 E5.56759
G1 X162.402 Y161.939 E5.59822
G1 X162.402 Y123.439 E7.79391
G1 X161.96 Y123.025 E7.82845
G1 X161.96 Y118.111 E8.1087
G1 X160.98 Y118.111 E8.16459
G1 X160.98 Y122.936 E8.43976
G1 X160.014 Y122.999 E8.49497
G1 X160 Y123.014 E8.49614
G1 X160 Y117.891 E8.78831
G1 E8.28831 F2400
G92 E0
G1 X160.715 Y124.165 F4800
G1 E.5 F2400
;TYPE:External perimeter
;WIDTH:0.537332
G1 F1020
G1 X161.193 Y124.134 E.52661
G1 X161.193 Y215.648 E5.61078
G1 X160.715 Y215.635 E5.63735
G1 X160.715 Y124.225 E10.71574
G1 X161.071 Y124.349 F4800
;LAYER_CHANGE
;Z:0.53
;HEIGHT:0.25
G1 Z.53 F4800
G1 X160.668 Y124.163
;WIDTH:0.534113
G1 F1200
G1 X161.149 Y124.131 E10.73981
G1 X161.149 Y215.649 E15.31007
G1 X160.668 Y215.636 E15.3341
G1 X160.668 Y124.223 E19.89911
G1 X161.023 Y124.347 F4800
;LAYER_CHANGE
;Z:0.58
;HEIGHT:0.05
G1 Z.58 F4800
G1 X160 Y122.84
;TYPE:Support material interface
;WIDTH:0.35
;HEIGHT:0.3
G1 F3600
G1 X160 Y123.753 E19.93163
G1 X160.185 Y123.554 E19.94131
G1 X161.498 Y123.461 E19.9882
G1 X161.598 Y123.464 E19.99176
G1 X161.834 Y123.685 E20.00328
G1 X161.834 Y127.136 E20.12622
G1 X162.296 Y127.136 E20.14268
G1 X162.296 Y122.84 E20.29572
G1 X164.296 Y122.84 E20.36697
G1 X164.296 Y127.136 E20.52001
G1 X162.445 Y127.136 E20.58595
G1 E20.08595 F2400
G92 E0
G1 X164.27 Y122.517 F4800
G1 E.5 F2400
;TYPE:Support material
G1 F3600
G1 X160.027 Y122.517 E.65115
G1 X160.027 Y118.57 E.79176
G1 X164.27 Y118.57 E.94291
G1 X164.27 Y122.474 E1.08199
G1 E.58199 F2400
G92 E0
G1 X161.059 Y138.03 F4800
G1 X160.759 Y124.708
G1 X160.759 Y139.485
G1 X159.958 Y143.361
G1 E.5 F2400
G1 F3600
G1 X159.958 Y131.459 E.924
G1 X155.73 Y131.459 E1.07462
G1 X155.73 Y217.333 E4.1338
G1 X159.677 Y217.333 E4.27441
G1 X159.677 Y212.74 E4.43803
G1 X159.958 Y212.74 E4.44804
G1 X159.958 Y143.404 E6.91807
G1 E6.41807 F2400
G92 E0
G1 X160 Y216.062 F4800
G1 E.5 F2400
;TYPE:Support material interface
G1 F3600
G1 X160 Y221.656 E.69928
G1 X162.296 Y221.656 E.78107
G1 X162.296 Y213.063 E1.08719
G1 X164.296 Y213.063 E1.15844
G1 X164.296 Y221.656 E1.46456
G1 X162.445 Y221.656 E1.5305
;LAYER_CHANGE
;Z:0.78
;HEIGHT:0.2
G1 Z.78 F4800
G1 E1.0305 F2400
G92 E0
G1 X161.014 Y145.012 F4800
G1 X160.717 Y124.622
G1 X160.717 Y129.069
G1 X160.626 Y124.165
G1 E.5 F2400
;TYPE:External perimeter
;WIDTH:0.534113
;HEIGHT:0.25
G1 F1200
G1 X161.106 Y124.131 E.52403
G1 X161.106 Y215.648 E5.09424
G1 X160.626 Y215.635 E5.11822
G1 X160.626 Y124.225 E9.68308
G1 X160.981 Y124.348 F4800
M106 S255
;LAYER_CHANGE
;Z:0.83
;HEIGHT:0.05
G1 Z.83 F4800
G1 E9.18308 F2400
G92 E0
G1 X160.783 Y124.486 F4800
G1 X161.016 Y124.642
G1 X161.016 Y124.85
G1 X162.445 Y127.136
G1 E.5 F2400
;TYPE:Support material interface
;WIDTH:0.35
;HEIGHT:0.25
G1 F3600
G1 X164.296 Y127.136 E.55701
G1 X164.296 Y118.543 E.82169
G1 X162.296 Y118.543 E.88329
G1 X162.296 Y127.136 E1.14797
G1 X161.789 Y127.136 E1.16359
G1 X161.789 Y123.782 E1.2669
G1 X161.747 Y123.662 E1.27082
G1 X161.704 Y123.609 E1.27292
G1 X161.703 Y122.678 E1.3016
G1 X161.026 Y122.615 E1.32254
G1 X160.992 Y122.8 E1.32833
G1 X160.077 Y123.133 E1.35832
G1 X160 Y123.244 E1.36248
G1 X160 Y118.543 E1.50728
G1 E1.00728 F2400
G92 E0
G1 X159.916 Y150.842 F4800
G1 E.5 F2400
;TYPE:Support material
G1 F3600
G1 X159.916 Y217.333 E2.54805
G1 X155.73 Y217.333 E2.67699
G1 X155.73 Y131.459 E5.32208
G1 X159.916 Y131.459 E5.45102
G1 X159.916 Y150.798 E6.0467
G1 X159.782 Y135.729 F4800
G1 F3600
G1 X155.997 Y135.729 E6.16329
G1 X155.997 Y140.025 E6.29562
G1 X159.649 Y140.025 E6.40811
G1 X159.649 Y144.322 E6.54047
G1 X155.997 Y144.322 E6.65296
G1 X155.997 Y148.618 E6.78529
G1 X159.649 Y148.618 E6.89778
G1 X159.649 Y152.914 E7.03011
G1 X155.997 Y152.914 E7.1426
G1 X155.997 Y157.211 E7.27496
G1 X159.649 Y157.211 E7.38745
G1 X159.649 Y161.507 E7.51978
G1 X155.997 Y161.507 E7.63227
G1 X155.997 Y165.803 E7.7646
G1 X159.649 Y165.803 E7.87709
G1 X159.649 Y170.1 E8.00945
G1 X155.997 Y170.1 E8.12194
G1 X155.997 Y174.396 E8.25427
G1 X159.649 Y174.396 E8.36676
G1 X159.649 Y178.692 E8.49909
G1 X155.997 Y178.692 E8.61158
G1 X155.997 Y182.989 E8.74394
G1 X159.649 Y182.989 E8.85643
G1 X159.649 Y187.285 E8.98876
G1 X155.997 Y187.285 E9.10125
G1 X155.997 Y191.581 E9.23358
G1 X159.649 Y191.581 E9.34607
G1 X159.649 Y195.878 E9.47843
G1 X155.997 Y195.878 E9.59092
G1 X155.997 Y200.174 E9.72325
G1 X159.649 Y200.174 E9.83574
G1 X159.649 Y204.47 E9.96807
G1 X155.997 Y204.47 E10.08056
G1 X155.997 Y208.767 E10.21292
G1 X159.649 Y208.767 E10.32541
G1 X159.649 Y213.063 E10.45774
G1 X155.864 Y213.063 E10.57433
G1 E10.07433 F2400
G92 E0
G1 X164.27 Y217.288 F4800
G1 E.5 F2400
G1 F3600
G1 X164.27 Y213.09 E.62931
G1 X161.816 Y213.09 E.7049
G1 X161.816 Y216.091 E.79734
G1 X161.73 Y216.175 E.80104
G1 X161.73 Y217.333 E.83671
G1 X164.27 Y217.333 E.91495
;LAYER_CHANGE
;Z:1.03
;HEIGHT:0.2
G1 Z1.03 F4800
G1 E.41495 F2400
G92 E0
G1 X160.971 Y216.133 F4800
G1 X160.971 Y216.114
G1 X161.063 Y216.114
G1 E.5 F2400
;TYPE:Overhang perimeter
;WIDTH:0.4
;HEIGHT:0.4
G1 F3600
G1 X161.063 Y218.897 E.6454
G1 X160.583 Y218.884 E.67049
G1 X160.583 Y216.101 E.81589
;TYPE:External perimeter
;WIDTH:0.534113
;HEIGHT:0.25
G1 F1200
G1 X160.583 Y123.699 E5.43029
;TYPE:Overhang perimeter
;WIDTH:0.4
;HEIGHT:0.4
G1 F3600
G1 X160.583 Y123.63 E5.43389
G1 X161.063 Y123.455 E5.46058
G1 X161.063 Y123.663 E5.47145
;TYPE:External perimeter
;WIDTH:0.534113
;HEIGHT:0.25
G1 F1200
G1 X161.063 Y216.054 E10.0853
;LAYER_CHANGE
;Z:1.08
;HEIGHT:0.0500001
G1 Z1.08 F4800
G1 E9.5853 F2400
G92 E0
G1 X160.973 Y216.054 F4800
G1 X160.973 Y216.073
G1 X164.27 Y217.288
G1 E.5 F2400
;TYPE:Support material
;WIDTH:0.35
;HEIGHT:0.25
G1 F3600
G1 X164.27 Y213.09 E.62931
G1 X161.773 Y213.09 E.70622
G1 X161.773 Y216.091 E.79866
G1 X161.73 Y216.133 E.80051
G1 X161.73 Y217.333 E.83747
G1 X164.27 Y217.333 E.91571
G1 E.41571 F2400
G92 E0
G1 X160.973 Y158.514 F4800
G1 X160.673 Y150.047
G1 X160.673 Y150.315
G1 X159.677 Y131.756
G1 E.5 F2400
G1 F3600
G1 X159.916 Y131.756 E.50736
G1 X159.916 Y179.717 E1.98465
G1 X159.873 Y179.76 E1.98652
G1 X159.873 Y217.333 E3.14384
G1 X155.73 Y217.333 E3.27145
G1 X155.73 Y131.459 E5.91654
G1 X159.677 Y131.459 E6.03812
G1 X159.677 Y131.711 E6.04588
;LAYER_CHANGE
;Z:1.28
;HEIGHT:0.2
G1 Z1.28 F4800
G1 E5.54588 F2400
G92 E0
G1 X160.632 Y193.704 F4800
G1 X160.929 Y213.772
G1 X160.929 Y213.023
G1 X161.02 Y218.966
G1 E.5 F2400
;TYPE:External perimeter
;WIDTH:0.534114
;HEIGHT:0.25
G1 F1200
G1 X160.54 Y218.953 E.52398
G1 X160.54 Y180.193 E2.45959
G1 X161.02 Y180.193 E2.48356
G1 X161.02 Y218.906 E4.41683
G1 X160.677 Y218.761 F4800
G1 E3.91683 F2400
G92 E0
G1 X160.929 Y201.508 F4800
G1 X160.818 Y180.52
G1 X160.54 Y127.55
G1 E.5 F2400
G1 F900
G1 X160.54 Y123.149 E.71978
;TYPE:Overhang perimeter
;WIDTH:0.4
;HEIGHT:0.4
G1 X160.54 Y121.429 E.80964
G1 X161.02 Y121.395 E.83478
G1 X161.02 Y121.653 E.84826
G1 X161.02 Y122.974 E.91728
;TYPE:External perimeter
;WIDTH:0.534114
;HEIGHT:0.25
G1 X161.02 Y127.518 E1.1442
G1 X160.6 Y127.546 E1.16522
G1 X160.554 Y127.15 F4800
;LAYER_CHANGE
;Z:1.33
;HEIGHT:0.0500001
G1 Z1.33 F4800
G1 E.66522 F2400
G92 E0
G1 X159.677 Y131.711 F4800
G1 E.5 F2400
;TYPE:Support material
;WIDTH:0.35
;HEIGHT:0.25
G1 F3600
G1 X159.677 Y131.459 E.50776
G1 X155.73 Y131.459 E.62934
G1 X155.73 Y217.333 E3.27443
G1 X159.83 Y217.333 E3.40072
G1 X159.83 Y179.76 E4.55804
G1 X159.916 Y179.674 E4.56179
G1 X159.916 Y131.756 E6.03776
G1 X159.677 Y131.756 E6.04512
G1 X159.782 Y135.729 F4800
G1 F3600
G1 X155.997 Y135.729 E6.16171
G1 X155.997 Y140.025 E6.29404
G1 X159.649 Y140.025 E6.40653
G1 X159.649 Y144.322 E6.53889
G1 X155.997 Y144.322 E6.65138
G1 X155.997 Y148.618 E6.78371
G1 X159.649 Y148.618 E6.8962
G1 X159.649 Y152.914 E7.02853
G1 X155.997 Y152.914 E7.14102
G1 X155.997 Y157.211 E7.27338
G1 X159.649 Y157.211 E7.38587
G1 X159.649 Y161.507 E7.5182
G1 X155.997 Y161.507 E7.63069
G1 X155.997 Y165.803 E7.76302
G1 X159.649 Y165.803 E7.87551
G1 X159.649 Y170.1 E8.00787
G1 X155.997 Y170.1 E8.12036
G1 X155.997 Y174.396 E8.25269
G1 X159.649 Y174.396 E8.36518
G1 X159.649 Y178.692 E8.49751
G1 X155.997 Y178.692 E8.61
G1 X155.997 Y182.989 E8.74236
G1 X159.563 Y182.989 E8.8522
G1 X159.563 Y187.285 E8.98453
G1 X155.997 Y187.285 E9.09437
G1 X155.997 Y191.581 E9.2267
G1 X159.563 Y191.581 E9.33654
G1 X159.563 Y195.878 E9.4689
G1 X155.997 Y195.878 E9.57874
G1 X155.997 Y200.174 E9.71107
G1 X159.563 Y200.174 E9.82091
G1 X159.563 Y204.47 E9.95324
G1 X155.997 Y204.47 E10.06308
G1 X155.997 Y208.767 E10.19544
G1 X159.563 Y208.767 E10.30528
G1 X159.563 Y213.063 E10.43761
G1 X155.864 Y213.063 E10.55155
;LAYER_CHANGE
;Z:1.53
;HEIGHT:0.2
G1 Z1.53 F4800
G1 E10.05155 F2400
G92 E0
G1 X160.589 Y218.576 F4800
G1 X160.589 Y218.696
G1 X160.693 Y218.699
G1 X160.977 Y219.034
G1 E.5 F2400
;TYPE:External perimeter
;WIDTH:0.534113
;HEIGHT:0.25
G1 F1200
G1 X160.497 Y219.021 E.52398
G1 X160.497 Y180.193 E2.46299
G1 X160.977 Y180.193 E2.48696
G1 X160.977 Y218.974 E4.42362
G1 X160.634 Y218.829 F4800
G1 E3.92362 F2400
G92 E0
G1 X160.977 Y122.286 F4800
G1 E.5 F2400
;WIDTH:0.534114
G1 F900
G1 X160.977 Y127.989 E.7848
;TYPE:Overhang perimeter
;WIDTH:0.4
;HEIGHT:0.4
G1 X160.977 Y128.348 E.80356
G1 X160.497 Y128.38 E.82869
G1 X160.497 Y128.021 E.84745
;TYPE:External perimeter
;WIDTH:0.534114
;HEIGHT:0.25
G1 X160.497 Y122.064 E1.14493
G1 X160.977 Y122.025 E1.16898
G1 X160.977 Y122.226 E1.17902
G1 X160.73 Y122.6 F4800
;LAYER_CHANGE
;Z:1.58
;HEIGHT:0.0500001
G1 Z1.58 F4800
G1 E.67902 F2400
G92 E0
G1 X160.887 Y123.098 F4800
G1 X160.587 Y122.565
G1 X160.587 Y126.035
G1 X160.157 Y130.157
G1 E.5 F2400
;TYPE:Support material interface
;WIDTH:0.35
;HEIGHT:0.25
G1 F3600
G1 X160.157 Y129.871 E.50881
G1 X160.05 Y129.878 E.51211
G1 X160 Y129.831 E.51422
G1 X160 Y131.433 E.56356
G1 X160.157 Y131.433 E.5684
G1 X160.157 Y131.106 E.57847
G1 X159.677 Y131.711 F4800
;TYPE:Support material
G1 F3600
G1 X159.677 Y131.459 E.58623
G1 X155.73 Y131.459 E.70781
G1 X155.73 Y217.333 E3.3529
G1 X159.787 Y217.333 E3.47786
G1 X159.787 Y212.967 E3.61234
G1 X159.83 Y212.923 E3.61424
G1 X159.83 Y184.134 E4.501
G1 X159.787 Y184.091 E4.50287
G1 X159.787 Y179.76 E4.63627
G1 X159.973 Y179.574 E4.64437
G1 X159.973 Y161.48 E5.2017
G1 X160.131 Y161.48 E5.20657
G1 X160.131 Y131.756 E6.12213
G1 X159.677 Y131.756 E6.13611
;LAYER_CHANGE
;Z:1.78
;HEIGHT:0.2
G1 Z1.78 F4800
G1 E5.63611 F2400
G92 E0
G1 X160.546 Y125.853 F4800
G1 X160.843 Y123.433
G1 X160.843 Y123.832
G1 X160.935 Y123.21
G1 E.5 F2400
;TYPE:External perimeter
;WIDTH:0.534114
;HEIGHT:0.25
G1 F900
G1 X160.935 Y128.819 E.7801
;TYPE:Overhang perimeter
;WIDTH:0.4
;HEIGHT:0.4
G1 X160.935 Y129.178 E.79886
G1 X160.454 Y129.21 E.82405
G1 X160.454 Y128.851 E.84281
;TYPE:External perimeter
;WIDTH:0.534114
;HEIGHT:0.25
G1 X160.454 Y122.988 E1.1356
G1 X160.935 Y122.95 E1.1597
G1 X160.935 Y123.15 E1.16969
G1 X160.687 Y123.524 F4800
G1 E.66969 F2400
G92 E0
G1 X160.935 Y183.658 F4800
G1 E.5 F2400
G1 F900
G1 X160.454 Y183.658 E.52402
G1 X160.454 Y180.193 E.69706
G1 X160.935 Y180.193 E.72108
G1 X160.935 Y183.598 E.89112
G1 X160.579 Y183.475 F4800
G1 E.39112 F2400
G92 E0
G1 X160.935 Y219.062 F4800
G1 E.5 F2400
G1 F900
G1 X160.454 Y219.049 E.52403
G1 X160.454 Y213.398 E.80623
G1 X160.935 Y213.396 E.83025
G1 X160.935 Y219.002 E1.1102
G1 X160.586 Y218.866 F4800
;LAYER_CHANGE
;Z:1.83
;HEIGHT:0.0500001
G1 Z1.83 F4800
G1 E.6102 F2400
G92 E0
G1 X160.698 Y218.723 F4800
G1 X160.637 Y218.721
G1 X160.545 Y218.545
G1 X155.864 Y213.063
G1 E.5 F2400
;TYPE:Support material
;WIDTH:0.35
;HEIGHT:0.25
G1 F3600
G1 X159.52 Y213.063 E.61261
G1 X159.52 Y212.857 E.61896
G1 X159.563 Y212.814 E.62083
G1 X159.563 Y208.767 E.74549
G1 X155.997 Y208.767 E.85533
G1 X155.997 Y204.47 E.98769
G1 X159.563 Y204.47 E1.09753
G1 X159.563 Y200.174 E1.22986
G1 X155.997 Y200.174 E1.3397
G1 X155.997 Y195.878 E1.47203
G1 X159.563 Y195.878 E1.58187
G1 X159.563 Y191.581 E1.71423
G1 X155.997 Y191.581 E1.82407
G1 X155.997 Y187.285 E1.9564
G1 X159.563 Y187.285 E2.06624
G1 X159.563 Y184.287 E2.15858
G1 X159.478 Y184.202 E2.16228
G1 X159.478 Y182.989 E2.19964
G1 X155.997 Y182.989 E2.30686
G1 X155.997 Y178.692 E2.43922
G1 X159.706 Y178.692 E2.55346
G1 X159.706 Y174.396 E2.68579
G1 X155.997 Y174.396 E2.80003
G1 X155.997 Y170.1 E2.93236
G1 X159.706 Y170.1 E3.0466
G1 X159.706 Y165.803 E3.17896
G1 X155.997 Y165.803 E3.2932
G1 X155.997 Y161.507 E3.42553
G1 X159.706 Y161.507 E3.53977
G1 X159.706 Y161.213 E3.54883
G1 X159.864 Y161.213 E3.5537
G1 X159.864 Y157.211 E3.67697
G1 X155.997 Y157.211 E3.79608
G1 X155.997 Y152.914 E3.92844
G1 X159.864 Y152.914 E4.04755
G1 X159.864 Y148.618 E4.17988
G1 X155.997 Y148.618 E4.29899
G1 X155.997 Y144.322 E4.43132
G1 X159.864 Y144.322 E4.55043
G1 X159.864 Y140.025 E4.68279
G1 X155.997 Y140.025 E4.8019
G1 X155.997 Y135.729 E4.93423
G1 X159.997 Y135.729 E5.05744
G1 X159.677 Y131.756 F4800
G1 F3600
G1 X160.131 Y131.756 E5.07142
G1 X160.131 Y161.48 E5.98698
G1 X159.973 Y161.48 E5.99185
G1 X159.973 Y179.531 E6.54786
