; generated by PrusaSlicer 2.6.1 on 2023-11-03 at 21:08:00 UTC

; 

; external perimeters extrusion width = 0.45mm
; perimeters extrusion width = 0.45mm
; infill extrusion width = 0.45mm
; solid infill extrusion width = 0.45mm
; top infill extrusion width = 0.45mm
; support material extrusion width = 0.35mm
; first layer extrusion width = 0.55mm

M190 S60 ; set bed temperature and wait for it to be reached
;TYPE:Custom
; Start GCODE (begins)

G28 ; home all axes
G1 Z5 F5000 ; lift nozzle

M109 S200 ; Do this now so we can purge

; Extrude a small amount of waste material
G92 E0
G1 E20 F200
G92 E0

; Start GCODE (ends)
G21 ; set units to millimeters
G90 ; use absolute coordinates
M82 ; use absolute distances for extrusion
G92 E0
; Filament gcode
M107
;LAYER_CHANGE
;Z:0.28
;HEIGHT:0.28
G1 Z.28 F4800
G1 E-.5 F2400
G92 E0
G1 X149.88 Y117.734 F4800
G1 E.5 F2400
;TYPE:Skirt/Brim
;WIDTH:0.55
G1 F1020
G1 X151.628 Y116.285 E.62949
G1 X154.831 Y115.44 E.81841
G1 X165.169 Y115.44 E1.40799
G1 X167.404 Y115.837 E1.53745
G1 X169.366 Y116.979 E1.66692
G1 X170.814 Y118.727 E1.79637
G1 X171.659 Y121.93 E1.98529
G1 X171.659 Y218.196 E7.47542
G1 X171.262 Y220.43 E7.60482
G1 X170.12 Y222.392 E7.73429
G1 X168.372 Y223.84 E7.86374
G1 X165.169 Y224.686 E8.05267
G1 X154.831 Y224.686 E8.64225
G1 X152.596 Y224.289 E8.77171
G1 X150.634 Y223.146 E8.90121
G1 X149.186 Y221.399 E9.03062
G1 X148.341 Y218.196 E9.21954
G1 X148.341 Y121.93 E14.70967
G1 X148.738 Y119.695 E14.83913
G1 X149.85 Y117.785 E14.96518
G1 E14.46518 F2400
G92 E0
G1 X165.169 Y127.972 F4800
G1 E.5 F2400
;TYPE:Support material
G1 F1020
G1 X160.975 Y127.972 E.73919
G1 X160.975 Y126.569 E.8192
G1 X160.66 Y126.273 E.84385
G1 X159.246 Y126.362 E.92465
G1 X158.975 Y126.65 E.9472
G1 X158.975 Y127.972 E1.02259
G1 X154.831 Y127.972 E1.25893
G1 X154.831 Y121.93 E1.60351
G1 X165.169 Y121.93 E2.19309
G1 X165.169 Y127.899 E2.53351
G1 X163.919 Y127.752 F4800
G1 F1020
G1 X163.919 Y122.371 E2.84039
G1 X162.939 Y122.371 E2.89628
G1 X162.939 Y127.531 E3.19056
G1 X161.96 Y127.531 E3.24639
G1 X161.96 Y122.371 E3.54067
G1 X160.98 Y122.371 E3.59656
G1 X160.98 Y125.968 E3.8017
G1 X160.822 Y125.82 E3.81405
G1 X160 Y125.872 E3.86102
G1 X160 Y122.371 E4.06068
G1 X159.02 Y122.371 E4.11657
G1 X159.02 Y125.958 E4.32114
G1 X158.534 Y126.476 E4.36165
G1 X158.534 Y127.531 E4.42182
G1 X158.04 Y127.531 E4.44999
G1 X158.04 Y122.371 E4.74427
G1 X157.061 Y122.371 E4.8001
G1 X157.061 Y127.531 E5.09438
G1 X156.081 Y127.531 E5.15027
G1 X156.081 Y122.15 E5.45715
G1 E4.95715 F2400
G92 E0
G1 X159.825 Y161.719 F4800
G1 X160.125 Y127.584
G1 X160.125 Y164.891
G1 X165.169 Y218.196
G1 E.5 F2400
G1 F1020
G1 X154.831 Y218.196 E1.08958
G1 X154.831 Y207.857 E1.67922
G1 X158.975 Y207.857 E1.91556
G1 X158.975 Y212.812 E2.19815
G1 X159.259 Y213.103 E2.22134
G1 X160.673 Y213.141 E2.30201
G1 X160.975 Y212.846 E2.32609
G1 X160.975 Y134.819 E6.77603
G1 X165.169 Y134.819 E7.01522
G1 X165.169 Y218.122 E11.76606
G1 X163.919 Y217.975 F4800
G1 F1020
G1 X163.919 Y135.26 E16.48336
G1 X162.939 Y135.26 E16.53925
G1 X162.939 Y217.755 E21.24401
G1 X161.96 Y217.755 E21.29984
G1 X161.96 Y135.26 E26.0046
G1 X161.416 Y135.26 E26.03562
G1 X161.416 Y213.032 E30.47102
G1 X160.98 Y213.457 E30.50574
G1 X160.98 Y217.755 E30.75086
G1 X160 Y217.755 E30.80675
G1 X160 Y213.564 E31.04577
G1 X159.068 Y213.539 E31.09894
G1 X159.02 Y213.49 E31.10285
G1 X159.02 Y217.755 E31.34609
G1 X158.04 Y217.755 E31.40198
G1 X158.04 Y208.298 E31.94132
G1 X157.061 Y208.298 E31.99715
G1 X157.061 Y217.755 E32.53649
G1 X156.081 Y217.755 E32.59238
G1 X156.081 Y208.077 E33.14432
G1 E32.64432 F2400
G92 E0
G1 X159.825 Y134.622 F4800
G1 X160.125 Y127.584
G1 X160.125 Y128.733
G1 X160.21 Y127.067
G1 E.5 F2400
;TYPE:External perimeter
;WIDTH:0.530051
G1 F1020
G1 X160.21 Y212.363 E5.16643
G1 X159.74 Y212.351 E5.19215
G1 X159.74 Y127.097 E9.85628
G1 X160.15 Y127.071 E9.87876
G1 X160.209 Y127.467 F4800
;LAYER_CHANGE
;Z:0.53
;HEIGHT:0.25
G1 Z.53 F4800
G1 X160.213 Y127.066
;WIDTH:0.526831
G1 F1200
G1 X160.213 Y212.365 E14.07389
G1 X159.74 Y212.352 E14.09716
G1 X159.74 Y127.095 E18.29022
G1 X160.153 Y127.069 E18.31057
G1 X160.212 Y127.466 F4800
;LAYER_CHANGE
;Z:0.58
;HEIGHT:0.05
G1 Z.58 F4800
G1 E17.81057 F2400
G92 E0
G1 X162.445 Y127.099 F4800
G1 E.5 F2400
;TYPE:Support material interface
;WIDTH:0.35
;HEIGHT:0.3
G1 F3600
G1 X164.296 Y127.099 E.56594
G1 X164.296 Y122.803 E.71898
G1 X162.296 Y122.803 E.79023
G1 X162.296 Y127.099 E.94327
G1 X160.851 Y127.099 E.99475
G1 X160.851 Y126.623 E1.01171
G1 X160.615 Y126.402 E1.02323
G1 X160 Y126.441 E1.04518
G1 X160 Y122.803 E1.17478
G1 X157.704 Y122.803 E1.25657
G1 X157.704 Y127.099 E1.40961
G1 X155.704 Y127.099 E1.48086
G1 X155.704 Y122.803 E1.6339
G1 X157.555 Y122.803 E1.69984
G1 E1.19984 F2400
G92 E0
G1 X159.827 Y151.741 F4800
G1 X160.126 Y127.584
G1 X160.126 Y155.567
G1 X164.27 Y208.364
G1 E.5 F2400
;TYPE:Support material
G1 F3600
G1 X164.27 Y135.719 E3.08791
G1 X160.878 Y135.719 E3.20875
G1 X160.878 Y208.407 E5.79819
G1 X164.27 Y208.407 E5.91903
G1 E5.41903 F2400
G92 E0
G1 X160.126 Y208.606 F4800
G1 X159.827 Y211.811
G1 X159.827 Y208.621
G1 X157.555 Y208.73
G1 E.5 F2400
;TYPE:Support material interface
G1 F3600
G1 X155.704 Y208.73 E.56594
G1 X155.704 Y217.323 E.87206
G1 X157.704 Y217.323 E.94331
G1 X157.704 Y208.73 E1.24943
G1 X159.102 Y208.73 E1.29923
G1 X159.102 Y212.76 E1.44279
G1 X159.314 Y212.978 E1.45362
G1 X160 Y212.996 E1.47807
G1 X160 Y217.323 E1.63222
G1 X162.296 Y217.323 E1.71401
G1 X162.296 Y208.73 E2.02013
G1 X164.296 Y208.73 E2.09138
G1 X164.296 Y217.323 E2.3975
G1 X162.445 Y217.323 E2.46344
;LAYER_CHANGE
;Z:0.78
;HEIGHT:0.2
G1 Z.78 F4800
G1 E1.96344 F2400
G92 E0
G1 X160.214 Y127.065 F4800
G1 E.5 F2400
;TYPE:External perimeter
;WIDTH:0.52683
;HEIGHT:0.25
G1 F1200
G1 X160.214 Y212.365 E4.69517
G1 X159.741 Y212.352 E4.71844
G1 X159.741 Y127.095 E8.91149
G1 X160.154 Y127.069 E8.93184
G1 X160.213 Y127.465 F4800
M106 S255
;LAYER_CHANGE
;Z:0.83
;HEIGHT:0.05
G1 Z.83 F4800
G1 E8.43184 F2400
G92 E0
G1 X162.445 Y127.099 F4800
G1 E.5 F2400
;TYPE:Support material interface
;WIDTH:0.35
;HEIGHT:0.25
G1 F3600
G1 X164.296 Y127.099 E.55701
G1 X164.296 Y122.803 E.68934
G1 X162.296 Y122.803 E.75094
G1 X162.296 Y127.099 E.88327
G1 X160.852 Y127.099 E.92775
G1 X160.852 Y125.993 E.96182
G1 X160.614 Y125.772 E.97182
G1 X160 Y125.814 E.99078
G1 X160 Y122.803 E1.08352
G1 X157.704 Y122.803 E1.15424
G1 X157.704 Y127.099 E1.28657
G1 X155.704 Y127.099 E1.34817
G1 X155.704 Y122.803 E1.4805
G1 X157.555 Y122.803 E1.53751
G1 E1.03751 F2400
G92 E0
G1 X159.828 Y128.736 F4800
G1 X160.128 Y127.583
G1 X160.128 Y129.52
G1 X164.136 Y139.988
G1 E.5 F2400
;TYPE:Support material
G1 F3600
G1 X161.146 Y139.988 E.5921
G1 X161.146 Y144.285 E.72446
G1 X164.003 Y144.285 E.81246
G1 X164.003 Y148.581 E.94479
G1 X161.146 Y148.581 E1.03279
G1 X161.146 Y152.877 E1.16512
G1 X164.003 Y152.877 E1.25312
G1 X164.003 Y157.174 E1.38548
G1 X161.146 Y157.174 E1.47348
G1 X161.146 Y161.47 E1.60581
G1 X164.003 Y161.47 E1.69381
G1 X164.003 Y165.766 E1.82614
G1 X161.146 Y165.766 E1.91414
G1 X161.146 Y170.063 E2.0465
G1 X164.003 Y170.063 E2.1345
G1 X164.003 Y174.359 E2.26683
G1 X161.146 Y174.359 E2.35483
G1 X161.146 Y178.655 E2.48716
G1 X164.003 Y178.655 E2.57516
G1 X164.003 Y182.952 E2.70752
G1 X161.146 Y182.952 E2.79552
G1 X161.146 Y187.248 E2.92785
G1 X164.003 Y187.248 E3.01585
G1 X164.003 Y191.544 E3.14818
G1 X161.146 Y191.544 E3.23618
G1 X161.146 Y195.841 E3.36854
G1 X164.003 Y195.841 E3.45654
G1 X164.003 Y200.137 E3.58887
G1 X161.146 Y200.137 E3.67687
G1 X161.146 Y204.433 E3.8092
G1 X164.003 Y204.433 E3.8972
G1 X164.003 Y208.73 E4.02956
G1 X161.012 Y208.73 E4.12169
G1 X164.27 Y212.955 F4800
G1 F3600
G1 X164.27 Y135.719 E6.50071
G1 X160.879 Y135.719 E6.60516
G1 X160.879 Y212.999 E8.98553
G1 X164.27 Y212.999 E9.08998
;LAYER_CHANGE
;Z:1.03
;HEIGHT:0.2
G1 Z1.03 F4800
G1 E8.58998 F2400
G92 E0
G1 X160.215 Y126.69 F4800
G1 E.5 F2400
;TYPE:External perimeter
;WIDTH:0.526832
;HEIGHT:0.25
G1 F1200
G1 X160.215 Y212.828 E4.7364
;TYPE:Overhang perimeter
;WIDTH:0.4
;HEIGHT:0.4
G1 F3600
G1 X160.215 Y215.606 E4.88154
G1 X159.742 Y215.594 E4.90626
G1 X159.742 Y212.816 E5.0514
;TYPE:External perimeter
;WIDTH:0.526832
;HEIGHT:0.25
G1 F1200
G1 X159.742 Y126.631 E9.29011
;TYPE:Overhang perimeter
;WIDTH:0.4
;HEIGHT:0.4
G1 F3600
G1 X159.742 Y126.469 E9.29857
G1 X160.215 Y126.437 E9.32334
G1 X160.215 Y126.601 E9.33191
;TYPE:External perimeter
;WIDTH:0.526829
;HEIGHT:0.25
G1 F1200
G1 X160.215 Y126.63 E9.33334
;LAYER_CHANGE
;Z:1.10778
;HEIGHT:0.0777779
G1 Z1.108 F4800
G1 E8.83334 F2400
G92 E0
G1 X164.27 Y212.956 F4800
G1 E.5 F2400
;TYPE:Support material
;WIDTH:0.35
;HEIGHT:0.277778
G1 F3600
G1 X164.27 Y135.719 E3.09022
G1 X160.879 Y135.719 E3.20394
G1 X160.881 Y212.999 E5.7956
G1 X164.27 Y212.999 E5.90925
;LAYER_CHANGE
;Z:1.28
;HEIGHT:0.172222
G1 Z1.28 F4800
G1 E5.40925 F2400
G92 E0
G1 X160.217 Y178.787 F4800
G1 E.5 F2400
;TYPE:External perimeter
;WIDTH:0.526832
;HEIGHT:0.25
G1 F1200
G1 X160.217 Y215.676 E2.31426
G1 X159.743 Y215.663 E2.33758
G1 X159.743 Y178.787 E4.1512
G1 X160.157 Y178.787 E4.17156
G1 X160.215 Y179.187 F4800
G1 E3.67156 F2400
G92 E0
G1 X160.217 Y130.723 F4800
G1 E.5 F2400
;WIDTH:0.526829
G1 F900
G1 X159.743 Y130.75 E.52335
G1 X159.743 Y126.005 E.75671
;TYPE:Overhang perimeter
;WIDTH:0.4
;HEIGHT:0.4
G1 X159.743 Y124.726 E.82353
G1 X160.217 Y124.694 E.84835
G1 X160.217 Y124.947 E.86157
G1 X160.217 Y125.973 E.91517
;TYPE:External perimeter
;WIDTH:0.526829
;HEIGHT:0.25
G1 X160.217 Y130.663 E1.14583
;LAYER_CHANGE
;Z:1.38556
;HEIGHT:0.105556
G1 Z1.386 F4800
G1 E.64583 F2400
G92 E0
G1 X164.139 Y139.988 F4800
G1 E.5 F2400
;TYPE:Support material
;WIDTH:0.35
;HEIGHT:0.277778
G1 F3600
G1 X161.143 Y139.988 E.60047
G1 X161.143 Y144.285 E.74457
G1 X164.005 Y144.285 E.84055
G1 X164.005 Y148.581 E.98462
G1 X161.143 Y148.581 E1.0806
G1 X161.143 Y152.877 E1.22467
G1 X164.005 Y152.877 E1.32065
G1 X164.005 Y157.174 E1.46475
G1 X161.143 Y157.174 E1.56073
G1 X161.143 Y161.47 E1.7048
G1 X164.005 Y161.47 E1.80078
G1 X164.005 Y165.766 E1.94485
G1 X161.143 Y165.766 E2.04083
G1 X161.143 Y170.063 E2.18493
G1 X164.005 Y170.063 E2.28091
G1 X164.005 Y174.359 E2.42498
G1 X161.143 Y174.359 E2.52096
G1 X161.147 Y178.655 E2.66503
G1 X164.005 Y178.655 E2.76088
G1 X164.005 Y182.952 E2.90498
G1 X161.146 Y182.952 E3.00086
G1 X161.146 Y187.248 E3.14493
G1 X164.005 Y187.248 E3.24081
G1 X164.005 Y191.544 E3.38488
G1 X161.146 Y191.544 E3.48076
G1 X161.146 Y195.841 E3.62486
G1 X164.005 Y195.841 E3.72074
G1 X164.005 Y200.137 E3.86481
G1 X161.146 Y200.137 E3.96069
G1 X161.146 Y204.433 E4.10476
G1 X164.005 Y204.433 E4.20064
G1 X164.005 Y208.73 E4.34474
G1 X161.012 Y208.73 E4.44511
G1 X164.27 Y212.956 F4800
G1 F3600
G1 X164.27 Y135.719 E7.03533
G1 X160.879 Y135.719 E7.14905
G1 X160.882 Y212.999 E9.74071
G1 X164.27 Y212.999 E9.85433
;LAYER_CHANGE
;Z:1.53
;HEIGHT:0.144444
G1 Z1.53 F4800
G1 E9.35433 F2400
G92 E0
G1 X160.218 Y178.787 F4800
G1 E.5 F2400
;TYPE:External perimeter
;WIDTH:0.526831
;HEIGHT:0.25
G1 F1200
G1 X160.218 Y215.745 E2.31765
G1 X159.745 Y215.732 E2.34092
G1 X159.745 Y178.787 E4.15793
G1 X160.158 Y178.787 E4.17824
G1 X160.216 Y179.187 F4800
G1 E3.67824 F2400
G92 E0
G1 X160.218 Y125.54 F4800
G1 E.5 F2400
;WIDTH:0.526829
G1 F900
G1 X160.218 Y125.793 E.51244
G1 X160.218 Y131.181 E.77743
;TYPE:Overhang perimeter
;WIDTH:0.4
;HEIGHT:0.4
G1 X160.218 Y131.543 E.79634
G1 X159.745 Y131.575 E.82111
G1 X159.745 Y131.212 E.84007
;TYPE:External perimeter
;WIDTH:0.526829
;HEIGHT:0.25
G1 X159.745 Y125.573 E1.1174
G1 X160.158 Y125.544 E1.13776
G1 X160.211 Y125.793 F4800
;LAYER_CHANGE
;Z:1.66333
;HEIGHT:0.133333
G1 Z1.663 F4800
G1 E.63776 F2400
G92 E0
G1 X164.27 Y212.956 F4800
G1 E.5 F2400
;TYPE:Support material
;WIDTH:0.35
;HEIGHT:0.277778
G1 F3600
G1 X164.27 Y135.719 E3.09022
G1 X160.664 Y135.719 E3.21115
G1 X160.664 Y178.138 E4.63371
G1 X160.884 Y178.358 E4.64414
G1 X160.884 Y212.999 E5.80586
G1 X164.27 Y212.999 E5.91941
;LAYER_CHANGE
;Z:1.78
;HEIGHT:0.116667
G1 Z1.78 F4800
G1 E5.41941 F2400
G92 E0
G1 X160.219 Y126.466 F4800
G1 E.5 F2400
;TYPE:External perimeter
;WIDTH:0.52683
;HEIGHT:0.25
G1 F900
G1 X160.219 Y126.72 E.51249
G1 X160.219 Y132.008 E.77256
;TYPE:Overhang perimeter
;WIDTH:0.4
;HEIGHT:0.4
G1 X160.219 Y132.37 E.79147
G1 X159.746 Y132.401 E.81623
G1 X159.746 Y132.039 E.83514
;TYPE:External perimeter
;WIDTH:0.52683
;HEIGHT:0.25
G1 X159.746 Y126.499 E1.1076
G1 X160.159 Y126.47 E1.12796
G1 X160.212 Y126.72 F4800
G1 E.62796 F2400
G92 E0
G1 X160.219 Y182.26 F4800
G1 E.5 F2400
;WIDTH:0.526831
G1 F900
G1 X159.746 Y182.26 E.52326
G1 X159.746 Y178.787 E.69407
G1 X160.219 Y178.787 E.71733
G1 X160.219 Y182.2 E.88519
G1 X159.864 Y182.076 F4800
G1 E.38519 F2400
G92 E0
G1 X160.219 Y209.992 F4800
G1 E.5 F2400
;WIDTH:0.526832
G1 F900
G1 X160.219 Y215.746 E.78299
G1 X159.746 Y215.733 E.80626
G1 X159.746 Y209.806 E1.09776
G1 X159.906 Y209.81 E1.10563
G1 X160.167 Y209.961 E1.12046
G1 X159.978 Y210.31 F4800
;LAYER_CHANGE
;Z:1.94111
;HEIGHT:0.161111
G1 Z1.941 F4800
G1 X161.012 Y208.73
;TYPE:Support material
;WIDTH:0.35
;HEIGHT:0.277778
G1 F3600
G1 X164.005 Y208.73 E1.22083
G1 X164.005 Y204.433 E1.36493
G1 X161.146 Y204.433 E1.46081
G1 X161.146 Y200.137 E1.60488
G1 X164.005 Y200.137 E1.70076
G1 X164.005 Y195.841 E1.84483
G1 X161.146 Y195.841 E1.94071
G1 X161.146 Y191.544 E2.08481
G1 X164.005 Y191.544 E2.18069
G1 X164.005 Y187.248 E2.32476
G1 X161.146 Y187.248 E2.42064
G1 X161.146 Y182.952 E2.56471
G1 X164.005 Y182.952 E2.66059
G1 X164.005 Y178.655 E2.80469
G1 X161.149 Y178.655 E2.90047
G1 X161.149 Y178.248 E2.91412
G1 X160.928 Y178.027 E2.9246
G1 X160.928 Y174.359 E3.04761
G1 X164.005 Y174.359 E3.1508
G1 X164.005 Y170.063 E3.29487
G1 X160.928 Y170.063 E3.39806
G1 X160.928 Y165.766 E3.54216
G1 X164.005 Y165.766 E3.64535
G1 X164.005 Y161.47 E3.78942
G1 X160.928 Y161.47 E3.89261
G1 X160.928 Y157.174 E4.03668
G1 X164.005 Y157.174 E4.13987
G1 X164.005 Y152.877 E4.28397
G1 X160.928 Y152.877 E4.38716
G1 X160.928 Y148.581 E4.53123
G1 X164.005 Y148.581 E4.63442
G1 X164.005 Y144.285 E4.77849
G1 X160.928 Y144.285 E4.88168
G1 X160.928 Y139.988 E5.02578
G1 X164.139 Y139.988 E5.13346
G1 X164.27 Y212.956 F4800
G1 F3600
G1 X164.27 Y135.719 E7.72368
G1 X160.664 Y135.719 E7.84461
G1 X160.664 Y178.137 E9.26714
G1 X160.885 Y178.358 E9.27762
G1 X160.884 Y212.999 E10.43934
G1 X164.27 Y212.999 E10.55289
;LAYER_CHANGE
;Z:2.03
;HEIGHT:0.0888889
G1 Z2.03 F4800
G1 E10.05289 F2400
G92 E0
G1 X160.22 Y127.392 F4800
G1 E.5 F2400
;TYPE:External perimeter
;WIDTH:0.526831
;HEIGHT:0.25
G1 F900
G1 X160.22 Y127.646 E.51249
G1 X160.22 Y132.835 E.76769
;TYPE:Overhang perimeter
;WIDTH:0.4
;HEIGHT:0.4
G1 X160.22 Y133.194 E.78645
G1 X159.747 Y133.228 E.81123
G1 X159.747 Y132.866 E.83014
;TYPE:External perimeter
;WIDTH:0.526831
;HEIGHT:0.25
G1 X159.747 Y127.425 E1.09774
G1 X160.16 Y127.396 E1.1181
G1 X160.213 Y127.646 F4800
G1 E.6181 F2400
G92 E0
G1 X160.22 Y182.26 F4800
G1 E.5 F2400
G1 F900
G1 X159.747 Y182.26 E.52326
G1 X159.747 Y178.787 E.69407
G1 X160.22 Y178.787 E.71733
G1 X160.22 Y182.2 E.88519
G1 X159.865 Y182.076 F4800
G1 E.38519 F2400
G92 E0
G1 X160.22 Y212.386 F4800
G1 E.5 F2400
G1 F900
G1 X160.22 Y215.747 E.6653
G1 X159.747 Y215.734 E.68857
G1 X159.752 Y211.507 E.89646
G1 X160.22 Y211.817 E.92407
G1 X160.22 Y212.326 E.9491
G1 X159.911 Y212.639 F4800
;LAYER_CHANGE
;Z:2.21889
;HEIGHT:0.188889
G1 Z2.219 F4800
G1 E.4491 F2400
G92 E0
G1 X164.27 Y212.956 F4800
G1 E.5 F2400
;TYPE:Support material
;WIDTH:0.35
;HEIGHT:0.277778
G1 F3600
G1 X164.27 Y135.719 E3.09022
G1 X160.664 Y135.719 E3.21115
G1 X160.664 Y178.135 E4.63361
G1 X160.886 Y178.358 E4.64416
G1 X160.886 Y182.689 E4.7894
G1 X160.666 Y182.909 E4.79983
G1 X160.666 Y209.493 E5.69135
G1 X160.789 Y209.576 E5.69633
G1 X160.882 Y209.752 E5.70301
G1 X160.884 Y212.999 E5.8119
G1 X164.27 Y212.999 E5.92545
;LAYER_CHANGE
;Z:2.28
;HEIGHT:0.061111
G1 Z2.28 F4800
G1 E5.42545 F2400
G92 E0
G1 X160.221 Y128.318 F4800
G1 E.5 F2400
;TYPE:External perimeter
;WIDTH:0.526831
;HEIGHT:0.25
G1 F900
G1 X160.221 Y128.572 E.51249
