; generated by PrusaSlicer 2.6.1 on 2023-11-03 at 21:08:00 UTC

; 

; external perimeters extrusion width = 0.45mm
; perimeters extrusion width = 0.45mm
; infill extrusion width = 0.45mm
; solid infill extrusion width = 0.45mm
; top infill extrusion width = 0.45mm
; support material extrusion width = 0.35mm
; first layer extrusion width = 0.55mm

M190 S60 ; set bed temperature and wait for it to be reached
;TYPE:Custom
; Start GCODE (begins)

G28 ; home all axes
G1 Z5 F5000 ; lift nozzle

M109 S200 ; Do this now so we can purge

; Extrude a small amount of waste material
G92 E0
G1 E20 F200
G92 E0

; Start GCODE (ends)
G21 ; set units to millimeters
G90 ; use absolute coordinates
M82 ; use absolute distances for extrusion
G92 E0
; Filament gcode
M107
;LAYER_CHANGE
;Z:0.28
;HEIGHT:0.28
G1 Z.28 F4800
G1 E-.5 F2400
G92 E0
G1 X149.88 Y122.03 F4800
G1 E.5 F2400
;TYPE:Skirt/Brim
;WIDTH:0.55
G1 F1020
G1 X151.628 Y120.582 E.62945
G1 X154.831 Y119.736 E.81838
G1 X165.169 Y119.736 E1.40796
G1 X167.404 Y120.133 E1.53742
G1 X169.366 Y121.275 E1.66689
G1 X170.814 Y123.023 E1.79634
G1 X171.659 Y126.226 E1.98526
G1 X171.659 Y213.899 E6.98532
G1 X171.262 Y216.134 E7.11478
G1 X170.12 Y218.096 E7.24425
G1 X168.372 Y219.544 E7.3737
G1 X165.169 Y220.389 E7.56262
G1 X154.831 Y220.389 E8.1522
G1 X152.596 Y219.992 E8.28166
G1 X150.634 Y218.85 E8.41113
G1 X149.186 Y217.102 E8.54058
G1 X148.341 Y213.899 E8.7295
G1 X148.341 Y126.226 E13.72956
G1 X148.738 Y123.991 E13.85902
G1 X149.85 Y122.082 E13.98502
G1 E13.48502 F2400
G92 E0
G1 X165.169 Y132.269 F4800
G1 E.5 F2400
;TYPE:Support material
G1 F1020
G1 X160.977 Y132.269 E.73907
G1 X160.977 Y129.577 E.8926
G1 X160.662 Y129.281 E.91725
G1 X159.248 Y129.37 E.99805
G1 X158.977 Y129.658 E1.0206
G1 X158.977 Y132.269 E1.16951
G1 X154.831 Y132.269 E1.40596
G1 X154.831 Y126.226 E1.7506
G1 X165.169 Y126.226 E2.34018
G1 X165.169 Y132.195 E2.6806
G1 X163.919 Y132.048 F4800
G1 F1020
G1 X163.919 Y126.667 E2.98748
G1 X162.939 Y126.667 E3.04337
G1 X162.939 Y131.828 E3.33771
G1 X161.96 Y131.828 E3.39354
G1 X161.96 Y126.667 E3.68788
G1 X160.98 Y126.667 E3.74377
G1 X160.98 Y128.975 E3.8754
G1 X160.824 Y128.829 E3.88759
G1 X160 Y128.881 E3.93468
G1 X160 Y126.667 E4.06095
G1 X159.02 Y126.667 E4.11684
G1 X159.02 Y128.968 E4.24807
G1 X158.536 Y129.484 E4.28842
G1 X158.536 Y131.828 E4.4221
G1 X158.04 Y131.828 E4.45039
G1 X158.04 Y126.667 E4.74473
G1 X157.061 Y126.667 E4.80056
G1 X157.061 Y131.828 E5.0949
G1 X156.081 Y131.828 E5.15079
G1 X156.081 Y126.447 E5.45767
G1 E4.95767 F2400
G92 E0
G1 X159.827 Y162.494 F4800
G1 X160.127 Y141.523
G1 X160.127 Y165.383
G1 X165.169 Y213.899
G1 E.5 F2400
G1 F1020
G1 X154.831 Y213.899 E1.08958
G1 X154.831 Y207.857 E1.43416
G1 X158.977 Y207.857 E1.67061
G1 X158.977 Y209.545 E1.76688
G1 X159.261 Y209.836 E1.79007
G1 X160.675 Y209.874 E1.87074
G1 X160.977 Y209.58 E1.89478
G1 X160.977 Y139.115 E5.91346
G1 X165.169 Y139.115 E6.15253
G1 X165.169 Y213.826 E10.41336
G1 X163.919 Y213.679 F4800
G1 F1020
G1 X163.919 Y139.556 E14.64066
G1 X162.939 Y139.556 E14.69655
G1 X162.939 Y213.458 E18.91124
G1 X161.96 Y213.458 E18.96707
G1 X161.96 Y139.556 E23.18176
G1 X161.418 Y139.556 E23.21267
G1 X161.418 Y209.766 E27.2168
G1 X160.98 Y210.193 E27.25169
G1 X160.98 Y213.458 E27.4379
G1 X160 Y213.458 E27.49379
G1 X160 Y210.297 E27.67406
G1 X159.07 Y210.272 E27.72712
G1 X159.02 Y210.222 E27.73115
G1 X159.02 Y213.458 E27.9157
G1 X158.04 Y213.458 E27.97159
G1 X158.04 Y208.298 E28.26587
G1 X157.061 Y208.298 E28.3217
G1 X157.061 Y213.458 E28.61598
G1 X156.081 Y213.458 E28.67187
G1 X156.081 Y208.077 E28.97875
G1 E28.47875 F2400
G92 E0
G1 X159.827 Y137.346 F4800
G1 X160.127 Y130.59
G1 X160.127 Y131.678
G1 X160.212 Y130.076
G1 E.5 F2400
;TYPE:External perimeter
;WIDTH:0.530051
G1 F1020
G1 X160.212 Y209.097 E4.82312
G1 X159.742 Y209.084 E4.84884
G1 X159.742 Y130.105 E9.16966
G1 X160.152 Y130.079 E9.19214
G1 X160.211 Y130.476 F4800
;LAYER_CHANGE
;Z:0.53
;HEIGHT:0.25
G1 Z.53 F4800
G1 X160.215 Y130.074
;WIDTH:0.526832
G1 F1200
G1 X160.215 Y209.098 E13.07866
G1 X159.742 Y209.086 E13.10193
G1 X159.742 Y130.104 E16.98639
G1 X160.155 Y130.078 E17.00674
G1 X160.214 Y130.474 F4800
;LAYER_CHANGE
;Z:0.58
;HEIGHT:0.05
G1 Z.58 F4800
G1 X160 Y129.293
;TYPE:Support material
;WIDTH:0.35
;HEIGHT:0.3
G1 F3600
G1 X160 Y127.255 E17.07934
G1 X164.27 Y131.326 F4800
G1 F3600
G1 X164.27 Y127.126 E17.22896
G1 X155.73 Y127.126 E17.53319
G1 X155.73 Y131.369 E17.68434
G1 X159.077 Y131.369 E17.80357
G1 X159.077 Y129.698 E17.8631
G1 X159.293 Y129.468 E17.87434
G1 X160.627 Y129.383 E17.92196
G1 X160.88 Y129.62 E17.93431
G1 X160.88 Y131.369 E17.99662
G1 X164.27 Y131.369 E18.11739
G1 E17.61739 F2400
G92 E0
G1 X164.27 Y208.364 F4800
G1 E.5 F2400
G1 F3600
G1 X164.27 Y140.015 E2.93487
G1 X160.88 Y140.015 E3.05564
G1 X160.88 Y208.407 E5.49204
G1 X164.27 Y208.407 E5.61281
G1 E5.11281 F2400
G92 E0
G1 X162.445 Y213.026 F4800
G1 E.5 F2400
;TYPE:Support material interface
G1 F3600
G1 X164.296 Y213.026 E.56594
G1 X164.296 Y208.73 E.71898
G1 X162.296 Y208.73 E.79023
G1 X162.296 Y213.026 E.94327
G1 X160 Y213.026 E1.02506
G1 X160 Y209.729 E1.14251
G1 X159.316 Y209.711 E1.16689
G1 X159.104 Y209.494 E1.1777
G1 X159.104 Y208.73 E1.20492
G1 X157.704 Y208.73 E1.25479
G1 X157.704 Y213.026 E1.40783
G1 X155.704 Y213.026 E1.47908
G1 X155.704 Y208.73 E1.63212
G1 X157.555 Y208.73 E1.69806
;LAYER_CHANGE
;Z:0.78
;HEIGHT:0.2
G1 Z.78 F4800
G1 E1.19806 F2400
G92 E0
G1 X159.831 Y141.465 F4800
G1 X160.128 Y130.58
G1 X160.128 Y132.671
G1 X160.216 Y130.074
G1 E.5 F2400
;TYPE:External perimeter
;WIDTH:0.526832
;HEIGHT:0.25
G1 F1200
G1 X160.216 Y209.098 E4.38652
G1 X159.743 Y209.086 E4.40979
G1 X159.743 Y130.104 E8.29425
G1 X160.156 Y130.078 E8.3146
G1 X160.215 Y130.474 F4800
M106 S255
;LAYER_CHANGE
;Z:0.83
;HEIGHT:0.05
G1 Z.83 F4800
G1 E7.8146 F2400
G92 E0
G1 X162.445 Y131.396 F4800
G1 E.5 F2400
;TYPE:Support material interface
;WIDTH:0.35
;HEIGHT:0.25
G1 F3600
G1 X164.296 Y131.396 E.55701
G1 X164.296 Y127.099 E.68937
G1 X162.296 Y127.099 E.75097
G1 X162.296 Y131.396 E.88333
G1 X160.854 Y131.396 E.92775
G1 X160.854 Y129.364 E.99034
G1 X160.617 Y129.143 E1.00032
G1 X160 Y129.185 E1.01937
G1 X160 Y127.099 E1.08362
G1 X157.704 Y127.099 E1.15434
G1 X157.704 Y131.396 E1.2867
G1 X155.704 Y131.396 E1.3483
G1 X155.704 Y127.099 E1.48066
G1 X157.555 Y127.099 E1.53767
G1 E1.03767 F2400
G92 E0
G1 X159.83 Y133.038 F4800
G1 X160.13 Y130.582
G1 X160.13 Y133.822
G1 X164.136 Y144.285
G1 E.5 F2400
;TYPE:Support material
G1 F3600
G1 X161.148 Y144.285 E.59204
G1 X161.148 Y148.581 E.72437
G1 X164.003 Y148.581 E.81231
G1 X164.003 Y152.877 E.94464
G1 X161.148 Y152.877 E1.03258
G1 X161.148 Y157.174 E1.16494
G1 X164.003 Y157.174 E1.25288
G1 X164.003 Y161.47 E1.38521
G1 X161.148 Y161.47 E1.47315
G1 X161.148 Y165.766 E1.60548
G1 X164.003 Y165.766 E1.69342
G1 X164.003 Y170.063 E1.82578
G1 X161.148 Y170.063 E1.91372
G1 X161.148 Y174.359 E2.04605
G1 X164.003 Y174.359 E2.13399
G1 X164.003 Y178.655 E2.26632
G1 X161.148 Y178.655 E2.35426
G1 X161.148 Y182.952 E2.48662
G1 X164.003 Y182.952 E2.57456
G1 X164.003 Y187.248 E2.70689
G1 X161.148 Y187.248 E2.79483
G1 X161.148 Y191.544 E2.92716
G1 X164.003 Y191.544 E3.0151
G1 X164.003 Y195.841 E3.14746
G1 X161.148 Y195.841 E3.2354
G1 X161.148 Y200.137 E3.36773
G1 X164.003 Y200.137 E3.45567
G1 X164.003 Y204.433 E3.588
G1 X161.014 Y204.433 E3.68007
G1 X164.27 Y208.659 F4800
G1 F3600
G1 X164.27 Y140.015 E5.79444
G1 X160.881 Y140.015 E5.89883
G1 X160.881 Y208.703 E8.01455
G1 X164.27 Y208.703 E8.11894
;LAYER_CHANGE
;Z:1.03
;HEIGHT:0.2
G1 Z1.03 F4800
G1 E7.61894 F2400
G92 E0
G1 X160.217 Y210.317 F4800
G1 E.5 F2400
;TYPE:Overhang perimeter
;WIDTH:0.4
;HEIGHT:0.4
G1 F900
G1 X160.217 Y212.31 E.60412
G1 X159.744 Y212.297 E.62884
G1 X159.744 Y210.314 E.73244
G1 X160.157 Y210.316 E.75402
G1 X160.186 Y210.716 F4800
G1 E.25402 F2400
G92 E0
G1 X160.217 Y129.808 F4800
G1 E.5 F2400
;TYPE:External perimeter
;WIDTH:0.526832
;HEIGHT:0.25
G1 F1200
G1 X160.217 Y209.098 E4.39961
G1 X159.744 Y209.086 E4.42288
G1 X159.744 Y129.84 E8.32032
G1 X160.158 Y129.812 E8.34073
G1 X160.217 Y130.208 F4800
;LAYER_CHANGE
;Z:1.11571
;HEIGHT:0.0857143
G1 Z1.116 F4800
G1 E7.84073 F2400
G92 E0
G1 X164.27 Y208.66 F4800
G1 E.5 F2400
;TYPE:Support material
;WIDTH:0.35
;HEIGHT:0.285714
G1 F3600
G1 X164.27 Y140.015 E2.85396
G1 X160.881 Y140.015 E2.97017
G1 X160.883 Y208.703 E5.32561
G1 X164.27 Y208.703 E5.44176
;LAYER_CHANGE
;Z:1.28
;HEIGHT:0.164286
G1 Z1.28 F4800
G1 E4.94176 F2400
G92 E0
G1 X160.219 Y177.388 F4800
G1 E.5 F2400
;TYPE:External perimeter
;WIDTH:0.526834
;HEIGHT:0.25
G1 F1200
G1 X160.219 Y177.624 E.51161
G1 X160.219 Y209.562 E2.08238
;TYPE:Overhang perimeter
;WIDTH:0.4
;HEIGHT:0.4
G1 F3600
G1 X160.219 Y209.85 E2.09743
;TYPE:External perimeter
;WIDTH:0.526834
;HEIGHT:0.25
G1 F1200
G1 X160.219 Y212.38 E2.22186
G1 X159.745 Y212.367 E2.24518
G1 X159.745 Y209.849 E2.36902
;TYPE:Overhang perimeter
;WIDTH:0.4
;HEIGHT:0.4
G1 F3600
G1 X159.745 Y209.549 E2.38469
;TYPE:External perimeter
;WIDTH:0.526834
;HEIGHT:0.25
G1 F1200
G1 X159.745 Y177.388 E3.96642
G1 X160.159 Y177.388 E3.98678
G1 X160.217 Y177.624 F4800
G1 E3.48678 F2400
G92 E0
G1 X160.219 Y133.95 F4800
G1 E.5 F2400
;WIDTH:0.526832
G1 F900
G1 X159.745 Y133.968 E.52333
G1 X159.745 Y129.376 E.74917
;TYPE:Overhang perimeter
;WIDTH:0.4
;HEIGHT:0.4
G1 X159.745 Y128.179 E.81171
G1 X160.219 Y128.145 E.83654
G1 X160.219 Y128.399 E.84981
G1 X160.219 Y129.344 E.89918
;TYPE:External perimeter
;WIDTH:0.526832
;HEIGHT:0.25
G1 X160.219 Y133.89 E1.12276
;LAYER_CHANGE
;Z:1.40143
;HEIGHT:0.121429
G1 Z1.401 F4800
G1 E.62276 F2400
G92 E0
G1 X164.139 Y144.285 F4800
G1 E.5 F2400
;TYPE:Support material
;WIDTH:0.35
;HEIGHT:0.285714
G1 F3600
G1 X161.144 Y144.285 E.6027
G1 X161.144 Y148.581 E.75002
G1 X164.006 Y148.581 E.84816
G1 X164.006 Y152.877 E.99548
G1 X161.144 Y152.877 E1.09362
G1 X161.144 Y157.174 E1.24097
G1 X164.006 Y157.174 E1.33911
G1 X164.006 Y161.47 E1.48643
G1 X161.144 Y161.47 E1.58457
G1 X161.144 Y165.766 E1.73189
G1 X164.006 Y165.766 E1.83003
G1 X164.006 Y170.063 E1.97738
G1 X161.144 Y170.063 E2.07552
G1 X161.144 Y174.359 E2.22284
G1 X164.006 Y174.359 E2.32098
G1 X164.006 Y178.655 E2.4683
G1 X161.148 Y178.655 E2.56631
G1 X161.147 Y182.952 E2.71366
G1 X164.006 Y182.952 E2.8117
G1 X164.006 Y187.248 E2.95902
G1 X161.147 Y187.248 E3.05706
G1 X161.147 Y191.544 E3.20438
G1 X164.006 Y191.544 E3.30242
G1 X164.006 Y195.841 E3.44977
G1 X161.147 Y195.841 E3.54781
G1 X161.147 Y200.137 E3.69513
G1 X164.006 Y200.137 E3.79317
G1 X164.006 Y204.433 E3.94049
G1 X161.014 Y204.433 E4.04309
G1 X164.27 Y208.66 F4800
G1 F3600
G1 X164.27 Y140.015 E6.39705
G1 X160.881 Y140.015 E6.51326
G1 X160.884 Y208.703 E8.8687
G1 X164.27 Y208.703 E8.98481
;LAYER_CHANGE
;Z:1.53
;HEIGHT:0.128571
G1 Z1.53 F4800
G1 E8.48481 F2400
G92 E0
G1 X160.22 Y177.388 F4800
G1 E.5 F2400
;TYPE:External perimeter
;WIDTH:0.526835
;HEIGHT:0.25
G1 F1200
G1 X160.22 Y212.418 E2.22284
G1 X159.747 Y212.405 E2.24611
G1 X159.747 Y177.388 E3.96831
G1 X160.16 Y177.388 E3.98862
G1 X160.218 Y177.788 F4800
G1 E3.48862 F2400
G92 E0
G1 X160.22 Y129.079 F4800
G1 E.5 F2400
;WIDTH:0.526832
G1 F900
G1 X160.22 Y129.333 E.51249
G1 X160.22 Y134.394 E.7614
;TYPE:Overhang perimeter
;WIDTH:0.4
;HEIGHT:0.4
G1 X160.22 Y134.757 E.78036
G1 X159.747 Y134.788 E.80512
G1 X159.747 Y134.426 E.82403
;TYPE:External perimeter
;WIDTH:0.526832
;HEIGHT:0.25
G1 X159.747 Y129.113 E1.08533
G1 X160.16 Y129.083 E1.1057
G1 X160.212 Y129.333 F4800
;LAYER_CHANGE
;Z:1.68714
;HEIGHT:0.157143
G1 Z1.687 F4800
G1 E.6057 F2400
G92 E0
G1 X164.27 Y208.66 F4800
G1 E.5 F2400
;TYPE:Support material
;WIDTH:0.35
;HEIGHT:0.285714
G1 F3600
G1 X164.27 Y140.015 E2.85396
G1 X160.666 Y140.015 E2.97755
G1 X160.666 Y176.739 E4.23688
G1 X160.886 Y176.959 E4.24755
G1 X160.886 Y208.703 E5.33611
G1 X164.27 Y208.703 E5.45215
;LAYER_CHANGE
;Z:1.78
;HEIGHT:0.0928571
G1 Z1.78 F4800
G1 E4.95215 F2400
G92 E0
G1 X160.221 Y130.013 F4800
G1 E.5 F2400
;TYPE:External perimeter
;WIDTH:0.526832
;HEIGHT:0.25
G1 F900
G1 X160.221 Y130.267 E.51249
G1 X160.221 Y135.221 E.75614
;TYPE:Overhang perimeter
;WIDTH:0.4
;HEIGHT:0.4
G1 X160.221 Y135.583 E.77505
G1 X159.748 Y135.615 E.79982
G1 X159.748 Y135.252 E.81878
;TYPE:External perimeter
;WIDTH:0.526832
;HEIGHT:0.25
G1 X159.748 Y130.046 E1.07482
G1 X160.161 Y130.017 E1.09518
G1 X160.213 Y130.267 F4800
G1 E.59518 F2400
G92 E0
G1 X160.221 Y177.388 F4800
G1 E.5 F2400
;WIDTH:0.52683
G1 F900
G1 X160.221 Y180.861 E.67081
G1 X159.748 Y180.861 E.69407
G1 X159.748 Y177.388 E.86488
G1 X160.161 Y177.388 E.88519
G1 X160.203 Y177.787 F4800
G1 E.38519 F2400
G92 E0
G1 X160.133 Y179.375 F4800
G1 X160.117 Y180.53
G1 X159.748 Y206.864
G1 E.5 F2400
G1 F900
G1 X159.748 Y206.696 E.50826
G1 X159.777 Y206.637 E.51149
G1 X160.221 Y206.633 E.53333
G1 X160.221 Y212.419 E.81789
G1 X159.748 Y212.406 E.84116
G1 X159.748 Y206.924 E1.11077
G1 X159.891 Y206.776 F4800
;LAYER_CHANGE
;Z:1.97286
;HEIGHT:0.192857
G1 Z1.973 F4800
G1 E.61077 F2400
G92 E0
G1 X161.014 Y204.433 F4800
G1 E.5 F2400
;TYPE:Support material
;WIDTH:0.35
;HEIGHT:0.285714
G1 F3600
G1 X164.006 Y204.433 E.6026
G1 X164.006 Y200.137 E.74992
G1 X161.147 Y200.137 E.84796
G1 X161.147 Y195.841 E.99528
G1 X164.006 Y195.841 E1.09332
G1 X164.006 Y191.544 E1.24067
G1 X161.147 Y191.544 E1.33871
G1 X161.147 Y188.212 E1.45297
G1 X161.147 Y187.248 E1.48603
G1 X164.006 Y187.248 E1.58407
G1 X164.006 Y182.952 E1.73139
G1 X161.147 Y182.952 E1.82943
G1 X161.149 Y178.655 E1.97678
G1 X164.006 Y178.655 E2.07475
G1 X164.006 Y174.359 E2.22207
G1 X160.929 Y174.359 E2.32759
G1 X160.929 Y170.063 E2.47491
G1 X164.006 Y170.063 E2.58043
G1 X164.006 Y165.766 E2.72778
G1 X160.929 Y165.766 E2.8333
G1 X160.929 Y161.47 E2.98062
G1 X164.006 Y161.47 E3.08614
G1 X164.006 Y157.174 E3.23346
G1 X160.929 Y157.174 E3.33898
G1 X160.929 Y152.877 E3.48633
G1 X164.006 Y152.877 E3.59185
G1 X164.006 Y148.581 E3.73917
G1 X160.929 Y148.581 E3.84469
G1 X160.929 Y144.285 E3.99201
G1 X164.139 Y144.285 E4.10209
G1 X164.27 Y208.66 F4800
G1 F3600
G1 X164.27 Y140.015 E6.45605
G1 X160.666 Y140.015 E6.57964
G1 X160.666 Y176.738 E7.83894
G1 X160.887 Y176.959 E7.84966
G1 X160.886 Y208.703 E8.93822
G1 X164.27 Y208.703 E9.05426
;LAYER_CHANGE
;Z:2.03
;HEIGHT:0.0571429
G1 Z2.03 F4800
G1 E8.55426 F2400
G92 E0
G1 X160.134 Y133.04 F4800
G1 X160.134 Y131.895
G1 X160.134 Y131.301
G1 X160.222 Y130.946
G1 E.5 F2400
;TYPE:External perimeter
;WIDTH:0.526832
;HEIGHT:0.25
G1 F900
G1 X160.222 Y131.2 E.51249
G1 X160.222 Y136.097 E.75333
;TYPE:Overhang perimeter
;WIDTH:0.4
;HEIGHT:0.4
G1 X160.222 Y136.489 E.77381
G1 X160.063 Y136.438 E.78253
G1 X159.749 Y136.442 E.79894
G1 X159.749 Y136.079 E.8179
;TYPE:External perimeter
;WIDTH:0.526832
;HEIGHT:0.25
G1 X159.749 Y130.98 E1.06868
G1 X160.162 Y130.951 E1.08904
G1 X160.214 Y131.2 F4800
G1 E.58904 F2400
G92 E0
G1 X160.222 Y177.388 F4800
G1 E.5 F2400
;WIDTH:0.52683
G1 F900
G1 X160.222 Y180.861 E.67081
G1 X159.749 Y180.861 E.69407
G1 X159.749 Y177.388 E.86488
G1 X160.162 Y177.388 E.88519
G1 X160.204 Y177.787 F4800
G1 E.38519 F2400
G92 E0
G1 X160.068 Y177.719 F4800
G1 X160.12 Y180.53
G1 X159.749 Y208.165
G1 E.5 F2400
;WIDTH:0.526828
G1 F900
G1 X160.222 Y207.798 E.52944
G1 X160.222 Y212.418 E.75666
G1 X159.749 Y212.404 E.77993
G1 X159.749 Y208.225 E.98546
G1 X160.149 Y208.184 F4800
;LAYER_CHANGE
;Z:2.25857
;HEIGHT:0.228571
G1 Z2.259 F4800
G1 E.48546 F2400
G92 E0
G1 X159.836 Y208.234 F4800
G1 X160.307 Y208.049
G1 X160.238 Y208.249
G1 X164.27 Y208.66
G1 E.5 F2400
;TYPE:Support material
;WIDTH:0.35
;HEIGHT:0.285714
G1 F3600
G1 X164.27 Y140.015 E2.85396
G1 X160.666 Y140.015 E2.97755
G1 X160.666 Y176.737 E4.23681
G1 X160.888 Y176.959 E4.24758
G1 X160.888 Y181.29 E4.3961
G1 X160.668 Y181.51 E4.40677
G1 X160.668 Y205.992 E5.2463
G1 X160.884 Y206.214 E5.25692
G1 X160.886 Y208.703 E5.34227
G1 X164.27 Y208.703 E5.45831
;LAYER_CHANGE
;Z:2.28
;HEIGHT:0.0214286
G1 Z2.28 F4800
G1 E4.95831 F2400
G92 E0
G1 X160.223 Y131.88 F4800
G1 E.5 F2400
;TYPE:External perimeter
;WIDTH:0.526831
;HEIGHT:0.25
G1 F900
G1 X160.223 Y132.134 E.51249
G1 X160.223 Y136.975 E.75058
