; generated by PrusaSlicer 2.6.1 on 2023-11-03 at 21:08:00 UTC

; 

; external perimeters extrusion width = 0.45mm
; perimeters extrusion width = 0.45mm
; infill extrusion width = 0.45mm
; solid infill extrusion width = 0.45mm
; top infill extrusion width = 0.45mm
; support material extrusion width = 0.35mm
; first layer extrusion width = 0.55mm

M190 S60 ; set bed temperature and wait for it to be reached
;TYPE:Custom
; Start GCODE (begins)

G28 ; home all axes
G1 Z5 F5000 ; lift nozzle

M109 S200 ; Do this now so we can purge

; Extrude a small amount of waste material
G92 E0
G1 E20 F200
G92 E0

; Start GCODE (ends)
G21 ; set units to millimeters
G90 ; use absolute coordinates
M82 ; use absolute distances for extrusion
G92 E0
; Filament gcode
M107
;LAYER_CHANGE
;Z:0.28
;HEIGHT:0.28
G1 Z.28 F4800
G1 E-.5 F2400
G92 E0
G1 X149.88 Y126.326 F4800
G1 E.5 F2400
;TYPE:Skirt/Brim
;WIDTH:0.55
G1 F1020
G1 X151.628 Y124.878 E.62945
G1 X154.831 Y124.033 E.81837
G1 X165.169 Y124.033 E1.40795
G1 X167.404 Y124.429 E1.5374
G1 X169.366 Y125.572 E1.6669
G1 X170.814 Y127.319 E1.79631
G1 X171.659 Y130.522 E1.98523
G1 X171.659 Y213.899 E6.74029
G1 X171.262 Y216.134 E6.86975
G1 X170.12 Y218.096 E6.99922
G1 X168.372 Y219.544 E7.12867
G1 X165.169 Y220.389 E7.31759
G1 X154.831 Y220.389 E7.90717
G1 X152.596 Y219.992 E8.03663
G1 X150.634 Y218.85 E8.1661
G1 X149.186 Y217.102 E8.29555
G1 X148.341 Y213.899 E8.48447
G1 X148.341 Y130.522 E13.23953
G1 X148.738 Y128.288 E13.36893
G1 X149.85 Y126.378 E13.49498
G1 E12.99498 F2400
G92 E0
G1 X165.169 Y136.565 F4800
G1 E.5 F2400
;TYPE:Support material
G1 F1020
G1 X160.979 Y136.565 E.73896
G1 X160.979 Y132.585 E.96594
G1 X160.664 Y132.289 E.99059
G1 X159.25 Y132.378 E1.07139
G1 X158.979 Y132.667 E1.09398
G1 X158.979 Y136.565 E1.31629
G1 X154.831 Y136.565 E1.55285
G1 X154.831 Y130.522 E1.89749
G1 X165.169 Y130.522 E2.48707
G1 X165.169 Y136.492 E2.82754
G1 X163.919 Y136.345 F4800
G1 F1020
G1 X163.919 Y130.963 E3.13448
G1 X162.939 Y130.963 E3.19037
G1 X162.939 Y136.124 E3.48471
G1 X161.96 Y136.124 E3.54054
G1 X161.96 Y130.963 E3.83488
G1 X160.98 Y130.963 E3.89077
G1 X160.98 Y131.981 E3.94883
G1 X160.826 Y131.837 E3.96085
G1 X160 Y131.889 E4.00805
G1 X160 Y130.963 E4.06086
G1 X159.02 Y130.963 E4.11675
G1 X159.02 Y131.979 E4.17469
G1 X158.538 Y132.492 E4.21483
G1 X158.538 Y136.124 E4.42197
G1 X158.04 Y136.124 E4.45037
G1 X158.04 Y130.963 E4.74471
G1 X157.061 Y130.963 E4.80054
G1 X157.061 Y136.124 E5.09488
G1 X156.081 Y136.124 E5.15077
G1 X156.081 Y130.743 E5.45765
G1 E4.95765 F2400
G92 E0
G1 X159.829 Y165.038 F4800
G1 X160.129 Y161.623
G1 X160.129 Y167.784
G1 X165.169 Y213.899
G1 E.5 F2400
G1 F1020
G1 X154.831 Y213.899 E1.08958
G1 X154.831 Y203.56 E1.67922
G1 X158.979 Y203.56 E1.91578
G1 X158.979 Y206.279 E2.07085
G1 X159.263 Y206.57 E2.09404
G1 X160.677 Y206.608 E2.17471
G1 X160.979 Y206.313 E2.19879
G1 X160.979 Y143.412 E5.78609
G1 X165.169 Y143.412 E6.02505
G1 X165.169 Y213.826 E10.04082
G1 X163.919 Y213.679 F4800
G1 F1020
G1 X163.919 Y143.852 E14.02311
G1 X162.939 Y143.852 E14.079
G1 X162.939 Y213.458 E18.04869
G1 X161.96 Y213.458 E18.10452
G1 X161.96 Y143.852 E22.07421
G1 X161.42 Y143.852 E22.10501
G1 X161.42 Y206.499 E25.67782
G1 X160.98 Y206.928 E25.71287
G1 X160.98 Y213.458 E26.08528
G1 X160 Y213.458 E26.14117
G1 X160 Y207.031 E26.50771
G1 X159.072 Y207.006 E26.56065
G1 X159.02 Y206.953 E26.56488
G1 X159.02 Y213.458 E26.93587
G1 X158.04 Y213.458 E26.99176
G1 X158.04 Y204.001 E27.5311
G1 X157.061 Y204.001 E27.58693
G1 X157.061 Y213.458 E28.12627
G1 X156.081 Y213.458 E28.18216
G1 X156.081 Y203.781 E28.73405
G1 E28.23405 F2400
G92 E0
G1 X159.744 Y205.818 F4800
G1 E.5 F2400
;TYPE:External perimeter
;WIDTH:0.530044
G1 F1020
G1 X159.744 Y133.114 E4.47748
G1 X160.214 Y133.084 E4.50324
G1 X160.214 Y205.83 E8.48301
G1 X159.804 Y205.819 E8.50545
G1 X159.745 Y205.418 F4800
;LAYER_CHANGE
;Z:0.53
;HEIGHT:0.25
G1 Z.53 F4800
G1 E8.00545 F2400
G92 E0
G1 X160.217 Y133.082 F4800
G1 E.5 F2400
;WIDTH:0.526827
G1 F1200
G1 X160.217 Y205.832 E4.07792
G1 X159.744 Y205.819 E4.10119
G1 X159.744 Y133.112 E7.677
G1 X160.157 Y133.086 E7.69735
G1 X160.216 Y133.482 F4800
;LAYER_CHANGE
;Z:0.58
;HEIGHT:0.05
G1 Z.58 F4800
G1 X160 Y132.302
;TYPE:Support material
;WIDTH:0.35
;HEIGHT:0.3
G1 F3600
G1 X160 Y131.551 E7.7241
G1 X164.27 Y135.622 F4800
G1 F3600
G1 X164.27 Y131.422 E7.87372
G1 X155.73 Y131.422 E8.17795
G1 X155.73 Y135.665 E8.3291
G1 X159.079 Y135.665 E8.4484
G1 X159.079 Y132.706 E8.55381
G1 X159.295 Y132.477 E8.56502
G1 X160.629 Y132.392 E8.61264
G1 X160.882 Y132.629 E8.62499
G1 X160.882 Y135.665 E8.73314
G1 X164.27 Y135.665 E8.85383
G1 E8.35383 F2400
G92 E0
G1 X164.27 Y204.067 F4800
G1 E.5 F2400
G1 F3600
G1 X164.27 Y144.311 E2.62875
G1 X160.882 Y144.311 E2.74944
G1 X160.882 Y204.11 E4.87972
G1 X164.27 Y204.11 E5.00041
G1 E4.50041 F2400
G92 E0
G1 X160.13 Y204.31 F4800
G1 X159.831 Y205.278
G1 X159.831 Y204.324
G1 X157.555 Y204.433
G1 E.5 F2400
;TYPE:Support material interface
G1 F3600
G1 X155.704 Y204.433 E.56594
G1 X155.704 Y213.026 E.87206
G1 X157.704 Y213.026 E.94331
G1 X157.704 Y204.433 E1.24943
G1 X159.106 Y204.433 E1.29937
G1 X159.106 Y206.227 E1.36328
G1 X159.318 Y206.445 E1.37411
G1 X160 Y206.463 E1.39841
G1 X160 Y213.026 E1.63221
G1 X162.296 Y213.026 E1.714
G1 X162.296 Y204.433 E2.02012
G1 X164.296 Y204.433 E2.09137
G1 X164.296 Y213.026 E2.39749
G1 X162.445 Y213.026 E2.46343
;LAYER_CHANGE
;Z:0.78
;HEIGHT:0.2
G1 Z.78 F4800
G1 E1.96343 F2400
G92 E0
G1 X160.13 Y144.519 F4800
G1 X159.833 Y133.653
G1 X159.833 Y135.713
G1 X159.745 Y133.112
G1 E.5 F2400
;TYPE:External perimeter
;WIDTH:0.526829
;HEIGHT:0.25
G1 F1200
G1 X160.218 Y133.082 E.52331
G1 X160.218 Y205.832 E4.10125
G1 X159.745 Y205.819 E4.12452
G1 X159.745 Y133.172 E7.69739
G1 X160.1 Y133.296 F4800
M106 S255
;LAYER_CHANGE
;Z:0.83
;HEIGHT:0.05
G1 Z.83 F4800
G1 E7.19739 F2400
G92 E0
G1 X157.555 Y131.396 F4800
G1 E.5 F2400
;TYPE:Support material interface
;WIDTH:0.35
;HEIGHT:0.25
G1 F3600
G1 X155.704 Y131.396 E.55701
G1 X155.704 Y135.692 E.68934
G1 X157.704 Y135.692 E.75094
G1 X157.704 Y131.396 E.88327
G1 X160 Y131.396 E.95399
G1 X160 Y132.458 E.9867
G1 X160.619 Y132.419 E1.0058
G1 X160.855 Y132.64 E1.01576
G1 X160.856 Y135.692 E1.10977
G1 X162.296 Y135.692 E1.15412
G1 X162.296 Y131.396 E1.28645
G1 X164.296 Y131.396 E1.34805
G1 X164.296 Y135.692 E1.48038
G1 X162.445 Y135.692 E1.53739
G1 E1.03739 F2400
G92 E0
G1 X164.136 Y148.581 F4800
G1 E.5 F2400
;TYPE:Support material
G1 F3600
G1 X161.15 Y148.581 E.59197
G1 X161.15 Y152.877 E.7243
G1 X164.003 Y152.877 E.81218
G1 X164.003 Y157.174 E.94454
G1 X161.15 Y157.174 E1.03242
G1 X161.15 Y161.47 E1.16475
G1 X164.003 Y161.47 E1.25263
G1 X164.003 Y165.766 E1.38496
G1 X161.15 Y165.766 E1.47284
G1 X161.15 Y170.063 E1.6052
G1 X164.003 Y170.063 E1.69308
G1 X164.003 Y174.359 E1.82541
G1 X161.15 Y174.359 E1.91329
G1 X161.15 Y178.655 E2.04562
G1 X164.003 Y178.655 E2.1335
G1 X164.003 Y182.952 E2.26586
G1 X161.15 Y182.952 E2.35374
G1 X161.15 Y187.248 E2.48607
G1 X164.003 Y187.248 E2.57395
G1 X164.003 Y191.544 E2.70628
G1 X161.15 Y191.544 E2.79416
G1 X161.15 Y195.841 E2.92652
G1 X164.003 Y195.841 E3.0144
G1 X164.003 Y200.137 E3.14673
G1 X161.016 Y200.137 E3.23874
G1 X164.27 Y204.066 F4800
G1 F3600
G1 X164.27 Y144.311 E5.07931
G1 X160.883 Y144.311 E5.18364
G1 X160.883 Y204.11 E7.02557
G1 X164.27 Y204.11 E7.1299
G1 E6.6299 F2400
G92 E0
G1 X162.445 Y208.73 F4800
G1 E.5 F2400
;TYPE:Support material interface
G1 F3600
G1 X164.296 Y208.73 E.55701
G1 X164.296 Y204.433 E.68937
G1 X162.296 Y204.433 E.75097
G1 X162.296 Y208.73 E.88333
G1 X160.856 Y208.73 E.92768
G1 X160.856 Y207.67 E.96033
G1 X160.645 Y207.453 E.96965
G1 X160 Y207.435 E.98952
G1 X160 Y206.463 E1.01946
G1 X159.319 Y206.445 E1.04044
G1 X159.107 Y206.227 E1.04981
G1 X159.107 Y204.433 E1.10507
G1 X157.704 Y204.433 E1.14829
G1 X157.704 Y208.73 E1.28065
G1 X155.704 Y208.73 E1.34225
G1 X155.704 Y204.433 E1.47461
G1 X157.555 Y204.433 E1.53162
;LAYER_CHANGE
;Z:1.03
;HEIGHT:0.2
G1 Z1.03 F4800
G1 E1.03162 F2400
G92 E0
G1 X160.219 Y208.08 F4800
G1 E.5 F2400
;TYPE:Overhang perimeter
;WIDTH:0.4
;HEIGHT:0.4
G1 F900
G1 X160.219 Y209.013 E.54874
G1 X159.746 Y209 E.57346
G1 X159.746 Y208.07 E.62205
G1 X160.159 Y208.078 E.64363
G1 X160.156 Y208.475 F4800
G1 E.14363 F2400
G92 E0
G1 X160.049 Y208.404 F4800
G1 X160.161 Y205.499
G1 X160.235 Y133.413
G1 X160.234 Y133.413
G1 X160.219 Y133.082
G1 E.5 F2400
;TYPE:External perimeter
;WIDTH:0.526831
;HEIGHT:0.25
G1 F1200
G1 X160.219 Y205.832 E4.07795
G1 X159.746 Y205.819 E4.10122
G1 X159.746 Y133.112 E7.67706
G1 X160.16 Y133.086 E7.69746
G1 X160.219 Y133.482 F4800
;LAYER_CHANGE
;Z:1.11571
;HEIGHT:0.0857143
G1 Z1.116 F4800
G1 E7.19746 F2400
G92 E0
G1 X160.18 Y133.422 F4800
G1 X160.483 Y133.624
G1 X160.483 Y138.694
G1 X164.27 Y204.363
G1 E.5 F2400
;TYPE:Support material
;WIDTH:0.35
;HEIGHT:0.285714
G1 F3600
G1 X164.27 Y144.311 E2.55929
G1 X160.883 Y144.311 E2.67544
G1 X160.885 Y204.407 E4.73624
G1 X164.27 Y204.407 E4.85232
;LAYER_CHANGE
;Z:1.28
;HEIGHT:0.164286
G1 Z1.28 F4800
G1 E4.35232 F2400
G92 E0
G1 X160.133 Y178.41 F4800
G1 X159.835 Y176.32
G1 X159.835 Y176.541
G1 X159.747 Y175.989
G1 E.5 F2400
;TYPE:External perimeter
;WIDTH:0.526832
;HEIGHT:0.25
G1 F1200
G1 X160.221 Y175.989 E.52331
G1 X160.221 Y176.226 E.53497
G1 X160.221 Y206.295 E2.01381
;TYPE:Overhang perimeter
;WIDTH:0.4
;HEIGHT:0.4
G1 F3600
G1 X160.221 Y207.614 E2.08272
;TYPE:External perimeter
;WIDTH:0.526828
;HEIGHT:0.25
G1 F1200
G1 X160.221 Y209.083 E2.15497
G1 X159.747 Y209.07 E2.17829
G1 X159.747 Y207.605 E2.25034
;TYPE:Overhang perimeter
;WIDTH:0.4
;HEIGHT:0.4
G1 F3600
G1 X159.747 Y206.283 E2.31941
;TYPE:External perimeter
;WIDTH:0.526832
;HEIGHT:0.25
G1 F1200
G1 X159.747 Y176.049 E3.80637
G1 E3.30637 F2400
G92 E0
G1 X160.221 Y137.144 F4800
G1 E.5 F2400
;WIDTH:0.526834
G1 F900
G1 X159.747 Y137.175 E.52336
G1 X159.747 Y132.647 E.74605
;TYPE:Overhang perimeter
;WIDTH:0.4
;HEIGHT:0.4
G1 X159.747 Y131.717 E.79464
G1 X160.221 Y131.684 E.81946
G1 X160.221 Y131.938 E.83273
G1 X160.221 Y132.618 E.86826
;TYPE:External perimeter
;WIDTH:0.526834
;HEIGHT:0.25
G1 X160.221 Y137.084 E1.08791
;LAYER_CHANGE
;Z:1.40143
;HEIGHT:0.121429
G1 Z1.401 F4800
G1 E.58791 F2400
G92 E0
G1 X164.139 Y148.581 F4800
G1 E.5 F2400
;TYPE:Support material
;WIDTH:0.35
;HEIGHT:0.285714
G1 F3600
G1 X161.146 Y148.581 E.60264
G1 X161.146 Y152.877 E.74996
G1 X164.006 Y152.877 E.84803
G1 X164.006 Y157.174 E.99538
G1 X161.146 Y157.174 E1.09345
G1 X161.146 Y161.47 E1.24077
G1 X164.006 Y161.47 E1.33884
G1 X164.006 Y165.766 E1.48616
G1 X161.146 Y165.766 E1.58423
G1 X161.146 Y170.063 E1.73158
G1 X164.006 Y170.063 E1.82965
G1 X164.006 Y174.359 E1.97697
G1 X161.146 Y174.359 E2.07504
G1 X161.15 Y178.655 E2.22236
G1 X164.006 Y178.655 E2.3203
G1 X164.006 Y182.952 E2.46765
G1 X161.149 Y182.952 E2.56562
G1 X161.149 Y187.248 E2.71294
G1 X164.006 Y187.248 E2.81091
G1 X164.006 Y191.544 E2.95823
G1 X161.149 Y191.544 E3.0562
G1 X161.149 Y195.841 E3.20355
G1 X164.006 Y195.841 E3.30152
G1 X164.006 Y200.137 E3.44884
G1 X161.016 Y200.137 E3.55137
G1 X164.27 Y204.363 F4800
G1 F3600
G1 X164.27 Y144.311 E5.61066
G1 X160.883 Y144.311 E5.72681
G1 X160.886 Y204.407 E7.78761
G1 X164.27 Y204.407 E7.90365
;LAYER_CHANGE
;Z:1.53
;HEIGHT:0.128571
G1 Z1.53 F4800
G1 E7.40365 F2400
G92 E0
G1 X160.134 Y178.411 F4800
G1 X159.837 Y176.378
G1 X159.837 Y176.541
G1 X159.749 Y175.989
G1 E.5 F2400
;TYPE:External perimeter
;WIDTH:0.526833
;HEIGHT:0.25
G1 F1200
G1 X160.222 Y175.989 E.52326
G1 X160.222 Y209.092 E2.15132
G1 X159.749 Y209.079 E2.17459
G1 X159.749 Y176.049 E3.79906
G1 X160.096 Y176.187 F4800
G1 E3.29906 F2400
G92 E0
G1 X160.222 Y132.88 F4800
G1 E.5 F2400
;WIDTH:0.526834
G1 F900
G1 X160.222 Y137.608 E.73253
;TYPE:Overhang perimeter
;WIDTH:0.4
;HEIGHT:0.4
G1 X160.222 Y138.035 E.75484
G1 X160.05 Y137.993 E.76409
G1 X159.749 Y138.002 E.77982
G1 X159.749 Y137.639 E.79878
;TYPE:External perimeter
;WIDTH:0.526834
;HEIGHT:0.25
G1 X159.749 Y132.66 E1.04366
G1 X160.222 Y132.626 E1.06698
G1 X160.222 Y132.82 E1.07652
G1 X159.974 Y133.194 F4800
;LAYER_CHANGE
;Z:1.68714
;HEIGHT:0.157143
G1 Z1.687 F4800
G1 E.57652 F2400
G92 E0
G1 X164.27 Y204.363 F4800
G1 E.5 F2400
;TYPE:Support material
;WIDTH:0.35
;HEIGHT:0.285714
G1 F3600
G1 X164.27 Y144.311 E2.55929
G1 X160.668 Y144.311 E2.68281
G1 X160.668 Y175.34 E3.74685
G1 X160.888 Y175.56 E3.75752
G1 X160.888 Y204.407 E4.74674
G1 X164.27 Y204.407 E4.86271
;LAYER_CHANGE
;Z:1.78
;HEIGHT:0.0928571
G1 Z1.78 F4800
G1 E4.36271 F2400
G92 E0
G1 X160.223 Y133.823 F4800
G1 E.5 F2400
;TYPE:External perimeter
;WIDTH:0.526836
;HEIGHT:0.25
G1 F900
G1 X160.223 Y138.513 E.73066
;TYPE:Overhang perimeter
;WIDTH:0.4
;HEIGHT:0.4
G1 X160.223 Y138.951 E.75354
G1 X159.765 Y138.839 E.77817
G1 X159.75 Y138.466 E.79767
;TYPE:External perimeter
;WIDTH:0.526836
;HEIGHT:0.25
G1 X159.75 Y133.603 E1.03684
G1 X160.223 Y133.569 E1.06016
G1 X160.223 Y133.763 E1.0697
G1 X159.975 Y134.137 F4800
G1 E.5697 F2400
G92 E0
G1 X159.75 Y175.989 F4800
G1 E.5 F2400
;WIDTH:0.526832
G1 F900
G1 X160.223 Y175.989 E.52326
G1 X160.223 Y179.462 E.69407
G1 X159.75 Y179.462 E.71733
G1 X159.75 Y176.049 E.88519
G1 X160.105 Y176.173 F4800
G1 E.38519 F2400
G92 E0
G1 X160.223 Y203.448 F4800
G1 E.5 F2400
;WIDTH:0.526826
G1 F900
G1 X160.223 Y209.092 E.77758
G1 X159.75 Y209.079 E.80085
G1 X159.75 Y203.436 E1.07838
G1 X160.163 Y203.446 E1.0987
G1 X160.212 Y203.848 F4800
;LAYER_CHANGE
;Z:1.97286
;HEIGHT:0.192857
G1 Z1.973 F4800
G1 E.5987 F2400
G92 E0
G1 X161.016 Y200.137 F4800
G1 E.5 F2400
;TYPE:Support material
;WIDTH:0.35
;HEIGHT:0.285714
G1 F3600
G1 X164.006 Y200.137 E.60253
G1 X164.006 Y195.841 E.74985
G1 X161.149 Y195.841 E.84782
G1 X161.149 Y191.544 E.99517
G1 X164.006 Y191.544 E1.09314
G1 X164.006 Y187.248 E1.24046
G1 X161.149 Y187.248 E1.33843
G1 X161.149 Y182.952 E1.48575
G1 X164.006 Y182.952 E1.58372
G1 X164.006 Y178.655 E1.73107
G1 X161.152 Y178.655 E1.82894
G1 X161.152 Y175.451 E1.93881
G1 X160.931 Y175.23 E1.94953
G1 X160.931 Y174.359 E1.9794
G1 X164.006 Y174.359 E2.08485
G1 X164.006 Y170.063 E2.23217
G1 X160.931 Y170.063 E2.33762
G1 X160.931 Y165.766 E2.48497
G1 X164.006 Y165.766 E2.59042
G1 X164.006 Y161.47 E2.73774
G1 X160.931 Y161.47 E2.84319
G1 X160.931 Y157.174 E2.99051
G1 X164.006 Y157.174 E3.09596
G1 X164.006 Y152.877 E3.24331
G1 X160.931 Y152.877 E3.34876
G1 X160.931 Y148.581 E3.49608
G1 X164.139 Y148.581 E3.60609
G1 X164.27 Y204.363 F4800
G1 F3600
G1 X164.27 Y144.311 E5.66538
G1 X160.668 Y144.311 E5.7889
G1 X160.668 Y175.339 E6.85291
G1 X160.889 Y175.56 E6.86363
G1 X160.888 Y204.407 E7.85285
G1 X164.27 Y204.407 E7.96882
;LAYER_CHANGE
;Z:2.03
;HEIGHT:0.0571429
G1 Z2.03 F4800
G1 E7.46882 F2400
G92 E0
G1 X160.224 Y134.512 F4800
G1 E.5 F2400
;TYPE:External perimeter
;WIDTH:0.526833
;HEIGHT:0.25
G1 F900
G1 X160.224 Y134.766 E.51249
G1 X160.224 Y139.428 E.74177
;TYPE:Overhang perimeter
;WIDTH:0.4
;HEIGHT:0.4
G1 X160.224 Y139.87 E.76486
G1 X159.751 Y139.759 E.79024
G1 X159.751 Y139.312 E.81359
;TYPE:External perimeter
;WIDTH:0.526833
;HEIGHT:0.25
G1 X159.751 Y134.545 E1.04804
G1 X160.164 Y134.516 E1.0684
G1 X160.216 Y134.766 F4800
G1 E.5684 F2400
G92 E0
G1 X160.136 Y137.326 F4800
G1 X160.115 Y139.499
G1 X159.751 Y175.989
G1 E.5 F2400
;WIDTH:0.526832
G1 F900
G1 X160.224 Y175.989 E.52326
G1 X160.224 Y179.462 E.69407
G1 X159.751 Y179.462 E.71733
G1 X159.751 Y176.049 E.88519
G1 X160.106 Y176.173 F4800
G1 E.38519 F2400
G92 E0
G1 X160.145 Y204.414 F4800
G1 E.5 F2400
;WIDTH:0.52683
G1 F900
G1 X160.224 Y204.41 E.50389
G1 X160.224 Y208.964 E.72786
G1 X159.751 Y208.95 E.75113
G1 X159.751 Y204.604 E.96487
G1 X160.091 Y204.44 E.98344
G1 X160.214 Y204.453 F4800
;LAYER_CHANGE
;Z:2.25857
;HEIGHT:0.228571
G1 Z2.259 F4800
G1 E.48344 F2400
G92 E0
G1 X160.138 Y204.791 F4800
G1 X164.27 Y204.407
G1 E.5 F2400
;TYPE:Support material
;WIDTH:0.35
;HEIGHT:0.285714
G1 F3600
G1 X160.888 Y204.407 E.61597
G1 X160.886 Y203.028 E.66326
G1 X160.67 Y202.806 E.67388
G1 X160.67 Y180.111 E1.45213
G1 X160.89 Y179.891 E1.4628
G1 X160.89 Y175.56 E1.61132
G1 X160.668 Y175.338 E1.62209
