; generated by PrusaSlicer 2.6.1 on 2023-11-03 at 21:08:00 UTC

; 

; external perimeters extrusion width = 0.45mm
; perimeters extrusion width = 0.45mm
; infill extrusion width = 0.45mm
; solid infill extrusion width = 0.45mm
; top infill extrusion width = 0.45mm
; support material extrusion width = 0.35mm
; first layer extrusion width = 0.55mm

M190 S60 ; set bed temperature and wait for it to be reached
;TYPE:Custom
; Start GCODE (begins)

G28 ; home all axes
G1 Z5 F5000 ; lift nozzle

M109 S200 ; Do this now so we can purge

; Extrude a small amount of waste material
G92 E0
G1 E20 F200
G92 E0

; Start GCODE (ends)
G21 ; set units to millimeters
G90 ; use absolute coordinates
M82 ; use absolute distances for extrusion
G92 E0
; Filament gcode
M107
;LAYER_CHANGE
;Z:0.28
;HEIGHT:0.28
G1 Z.28 F4800
G1 E-.5 F2400
G92 E0
G1 X149.88 Y126.347 F4800
G1 E.5 F2400
;TYPE:Skirt/Brim
;WIDTH:0.55
G1 F1020
G1 X151.628 Y124.899 E.62945
G1 X154.831 Y124.053 E.81838
G1 X165.169 Y124.053 E1.40796
G1 X167.404 Y124.45 E1.53742
G1 X169.366 Y125.592 E1.66689
G1 X170.814 Y127.34 E1.79634
G1 X171.659 Y130.543 E1.98526
G1 X171.659 Y209.624 E6.49531
G1 X171.262 Y211.858 E6.62471
G1 X170.12 Y213.82 E6.75418
G1 X168.372 Y215.268 E6.88363
G1 X165.169 Y216.113 E7.07255
G1 X154.831 Y216.113 E7.66213
G1 X152.596 Y215.717 E7.79158
G1 X150.634 Y214.574 E7.92108
G1 X149.186 Y212.827 E8.05049
G1 X148.341 Y209.624 E8.23941
G1 X148.341 Y130.543 E12.74946
G1 X148.738 Y128.308 E12.87892
G1 X149.85 Y126.399 E13.00492
G1 E12.50492 F2400
G92 E0
G1 X165.169 Y136.586 F4800
G1 E.5 F2400
;TYPE:Support material
G1 F1020
G1 X160.982 Y136.586 E.73879
G1 X160.982 Y135.067 E.82542
G1 X160.666 Y134.771 E.85011
G1 X159.253 Y134.86 E.93085
G1 X158.982 Y135.149 E.95344
G1 X158.982 Y136.586 E1.03539
G1 X154.831 Y136.586 E1.27212
G1 X154.831 Y130.543 E1.61676
G1 X165.169 Y130.543 E2.20634
G1 X165.169 Y136.512 E2.54676
G1 X163.919 Y136.365 F4800
G1 F1020
G1 X163.919 Y130.984 E2.85364
G1 X162.939 Y130.984 E2.90953
G1 X162.939 Y136.145 E3.20387
G1 X161.96 Y136.145 E3.2597
G1 X161.96 Y130.984 E3.55404
G1 X160.98 Y130.984 E3.60993
G1 X160.98 Y134.461 E3.80823
G1 X160.829 Y134.319 E3.82005
G1 X160 Y134.371 E3.86742
G1 X160 Y130.984 E4.06058
G1 X159.02 Y130.984 E4.11647
G1 X159.02 Y134.464 E4.31494
G1 X158.541 Y134.974 E4.35484
G1 X158.541 Y136.145 E4.42162
G1 X158.04 Y136.145 E4.45019
G1 X158.04 Y130.984 E4.74453
G1 X157.061 Y130.984 E4.80036
G1 X157.061 Y136.145 E5.0947
G1 X156.081 Y136.145 E5.15059
G1 X156.081 Y130.764 E5.45747
G1 E4.95747 F2400
G92 E0
G1 X159.832 Y163.311 F4800
G1 X160.132 Y141.043
G1 X160.132 Y165.916
G1 X165.169 Y209.624
G1 E.5 F2400
G1 F1020
G1 X154.831 Y209.624 E1.08958
G1 X154.831 Y199.285 E1.67922
G1 X158.982 Y199.285 E1.91595
G1 X158.982 Y203.562 E2.15987
G1 X159.265 Y203.853 E2.18302
G1 X160.68 Y203.89 E2.26375
G1 X160.982 Y203.596 E2.28779
G1 X160.982 Y143.432 E5.71899
G1 X165.169 Y143.432 E5.95778
G1 X165.169 Y209.55 E9.72854
G1 X163.919 Y209.403 F4800
G1 F1020
G1 X163.919 Y143.873 E13.46577
G1 X162.939 Y143.873 E13.52166
G1 X162.939 Y209.183 E17.24634
G1 X161.96 Y209.183 E17.30217
G1 X161.96 Y143.873 E21.02685
G1 X161.423 Y143.873 E21.05748
G1 X161.423 Y203.782 E24.47414
G1 X160.98 Y204.213 E24.50939
G1 X160.98 Y209.183 E24.79283
G1 X160 Y209.183 E24.84872
G1 X160 Y204.313 E25.12646
G1 X159.075 Y204.289 E25.17923
G1 X159.02 Y204.233 E25.18371
G1 X159.02 Y209.183 E25.46601
G1 X158.04 Y209.183 E25.5219
G1 X158.04 Y199.726 E26.06124
G1 X157.061 Y199.726 E26.11707
G1 X157.061 Y209.183 E26.65641
G1 X156.081 Y209.183 E26.7123
G1 X156.081 Y199.505 E27.26424
G1 E26.76424 F2400
G92 E0
G1 X159.832 Y141.519 F4800
G1 X160.132 Y136.576
G1 X160.132 Y136.878
G1 X160.217 Y135.566
G1 E.5 F2400
;TYPE:External perimeter
;WIDTH:0.530047
G1 F1020
G1 X160.217 Y203.113 E4.19536
G1 X159.747 Y203.1 E4.22108
G1 X159.747 Y135.596 E7.91409
G1 X160.157 Y135.57 E7.93657
G1 X160.216 Y135.966 F4800
;LAYER_CHANGE
;Z:0.53
;HEIGHT:0.25
G1 Z.53 F4800
G1 X160.22 Y135.564
;WIDTH:0.526831
G1 F1200
G1 X160.22 Y203.115 E11.25883
G1 X159.747 Y203.102 E11.2821
G1 X159.747 Y135.594 E14.60224
G1 X160.16 Y135.568 E14.62259
G1 X160.219 Y135.964 F4800
;LAYER_CHANGE
;Z:0.58
;HEIGHT:0.05
G1 Z.58 F4800
G1 X160 Y134.784
;TYPE:Support material
;WIDTH:0.35
;HEIGHT:0.3
G1 F3600
G1 X160 Y131.572 E14.73701
G1 X164.27 Y135.643 F4800
G1 F3600
G1 X164.27 Y131.443 E14.88663
G1 X155.73 Y131.443 E15.19086
G1 X155.73 Y135.686 E15.34201
G1 X159.082 Y135.686 E15.46142
G1 X159.082 Y135.188 E15.47916
G1 X159.298 Y134.958 E15.4904
G1 X160.632 Y134.874 E15.53802
G1 X160.884 Y135.111 E15.55034
G1 X160.884 Y135.686 E15.57082
G1 X164.27 Y135.686 E15.69144
G1 E15.19144 F2400
G92 E0
G1 X164.27 Y204.088 F4800
G1 E.5 F2400
G1 F3600
G1 X164.27 Y144.332 E2.62875
G1 X160.884 Y144.332 E2.74937
G1 X160.884 Y203.554 E4.8591
G1 X160.643 Y203.789 E4.87109
G1 X159.309 Y203.754 E4.91863
G1 X159.082 Y203.521 E4.93022
G1 X159.082 Y200.185 E5.04906
G1 X155.73 Y200.185 E5.16847
G1 X155.73 Y204.131 E5.30904
G1 X164.27 Y204.131 E5.61327
G1 E5.11327 F2400
G92 E0
G1 X162.445 Y208.751 F4800
G1 E.5 F2400
;TYPE:Support material interface
G1 F3600
G1 X164.296 Y208.751 E.56594
G1 X164.296 Y204.454 E.71902
G1 X162.296 Y204.454 E.79027
G1 X162.296 Y208.751 E.94335
G1 X160 Y208.751 E1.02514
G1 X160 Y204.454 E1.17822
G1 X157.704 Y204.454 E1.26001
G1 X157.704 Y208.751 E1.41309
G1 X155.704 Y208.751 E1.48434
G1 X155.704 Y204.454 E1.63742
G1 X157.555 Y204.454 E1.70336
;LAYER_CHANGE
;Z:0.78
;HEIGHT:0.2
G1 Z.78 F4800
G1 E1.20336 F2400
G92 E0
G1 X159.748 Y135.594 F4800
G1 E.5 F2400
;TYPE:External perimeter
;WIDTH:0.526835
;HEIGHT:0.25
G1 F1200
G1 X160.221 Y135.564 E.52331
G1 X160.221 Y203.115 E3.84559
G1 X159.748 Y203.102 E3.86886
G1 X159.748 Y135.654 E7.18608
G1 X160.103 Y135.778 F4800
M106 S255
;LAYER_CHANGE
;Z:0.83
;HEIGHT:0.05
G1 Z.83 F4800
G1 E6.68608 F2400
G92 E0
G1 X162.445 Y135.713 F4800
G1 E.5 F2400
;TYPE:Support material interface
;WIDTH:0.35
;HEIGHT:0.25
G1 F3600
G1 X164.296 Y135.713 E.55701
G1 X164.296 Y131.416 E.68937
G1 X162.296 Y131.416 E.75097
G1 X162.296 Y135.713 E.88333
G1 X160.859 Y135.713 E.92759
G1 X160.859 Y135.122 E.94579
G1 X160.623 Y134.901 E.95575
G1 X160 Y134.94 E.97498
G1 X160 Y131.416 E1.08353
G1 X157.704 Y131.416 E1.15425
G1 X157.704 Y135.713 E1.28661
G1 X155.704 Y135.713 E1.34821
G1 X155.704 Y131.416 E1.48057
G1 X157.555 Y131.416 E1.53758
G1 E1.03758 F2400
G92 E0
G1 X159.835 Y137.367 F4800
G1 X160.134 Y136.083
G1 X160.134 Y138.151
G1 X164.136 Y148.602
G1 E.5 F2400
;TYPE:Support material
G1 F3600
G1 X161.152 Y148.602 E.59191
G1 X161.152 Y152.898 E.72424
G1 X164.003 Y152.898 E.81206
G1 X164.003 Y157.194 E.94439
G1 X161.152 Y157.194 E1.03221
G1 X161.152 Y161.491 E1.16457
G1 X164.003 Y161.491 E1.25239
G1 X164.003 Y165.787 E1.38472
G1 X161.152 Y165.787 E1.47254
G1 X161.152 Y170.083 E1.60487
G1 X164.003 Y170.083 E1.69269
G1 X164.003 Y174.38 E1.82505
G1 X161.152 Y174.38 E1.91287
G1 X161.152 Y178.676 E2.0452
G1 X164.003 Y178.676 E2.13302
G1 X164.003 Y182.972 E2.26535
G1 X161.152 Y182.972 E2.35317
G1 X161.152 Y187.269 E2.48553
G1 X164.003 Y187.269 E2.57335
G1 X164.003 Y191.565 E2.70568
G1 X161.152 Y191.565 E2.7935
G1 X161.152 Y195.861 E2.92583
G1 X164.136 Y195.861 E3.01774
G1 X164.27 Y199.79 F4800
G1 F3600
G1 X164.27 Y144.332 E4.72595
G1 X160.886 Y144.332 E4.83018
G1 X160.886 Y199.835 E6.53978
G1 X164.27 Y199.835 E6.64401
G1 E6.14401 F2400
G92 E0
G1 X160.134 Y200.034 F4800
G1 X159.835 Y202.561
G1 X159.835 Y200.048
G1 X157.555 Y200.158
G1 E.5 F2400
;TYPE:Support material interface
G1 F3600
G1 X155.704 Y200.158 E.55701
G1 X155.704 Y208.751 E.82169
G1 X157.704 Y208.751 E.88329
G1 X157.704 Y200.158 E1.14797
G1 X159.11 Y200.158 E1.19128
G1 X159.11 Y203.51 E1.29453
G1 X159.322 Y203.727 E1.30387
G1 X160 Y203.745 E1.32476
G1 X160 Y205.118 E1.36705
G1 X159.335 Y205.106 E1.38754
G1 X159.112 Y205.325 E1.39717
G1 X159.112 Y206.666 E1.43848
G1 X159.324 Y206.884 E1.44785
G1 X160 Y206.902 E1.46868
G1 X160 Y208.751 E1.52563
G1 X162.296 Y208.751 E1.59635
G1 X162.296 Y200.158 E1.86103
G1 X164.296 Y200.158 E1.92263
G1 X164.296 Y208.751 E2.18731
G1 X162.445 Y208.751 E2.24432
;LAYER_CHANGE
;Z:1.03
;HEIGHT:0.2
G1 Z1.03 F4800
G1 E1.74432 F2400
G92 E0
G1 X160.222 Y205.761 F4800
G1 E.5 F2400
;TYPE:Overhang perimeter
;WIDTH:0.4
;HEIGHT:0.4
G1 F900
G1 X160.222 Y206.271 E.52664
G1 X159.749 Y206.258 E.55136
G1 X159.749 Y205.75 E.5779
G1 X160.162 Y205.76 E.59948
G1 X160.122 Y206.149 F4800
G1 E.09948 F2400
G92 E0
G1 X159.749 Y203.102 F4800
G1 E.5 F2400
;TYPE:External perimeter
;WIDTH:0.526839
;HEIGHT:0.25
G1 F1200
G1 X159.749 Y135.594 E3.8202
G1 X160.222 Y135.564 E3.84351
G1 X160.222 Y203.115 E7.16582
G1 X159.809 Y203.104 E7.18614
G1 X159.75 Y202.702 F4800
;LAYER_CHANGE
;Z:1.11571
;HEIGHT:0.0857143
G1 Z1.116 F4800
G1 E6.68614 F2400
G92 E0
G1 X159.897 Y202.769 F4800
G1 X160.09 Y202.774
G1 X164.27 Y204.384
G1 E.5 F2400
;TYPE:Support material
;WIDTH:0.35
;HEIGHT:0.285714
G1 F3600
G1 X164.27 Y144.332 E2.55929
G1 X160.886 Y144.332 E2.67533
G1 X160.888 Y204.427 E4.7361
G1 X164.27 Y204.427 E4.85207
;LAYER_CHANGE
;Z:1.28
;HEIGHT:0.164286
G1 Z1.28 F4800
G1 E4.35207 F2400
G92 E0
G1 X160.135 Y179.646 F4800
G1 X159.838 Y175.15
G1 X159.75 Y174.819
G1 E.5 F2400
;TYPE:External perimeter
;WIDTH:0.526839
;HEIGHT:0.25
G1 F1200
G1 X160.223 Y174.819 E.52326
G1 X160.223 Y175.056 E.53492
G1 X160.223 Y203.578 E1.9377
;TYPE:Overhang perimeter
;WIDTH:0.4
;HEIGHT:0.4
G1 F3600
G1 X160.223 Y205.297 E2.02751
;TYPE:External perimeter
;WIDTH:0.526837
;HEIGHT:0.25
G1 F1200
G1 X160.223 Y206.324 E2.07802
G1 X159.75 Y206.311 E2.10129
G1 X159.75 Y205.285 E2.15175
;TYPE:Overhang perimeter
;WIDTH:0.4
;HEIGHT:0.4
G1 F3600
G1 X159.75 Y203.566 E2.24156
;TYPE:External perimeter
;WIDTH:0.526839
;HEIGHT:0.25
G1 F1200
G1 X159.75 Y174.879 E3.65245
G1 E3.15245 F2400
G92 E0
G1 X160.223 Y139.885 F4800
G1 E.5 F2400
;WIDTH:0.526832
G1 F900
G1 X159.75 Y139.905 E.52328
G1 X159.75 Y135.129 E.75817
;TYPE:Overhang perimeter
;WIDTH:0.4
;HEIGHT:0.4
G1 X159.75 Y134.723 E.77938
G1 X160.223 Y134.63 E.80456
G1 X160.223 Y134.901 E.81872
G1 X160.223 Y135.1 E.82912
;TYPE:External perimeter
;WIDTH:0.526832
;HEIGHT:0.25
G1 X160.223 Y139.825 E1.0615
;LAYER_CHANGE
;Z:1.40143
;HEIGHT:0.121429
G1 Z1.401 F4800
G1 E.5615 F2400
G92 E0
G1 X160.474 Y139.813 F4800
G1 X164.139 Y148.602
G1 E.5 F2400
;TYPE:Support material
;WIDTH:0.35
;HEIGHT:0.285714
G1 F3600
G1 X161.149 Y148.602 E.60253
G1 X161.149 Y152.898 E.74985
G1 X164.006 Y152.898 E.84782
G1 X164.006 Y157.194 E.99514
G1 X161.149 Y157.194 E1.09311
G1 X161.149 Y161.491 E1.24046
G1 X164.006 Y161.491 E1.33843
G1 X164.006 Y165.787 E1.48575
G1 X161.149 Y165.787 E1.58372
G1 X161.149 Y170.083 E1.73104
G1 X164.006 Y170.083 E1.82901
G1 X164.006 Y174.38 E1.97636
G1 X161.153 Y174.38 E2.07419
G1 X161.153 Y178.676 E2.22151
G1 X164.006 Y178.676 E2.31934
G1 X164.006 Y182.972 E2.46666
G1 X161.152 Y182.972 E2.56453
G1 X161.152 Y184.929 E2.63164
G1 X161.152 Y187.269 E2.71188
G1 X164.006 Y187.269 E2.80975
G1 X164.006 Y191.565 E2.95707
G1 X161.152 Y191.565 E3.05494
G1 X161.152 Y195.861 E3.20226
G1 X164.006 Y195.861 E3.30013
G1 X164.006 Y200.158 E3.44748
G1 X161.018 Y200.158 E3.54994
G1 X164.27 Y204.384 F4800
G1 F3600
G1 X164.27 Y144.332 E5.60923
G1 X160.886 Y144.332 E5.72527
G1 X160.889 Y204.427 E7.78604
G1 X164.27 Y204.427 E7.90198
;LAYER_CHANGE
;Z:1.53
;HEIGHT:0.128571
G1 Z1.53 F4800
G1 E7.40198 F2400
G92 E0
G1 X160.225 Y174.819 F4800
G1 E.5 F2400
;TYPE:External perimeter
;WIDTH:0.526839
;HEIGHT:0.25
G1 F1200
G1 X160.225 Y206.324 E2.04949
G1 X159.751 Y206.311 E2.07281
G1 X159.751 Y174.819 E3.62166
G1 X160.165 Y174.819 E3.64202
G1 X160.223 Y175.219 F4800
G1 E3.14202 F2400
G92 E0
G1 X160.225 Y135.922 F4800
G1 E.5 F2400
;WIDTH:0.526829
G1 F900
G1 X160.225 Y135.987 E.5032
;WIDTH:0.526823
G1 X160.225 Y140.348 E.71768
;TYPE:Overhang perimeter
;WIDTH:0.4
;HEIGHT:0.4
G1 X160.225 Y140.844 E.74359
G1 X159.751 Y140.866 E.76838
G1 X159.751 Y140.368 E.7944
;TYPE:External perimeter
;WIDTH:0.526829
;HEIGHT:0.25
G1 X159.751 Y136.17 E1.00086
G1 X160.172 Y135.95 E1.02422
G1 X160.222 Y135.987 F4800
;LAYER_CHANGE
;Z:1.68714
;HEIGHT:0.157143
G1 Z1.687 F4800
G1 E.52422 F2400
G92 E0
G1 X164.27 Y204.384 F4800
G1 E.5 F2400
;TYPE:Support material
;WIDTH:0.35
;HEIGHT:0.285714
G1 F3600
G1 X164.27 Y144.332 E2.55929
G1 X160.671 Y144.332 E2.68271
G1 X160.671 Y174.17 E3.70591
G1 X160.89 Y174.39 E3.71655
G1 X160.89 Y204.427 E4.74657
G1 X164.27 Y204.427 E4.86248
;LAYER_CHANGE
;Z:1.78
;HEIGHT:0.0928571
G1 Z1.78 F4800
G1 E4.36248 F2400
G92 E0
G1 X160.138 Y140.155 F4800
G1 X160.138 Y138.205
G1 X160.199 Y137.908
G1 X160.226 Y137.8
G1 X160.351 Y137.489
G1 X160.234 Y137.448
G1 X160.226 Y137.472
G1 E.5 F2400
;TYPE:External perimeter
;WIDTH:0.526829
;HEIGHT:0.25
G1 F900
G1 X160.226 Y137.877 E.51992
G1 X160.226 Y141.306 E.68856
;TYPE:Overhang perimeter
;WIDTH:0.4
;HEIGHT:0.4
G1 X160.226 Y141.802 E.71447
G1 X159.753 Y141.826 E.73921
G1 X159.753 Y141.325 E.76538
;TYPE:External perimeter
;WIDTH:0.526829
;HEIGHT:0.25
G1 X159.753 Y137.739 E.94174
G1 X160.174 Y137.502 E.9655
G1 X160.21 Y137.872 F4800
G1 E.4655 F2400
G92 E0
G1 X160.197 Y137.435 F4800
G1 X160.138 Y177.961
G1 X160.226 Y178.292
G1 E.5 F2400
;WIDTH:0.526836
G1 F900
G1 X159.753 Y178.292 E.52326
G1 X159.753 Y174.819 E.69407
G1 X160.226 Y174.819 E.71733
G1 X160.226 Y178.232 E.88519
G1 X159.871 Y178.108 F4800
G1 E.38519 F2400
G92 E0
G1 X160.226 Y200.799 F4800
G1 E.5 F2400
;WIDTH:0.526831
G1 F900
G1 X160.226 Y206.287 E.76991
G1 X159.753 Y206.273 E.79318
G1 X159.753 Y200.789 E1.06289
G1 X160.166 Y200.797 E1.08321
G1 X160.214 Y201.199 F4800
;LAYER_CHANGE
;Z:1.97286
;HEIGHT:0.192857
G1 Z1.973 F4800
G1 X161.018 Y200.158
;TYPE:Support material
;WIDTH:0.35
;HEIGHT:0.285714
G1 F3600
G1 X164.006 Y200.158 E1.18567
G1 X164.006 Y195.861 E1.33302
G1 X161.152 Y195.861 E1.43089
G1 X161.152 Y191.565 E1.57821
G1 X164.006 Y191.565 E1.67608
G1 X164.006 Y187.269 E1.8234
G1 X161.152 Y187.269 E1.92127
G1 X161.152 Y182.972 E2.06862
G1 X164.006 Y182.972 E2.16649
G1 X164.006 Y178.676 E2.31381
G1 X161.155 Y178.676 E2.41158
G1 X161.154 Y177.473 E2.45283
G1 X161.155 Y174.38 E2.55889
G1 X164.006 Y174.38 E2.65666
G1 X164.006 Y170.083 E2.80401
G1 X160.934 Y170.083 E2.90935
G1 X160.934 Y165.787 E3.05667
G1 X164.006 Y165.787 E3.16201
G1 X164.006 Y161.491 E3.30933
G1 X160.934 Y161.491 E3.41467
G1 X160.934 Y157.194 E3.56202
G1 X164.006 Y157.194 E3.66736
G1 X164.006 Y152.898 E3.81468
G1 X160.934 Y152.898 E3.92002
G1 X160.934 Y148.602 E4.06734
G1 X164.139 Y148.602 E4.17725
G1 X164.27 Y204.384 F4800
G1 F3600
G1 X164.27 Y144.332 E6.23654
G1 X160.697 Y144.332 E6.35906
G1 X160.671 Y144.359 E6.36035
G1 X160.671 Y174.169 E7.38259
G1 X160.892 Y174.39 E7.39331
G1 X160.892 Y204.427 E8.42333
G1 X164.27 Y204.427 E8.53917
;LAYER_CHANGE
;Z:2.03
;HEIGHT:0.0571429
G1 Z2.03 F4800
G1 E8.03917 F2400
G92 E0
G1 X160.227 Y138.666 F4800
G1 E.5 F2400
;TYPE:External perimeter
;WIDTH:0.526827
;HEIGHT:0.25
G1 F900
G1 X160.227 Y139 E.51643
G1 X160.227 Y142.264 E.67696
;TYPE:Overhang perimeter
;WIDTH:0.4
;HEIGHT:0.4
G1 X160.227 Y142.761 E.70293
G1 X159.754 Y142.786 E.72768
G1 X159.754 Y142.284 E.75391
;TYPE:External perimeter
;WIDTH:0.526827
;HEIGHT:0.25
G1 X159.754 Y138.833 E.92363
G1 X160.17 Y138.686 E.94533
G1 X160.213 Y139 F4800
G1 E.44533 F2400
G92 E0
G1 X160.227 Y178.292 F4800
G1 E.5 F2400
;WIDTH:0.526836
G1 F900
G1 X159.754 Y178.292 E.52326
G1 X159.754 Y174.819 E.69407
G1 X160.227 Y174.819 E.71733
G1 X160.227 Y178.232 E.88519
G1 X159.872 Y178.108 F4800
G1 E.38519 F2400
G92 E0
G1 X160.227 Y201.764 F4800
G1 E.5 F2400
;WIDTH:0.526828
G1 F900
G1 X160.227 Y206.055 E.71104
G1 X159.754 Y206.021 E.73436
G1 X159.754 Y201.76 E.94392
G1 X160.167 Y201.763 E.96423
G1 X160.212 Y202.164 F4800
;LAYER_CHANGE
;Z:2.25857
;HEIGHT:0.228571
G1 Z2.259 F4800
G1 E.46423 F2400
G92 E0
G1 X164.27 Y204.384 F4800
G1 E.5 F2400
;TYPE:Support material
;WIDTH:0.35
;HEIGHT:0.285714
G1 F3600
G1 X164.27 Y144.332 E2.55929
G1 X160.893 Y144.332 E2.67509
G1 X160.893 Y145.086 E2.70095
G1 X160.671 Y145.318 E2.71196
G1 X160.671 Y174.168 E3.70128
