; generated by PrusaSlicer 2.6.1 on 2023-11-03 at 21:08:00 UTC

; 

; external perimeters extrusion width = 0.45mm
; perimeters extrusion width = 0.45mm
; infill extrusion width = 0.45mm
; solid infill extrusion width = 0.45mm
; top infill extrusion width = 0.45mm
; support material extrusion width = 0.35mm
; first layer extrusion width = 0.55mm

M190 S60 ; set bed temperature and wait for it to be reached
;TYPE:Custom
; Start GCODE (begins)

G28 ; home all axes
G1 Z5 F5000 ; lift nozzle

M109 S200 ; Do this now so we can purge

; Extrude a small amount of waste material
G92 E0
G1 E20 F200
G92 E0

; Start GCODE (ends)
G21 ; set units to millimeters
G90 ; use absolute coordinates
M82 ; use absolute distances for extrusion
G92 E0
; Filament gcode
M107
;LAYER_CHANGE
;Z:0.28
;HEIGHT:0.28
G1 Z.28 F4800
G1 E-.5 F2400
G92 E0
G1 X.161 Y158.341 F4800
G1 E.5 F2400
;TYPE:Skirt/Brim
;WIDTH:0.55
G1 F1020
G1 X319.837 Y158.341 E18.73139
G1 X322.072 Y158.738 E18.86085
G1 X324.033 Y159.88 E18.99027
G1 X325.481 Y161.628 E19.11972
G1 X326.327 Y164.831 E19.30865
G1 X326.327 Y175.169 E19.89823
G1 X325.93 Y177.404 E20.02769
G1 X324.788 Y179.366 E20.15716
G1 X323.04 Y180.814 E20.28661
G1 X319.837 Y181.659 E20.47553
G1 X.161 Y181.659 E38.70692
G1 X-2.074 Y181.262 E38.83638
G1 X-4.035 Y180.12 E38.9658
G1 X-5.484 Y178.372 E39.09529
G1 X-6.329 Y175.169 E39.28421
G1 X-6.329 Y164.831 E39.87379
G1 X-5.932 Y162.596 E40.00325
G1 X-4.79 Y160.634 E40.13272
G1 X-3.042 Y159.186 E40.26217
G1 X.103 Y158.356 E40.44767
G1 E39.94767 F2400
G92 E0
G1 X319.837 Y175.169 F4800
G1 E.5 F2400
;TYPE:Support material
G1 F1020
G1 X.161 Y175.169 E18.73139
G1 X.161 Y164.831 E19.32097
G1 X319.837 Y164.831 E37.55236
G1 X319.837 Y175.096 E38.13778
G1 X4.921 Y168.5 F4800
G1 F1020
G1 X6.851 Y168.5 E38.24785
G1 X7.034 Y168.576 E38.25915
G1 X7.182 Y168.724 E38.27109
G1 X7.258 Y168.907 E38.28239
G1 X7.259 Y171.092 E38.407
G1 X7.182 Y171.276 E38.41838
G1 X7.035 Y171.423 E38.43024
G1 X6.852 Y171.499 E38.44154
G1 X4.702 Y171.5 E38.56416
G1 X4.508 Y171.414 E38.57626
G1 X4.359 Y171.249 E38.58894
G1 X4.293 Y171.047 E38.60106
G1 X4.518 Y168.864 E38.72622
G1 X4.601 Y168.699 E38.73675
G1 X4.747 Y168.567 E38.74798
G1 X4.852 Y168.526 E38.75441
G1 X318.73 Y174.949 F4800
G1 F1020
G1 X318.73 Y165.271 E39.30635
G1 X317.75 Y165.271 E39.36224
G1 X317.75 Y174.729 E39.90164
G1 X316.77 Y174.729 E39.95753
G1 X316.77 Y165.271 E40.49693
G1 X315.791 Y165.271 E40.55276
G1 X315.791 Y174.729 E41.09216
G1 X314.811 Y174.729 E41.14805
G1 X314.811 Y165.271 E41.68745
G1 X313.831 Y165.271 E41.74334
G1 X313.831 Y174.729 E42.28274
G1 X312.851 Y174.729 E42.33863
G1 X312.851 Y165.271 E42.87803
G1 X311.871 Y165.271 E42.93392
G1 X311.871 Y174.729 E43.47332
G1 X310.891 Y174.729 E43.52921
G1 X310.891 Y165.271 E44.06861
G1 X309.912 Y165.271 E44.12444
G1 X309.912 Y174.729 E44.66384
G1 X308.932 Y174.729 E44.71973
G1 X308.932 Y165.271 E45.25913
G1 X307.952 Y165.271 E45.31502
G1 X307.952 Y174.729 E45.85442
G1 X306.972 Y174.729 E45.91031
G1 X306.972 Y165.271 E46.44971
G1 X305.992 Y165.271 E46.5056
G1 X305.992 Y174.729 E47.045
G1 X305.013 Y174.729 E47.10083
G1 X305.013 Y165.271 E47.64023
G1 X304.033 Y165.271 E47.69612
G1 X304.033 Y174.729 E48.23552
G1 X303.053 Y174.729 E48.29141
G1 X303.053 Y165.271 E48.83081
G1 X302.073 Y165.271 E48.8867
G1 X302.073 Y174.729 E49.4261
G1 X301.093 Y174.729 E49.48199
G1 X301.093 Y165.271 E50.02139
G1 X300.113 Y165.271 E50.07728
G1 X300.113 Y174.729 E50.61668
G1 X299.134 Y174.729 E50.67251
G1 X299.134 Y165.271 E51.21191
G1 X298.154 Y165.271 E51.2678
G1 X298.154 Y174.729 E51.8072
G1 X297.174 Y174.729 E51.86309
G1 X297.174 Y165.271 E52.40249
G1 X296.194 Y165.271 E52.45838
G1 X296.194 Y174.729 E52.99778
G1 X295.214 Y174.729 E53.05367
G1 X295.214 Y165.271 E53.59307
G1 X294.234 Y165.271 E53.64896
G1 X294.234 Y174.729 E54.18836
G1 X293.255 Y174.729 E54.24419
G1 X293.255 Y165.271 E54.78359
G1 X292.275 Y165.271 E54.83948
G1 X292.275 Y174.729 E55.37888
G1 X291.295 Y174.729 E55.43477
G1 X291.295 Y165.271 E55.97417
G1 X290.315 Y165.271 E56.03006
G1 X290.315 Y174.729 E56.56946
G1 X289.335 Y174.729 E56.62535
G1 X289.335 Y165.271 E57.16475
G1 X288.356 Y165.271 E57.22058
G1 X288.356 Y174.729 E57.75998
G1 X287.376 Y174.729 E57.81587
G1 X287.376 Y165.271 E58.35527
G1 X286.396 Y165.271 E58.41116
G1 X286.396 Y174.729 E58.95056
G1 X285.416 Y174.729 E59.00645
G1 X285.416 Y165.271 E59.54585
G1 X284.436 Y165.271 E59.60174
G1 X284.436 Y174.729 E60.14114
G1 X283.456 Y174.729 E60.19703
G1 X283.456 Y165.271 E60.73643
G1 X282.477 Y165.271 E60.79226
G1 X282.477 Y174.729 E61.33166
G1 X281.497 Y174.729 E61.38755
G1 X281.497 Y165.271 E61.92695
G1 X280.517 Y165.271 E61.98284
G1 X280.517 Y174.729 E62.52224
G1 X279.537 Y174.729 E62.57813
G1 X279.537 Y165.271 E63.11753
G1 X278.557 Y165.271 E63.17342
G1 X278.557 Y174.729 E63.71282
G1 X277.577 Y174.729 E63.76871
G1 X277.577 Y165.271 E64.30811
G1 X276.598 Y165.271 E64.36394
G1 X276.598 Y174.729 E64.90334
G1 X275.618 Y174.729 E64.95923
G1 X275.618 Y165.271 E65.49863
G1 X274.638 Y165.271 E65.55452
G1 X274.638 Y174.729 E66.09392
G1 X273.658 Y174.729 E66.14981
G1 X273.658 Y165.271 E66.68921
G1 X272.678 Y165.271 E66.7451
G1 X272.678 Y174.729 E67.2845
G1 X271.699 Y174.729 E67.34033
G1 X271.699 Y165.271 E67.87973
G1 X270.719 Y165.271 E67.93562
G1 X270.719 Y174.729 E68.47502
G1 X269.739 Y174.729 E68.53091
G1 X269.739 Y165.271 E69.07031
G1 X268.759 Y165.271 E69.1262
G1 X268.759 Y174.729 E69.6656
G1 X267.779 Y174.729 E69.72149
G1 X267.779 Y165.271 E70.26089
G1 X266.799 Y165.271 E70.31678
G1 X266.799 Y174.729 E70.85618
G1 X265.82 Y174.729 E70.91201
G1 X265.82 Y165.271 E71.45141
G1 X264.84 Y165.271 E71.5073
G1 X264.84 Y174.729 E72.0467
G1 X263.86 Y174.729 E72.10259
G1 X263.86 Y165.271 E72.64199
G1 X262.88 Y165.271 E72.69788
G1 X262.88 Y174.729 E73.23728
G1 X261.9 Y174.729 E73.29317
G1 X261.9 Y165.271 E73.83257
G1 X260.921 Y165.271 E73.8884
G1 X260.921 Y174.729 E74.4278
G1 X259.941 Y174.729 E74.48369
G1 X259.941 Y165.271 E75.02309
G1 X258.961 Y165.271 E75.07898
G1 X258.961 Y174.729 E75.61838
G1 X257.981 Y174.729 E75.67427
G1 X257.981 Y165.271 E76.21367
G1 X257.001 Y165.271 E76.26956
G1 X257.001 Y174.729 E76.80896
G1 X256.021 Y174.729 E76.86485
G1 X256.021 Y165.271 E77.40425
G1 X255.042 Y165.271 E77.46008
G1 X255.042 Y174.729 E77.99948
G1 X254.062 Y174.729 E78.05537
G1 X254.062 Y165.271 E78.59477
G1 X253.082 Y165.271 E78.65066
G1 X253.082 Y174.729 E79.19006
G1 X252.102 Y174.729 E79.24595
G1 X252.102 Y165.271 E79.78535
G1 X251.122 Y165.271 E79.84124
G1 X251.122 Y174.729 E80.38064
G1 X250.142 Y174.729 E80.43653
G1 X250.142 Y165.271 E80.97593
G1 X249.163 Y165.271 E81.03176
G1 X249.163 Y174.729 E81.57116
G1 X248.183 Y174.729 E81.62705
G1 X248.183 Y165.271 E82.16645
G1 X247.203 Y165.271 E82.22234
G1 X247.203 Y174.729 E82.76174
G1 X246.223 Y174.729 E82.81763
G1 X246.223 Y165.271 E83.35703
G1 X245.243 Y165.271 E83.41292
G1 X245.243 Y174.729 E83.95232
G1 X244.264 Y174.729 E84.00815
G1 X244.264 Y165.271 E84.54755
G1 X243.284 Y165.271 E84.60344
G1 X243.284 Y174.729 E85.14284
G1 X242.304 Y174.729 E85.19873
G1 X242.304 Y165.271 E85.73813
G1 X241.324 Y165.271 E85.79402
G1 X241.324 Y174.729 E86.33342
G1 X240.344 Y174.729 E86.38931
G1 X240.344 Y165.271 E86.92871
G1 X239.364 Y165.271 E86.9846
G1 X239.364 Y174.729 E87.524
G1 X238.385 Y174.729 E87.57983
G1 X238.385 Y165.271 E88.11923
G1 X237.405 Y165.271 E88.17512
G1 X237.405 Y174.729 E88.71452
G1 X236.425 Y174.729 E88.77041
G1 X236.425 Y165.271 E89.30981
G1 X235.445 Y165.271 E89.3657
G1 X235.445 Y174.729 E89.9051
G1 X234.465 Y174.729 E89.96099
G1 X234.465 Y165.271 E90.50039
G1 X233.486 Y165.271 E90.55622
G1 X233.486 Y174.729 E91.09562
G1 X232.506 Y174.729 E91.15151
G1 X232.506 Y165.271 E91.69091
G1 X231.526 Y165.271 E91.7468
G1 X231.526 Y174.729 E92.2862
G1 X230.546 Y174.729 E92.34209
G1 X230.546 Y165.271 E92.88149
G1 X229.566 Y165.271 E92.93738
G1 X229.566 Y174.729 E93.47678
G1 X228.586 Y174.729 E93.53267
G1 X228.586 Y165.271 E94.07207
G1 X227.607 Y165.271 E94.1279
G1 X227.607 Y174.729 E94.6673
G1 X226.627 Y174.729 E94.72319
G1 X226.627 Y165.271 E95.26259
G1 X225.647 Y165.271 E95.31848
G1 X225.647 Y174.729 E95.85788
G1 X224.667 Y174.729 E95.91377
G1 X224.667 Y165.271 E96.45317
G1 X223.687 Y165.271 E96.50906
G1 X223.687 Y174.729 E97.04846
G1 X222.707 Y174.729 E97.10435
G1 X222.707 Y165.271 E97.64375
G1 X221.728 Y165.271 E97.69958
G1 X221.728 Y174.729 E98.23898
G1 X220.748 Y174.729 E98.29487
G1 X220.748 Y165.271 E98.83427
G1 X219.768 Y165.271 E98.89016
G1 X219.768 Y174.729 E99.42956
G1 X218.788 Y174.729 E99.48545
G1 X218.788 Y165.271 E100.02485
G1 X217.808 Y165.271 E100.08074
G1 X217.808 Y174.729 E100.62014
G1 X216.829 Y174.729 E100.67597
G1 X216.829 Y165.271 E101.21537
G1 X215.849 Y165.271 E101.27126
G1 X215.849 Y174.729 E101.81066
G1 X214.869 Y174.729 E101.86655
G1 X214.869 Y165.271 E102.40595
G1 X213.889 Y165.271 E102.46184
G1 X213.889 Y174.729 E103.00124
G1 X212.909 Y174.729 E103.05713
G1 X212.909 Y165.271 E103.59653
G1 X211.929 Y165.271 E103.65242
G1 X211.929 Y174.729 E104.19182
G1 X210.95 Y174.729 E104.24765
G1 X210.95 Y165.271 E104.78705
G1 X209.97 Y165.271 E104.84294
G1 X209.97 Y174.729 E105.38234
G1 X208.99 Y174.729 E105.43823
G1 X208.99 Y165.271 E105.97763
G1 X208.01 Y165.271 E106.03352
G1 X208.01 Y174.729 E106.57292
G1 X207.03 Y174.729 E106.62881
G1 X207.03 Y165.271 E107.16821
G1 X206.05 Y165.271 E107.2241
G1 X206.05 Y174.729 E107.7635
G1 X205.071 Y174.729 E107.81933
G1 X205.071 Y165.271 E108.35873
G1 X204.091 Y165.271 E108.41462
G1 X204.091 Y174.729 E108.95402
G1 X203.111 Y174.729 E109.00991
G1 X203.111 Y165.271 E109.54931
G1 X202.131 Y165.271 E109.6052
G1 X202.131 Y174.729 E110.1446
G1 X201.151 Y174.729 E110.20049
G1 X201.151 Y165.271 E110.73989
G1 X200.172 Y165.271 E110.79572
G1 X200.172 Y174.729 E111.33512
G1 X199.192 Y174.729 E111.39101
G1 X199.192 Y165.271 E111.93041
G1 X198.212 Y165.271 E111.9863
G1 X198.212 Y174.729 E112.5257
G1 X197.232 Y174.729 E112.58159
G1 X197.232 Y165.271 E113.12099
G1 X196.252 Y165.271 E113.17688
G1 X196.252 Y174.729 E113.71628
G1 X195.272 Y174.729 E113.77217
G1 X195.272 Y165.271 E114.31157
G1 X194.293 Y165.271 E114.3674
G1 X194.293 Y174.729 E114.9068
G1 X193.313 Y174.729 E114.96269
G1 X193.313 Y165.271 E115.50209
G1 X192.333 Y165.271 E115.55798
G1 X192.333 Y174.729 E116.09738
G1 X191.353 Y174.729 E116.15327
G1 X191.353 Y165.271 E116.69267
G1 X190.373 Y165.271 E116.74856
G1 X190.373 Y174.729 E117.28796
G1 X189.394 Y174.729 E117.34379
G1 X189.394 Y165.271 E117.88319
G1 X188.414 Y165.271 E117.93908
G1 X188.414 Y174.729 E118.47848
G1 X187.434 Y174.729 E118.53437
G1 X187.434 Y165.271 E119.07377
G1 X186.454 Y165.271 E119.12966
G1 X186.454 Y174.729 E119.66906
G1 X185.474 Y174.729 E119.72495
G1 X185.474 Y165.271 E120.26435
G1 X184.494 Y165.271 E120.32024
G1 X184.494 Y174.729 E120.85964
G1 X183.515 Y174.729 E120.91547
G1 X183.515 Y165.271 E121.45487
G1 X182.535 Y165.271 E121.51076
G1 X182.535 Y174.729 E122.05016
G1 X181.555 Y174.729 E122.10605
G1 X181.555 Y165.271 E122.64545
G1 X180.575 Y165.271 E122.70134
G1 X180.575 Y174.729 E123.24074
G1 X179.595 Y174.729 E123.29663
G1 X179.595 Y165.271 E123.83603
G1 X178.615 Y165.271 E123.89192
G1 X178.615 Y174.729 E124.43132
G1 X177.636 Y174.729 E124.48715
G1 X177.636 Y165.271 E125.02655
G1 X176.656 Y165.271 E125.08244
G1 X176.656 Y174.729 E125.62184
G1 X175.676 Y174.729 E125.67773
G1 X175.676 Y165.271 E126.21713
G1 X174.696 Y165.271 E126.27302
G1 X174.696 Y174.729 E126.81242
G1 X173.716 Y174.729 E126.86831
G1 X173.716 Y165.271 E127.40771
G1 X172.737 Y165.271 E127.46354
G1 X172.737 Y174.729 E128.00294
G1 X171.757 Y174.729 E128.05883
G1 X171.757 Y165.271 E128.59823
G1 X170.777 Y165.271 E128.65412
G1 X170.777 Y174.729 E129.19352
G1 X169.797 Y174.729 E129.24941
G1 X169.797 Y165.271 E129.78881
G1 X168.817 Y165.271 E129.8447
G1 X168.817 Y174.729 E130.3841
G1 X167.837 Y174.729 E130.43999
G1 X167.837 Y165.271 E130.97939
G1 X166.858 Y165.271 E131.03522
G1 X166.858 Y174.729 E131.57462
G1 X165.878 Y174.729 E131.63051
G1 X165.878 Y165.271 E132.16991
G1 X164.898 Y165.271 E132.2258
G1 X164.898 Y174.729 E132.7652
G1 X163.918 Y174.729 E132.82109
G1 X163.918 Y165.271 E133.36049
G1 X162.938 Y165.271 E133.41638
G1 X162.938 Y174.729 E133.95578
G1 X161.959 Y174.729 E134.01161
G1 X161.959 Y165.271 E134.55101
G1 X160.979 Y165.271 E134.6069
G1 X160.979 Y174.729 E135.1463
G1 X159.999 Y174.729 E135.20219
G1 X159.999 Y165.271 E135.74159
G1 X159.019 Y165.271 E135.79748
G1 X159.019 Y174.729 E136.33688
G1 X158.039 Y174.729 E136.39277
G1 X158.039 Y165.271 E136.93217
G1 X157.059 Y165.271 E136.98806
G1 X157.059 Y174.729 E137.52746
G1 X156.08 Y174.729 E137.58329
G1 X156.08 Y165.271 E138.12269
G1 X155.1 Y165.271 E138.17858
G1 X155.1 Y174.729 E138.71798
G1 X154.12 Y174.729 E138.77387
G1 X154.12 Y165.271 E139.31327
G1 X153.14 Y165.271 E139.36916
G1 X153.14 Y174.729 E139.90856
G1 X152.16 Y174.729 E139.96445
G1 X152.16 Y165.271 E140.50385
G1 X151.18 Y165.271 E140.55974
G1 X151.18 Y174.729 E141.09914
G1 X150.201 Y174.729 E141.15497
G1 X150.201 Y165.271 E141.69437
G1 X149.221 Y165.271 E141.75026
G1 X149.221 Y174.729 E142.28966
G1 X148.241 Y174.729 E142.34555
G1 X148.241 Y165.271 E142.88495
G1 X147.261 Y165.271 E142.94084
G1 X147.261 Y174.729 E143.48024
G1 X146.281 Y174.729 E143.53613
G1 X146.281 Y165.271 E144.07553
G1 X145.302 Y165.271 E144.13136
G1 X145.302 Y174.729 E144.67076
G1 X144.322 Y174.729 E144.72665
G1 X144.322 Y165.271 E145.26605
G1 X143.342 Y165.271 E145.32194
G1 X143.342 Y174.729 E145.86134
G1 X142.362 Y174.729 E145.91723
G1 X142.362 Y165.271 E146.45663
G1 X141.382 Y165.271 E146.51252
G1 X141.382 Y174.729 E147.05192
G1 X140.402 Y174.729 E147.10781
G1 X140.402 Y165.271 E147.64721
G1 X139.423 Y165.271 E147.70304
G1 X139.423 Y174.729 E148.24244
G1 X138.443 Y174.729 E148.29833
G1 X138.443 Y165.271 E148.83773
G1 X137.463 Y165.271 E148.89362
G1 X137.463 Y174.729 E149.43302
G1 X136.483 Y174.729 E149.48891
G1 X136.483 Y165.271 E150.02831
G1 X135.503 Y165.271 E150.0842
G1 X135.503 Y174.729 E150.6236
G1 X134.523 Y174.729 E150.67949
G1 X134.523 Y165.271 E151.21889
G1 X133.544 Y165.271 E151.27472
G1 X133.544 Y174.729 E151.81412
G1 X132.564 Y174.729 E151.87001
G1 X132.564 Y165.271 E152.40941
G1 X131.584 Y165.271 E152.4653
G1 X131.584 Y174.729 E153.0047
G1 X130.604 Y174.729 E153.06059
G1 X130.604 Y165.271 E153.59999
G1 X129.624 Y165.271 E153.65588
G1 X129.624 Y174.729 E154.19528
G1 X128.645 Y174.729 E154.25111
G1 X128.645 Y165.271 E154.79051
G1 X127.665 Y165.271 E154.8464
G1 X127.665 Y174.729 E155.3858
G1 X126.685 Y174.729 E155.44169
G1 X126.685 Y165.271 E155.98109
G1 X125.705 Y165.271 E156.03698
G1 X125.705 Y174.729 E156.57638
G1 X124.725 Y174.729 E156.63227
G1 X124.725 Y165.271 E157.17167
G1 X123.745 Y165.271 E157.22756
G1 X123.745 Y174.729 E157.76696
G1 X122.766 Y174.729 E157.82279
G1 X122.766 Y165.271 E158.36219
G1 X121.786 Y165.271 E158.41808
G1 X121.786 Y174.729 E158.95748
G1 X120.806 Y174.729 E159.01337
G1 X120.806 Y165.271 E159.55277
G1 X119.826 Y165.271 E159.60866
G1 X119.826 Y174.729 E160.14806
G1 X118.846 Y174.729 E160.20395
G1 X118.846 Y165.271 E160.74335
G1 X117.867 Y165.271 E160.79918
G1 X117.867 Y174.729 E161.33858
G1 X116.887 Y174.729 E161.39447
G1 X116.887 Y165.271 E161.93387
G1 X115.907 Y165.271 E161.98976
G1 X115.907 Y174.729 E162.52916
G1 X114.927 Y174.729 E162.58505
G1 X114.927 Y165.271 E163.12445
G1 X113.947 Y165.271 E163.18034
G1 X113.947 Y174.729 E163.71974
G1 X112.967 Y174.729 E163.77563
G1 X112.967 Y165.271 E164.31503
G1 X111.988 Y165.271 E164.37086
G1 X111.988 Y174.729 E164.91026
G1 X111.008 Y174.729 E164.96615
G1 X111.008 Y165.271 E165.50555
G1 X110.028 Y165.271 E165.56144
G1 X110.028 Y174.729 E166.10084
G1 X109.048 Y174.729 E166.15673
G1 X109.048 Y165.271 E166.69613
G1 X108.068 Y165.271 E166.75202
G1 X108.068 Y174.729 E167.29142
G1 X107.088 Y174.729 E167.34731
G1 X107.088 Y165.271 E167.88671
G1 X106.109 Y165.271 E167.94254
G1 X106.109 Y174.729 E168.48194
G1 X105.129 Y174.729 E168.53783
G1 X105.129 Y165.271 E169.07723
G1 X104.149 Y165.271 E169.13312
