; generated by PrusaSlicer 2.6.1 on 2023-11-03 at 21:08:00 UTC

; 

; external perimeters extrusion width = 0.45mm
; perimeters extrusion width = 0.45mm
; infill extrusion width = 0.45mm
; solid infill extrusion width = 0.45mm
; top infill extrusion width = 0.45mm
; support material extrusion width = 0.35mm
; first layer extrusion width = 0.55mm

M190 S60 ; set bed temperature and wait for it to be reached
;TYPE:Custom
; Start GCODE (begins)

G28 ; home all axes
G1 Z5 F5000 ; lift nozzle

M109 S200 ; Do this now so we can purge

; Extrude a small amount of waste material
G92 E0
G1 E20 F200
G92 E0

; Start GCODE (ends)
G21 ; set units to millimeters
G90 ; use absolute coordinates
M82 ; use absolute distances for extrusion
G92 E0
; Filament gcode
M107
;LAYER_CHANGE
;Z:0.28
;HEIGHT:0.28
G1 Z.28 F4800
G1 E-.5 F2400
G92 E0
G1 X36.739 Y132.48 F4800
G1 E.5 F2400
;TYPE:Skirt/Brim
;WIDTH:0.55
G1 F1020
G1 X38.021 Y132.265 E.57413
G1 X307.961 Y114.613 E16.00191
G1 X310.591 Y114.986 E16.1534
G1 X312.692 Y116.168 E16.29088
G1 X314.148 Y117.909 E16.42032
G1 X315.008 Y121.134 E16.61067
G1 X315.006 Y218.263 E22.15002
G1 X314.605 Y220.497 E22.27946
G1 X312.869 Y223.065 E22.45624
G1 X310.834 Y224.37 E22.59411
G1 X308.239 Y224.839 E22.7445
G1 X166.062 Y221.207 E30.85562
G1 X37.831 Y217.799 E38.17132
G1 X30.107 Y217.02 E38.61406
G1 X24.875 Y216.345 E38.91492
G1 X22.924 Y215.771 E39.0309
G1 X19.732 Y214.241 E39.23277
G1 X18.609 Y213.549 E39.308
G1 X15.672 Y211.237 E39.52117
G1 X13.419 Y209.072 E39.69937
G1 X10.927 Y206.06 E39.92232
G1 X10.387 Y205.274 E39.97671
G1 X8.855 Y202.636 E40.15069
G1 X8.406 Y201.689 E40.21046
G1 X7.358 Y198.899 E40.38043
G1 X6.395 Y195.491 E40.5824
G1 X5.713 Y192.151 E40.77681
G1 X5.281 Y188.819 E40.96843
G1 X5.211 Y182.615 E41.32227
G1 X5.256 Y178.909 E41.53364
G1 X5.727 Y175.195 E41.74715
G1 X6.573 Y171.163 E41.98211
G1 X7.85 Y166.905 E42.23563
G1 X9.586 Y162.521 E42.50454
G1 X11.773 Y158.106 E42.78553
G1 X14.372 Y153.749 E43.07486
G1 X17.316 Y149.532 E43.36817
G1 X20.288 Y145.791 E43.64065
G1 X23.647 Y142.031 E43.92819
G1 X24.233 Y141.457 E43.97497
G1 X28.441 Y137.889 E44.28961
G1 X34.688 Y133.451 E44.72663
G1 X36.685 Y132.506 E44.85263
G1 E44.35263 F2400
G92 E0
G1 X241.061 Y215.383 F4800
G1 E.5 F2400
;TYPE:Perimeter
;WIDTH:0.507061
G1 F1020
G1 X239.476 Y215.341 E.5825
G1 X240.034 Y215.005 E.61639
G1 X240.286 Y214.654 E.63887
G1 X240.402 Y215.015 E.6586
G1 X241.009 Y215.354 E.69478
G1 E.19478 F2400
G92 E0
G1 X241.017 Y215.05 F4800
G1 X241.004 Y215.05
G1 X240.611 Y214.257
G1 X306.571 Y121.944
G1 X283.653 Y123.443
G1 X283.293 Y123.466
G1 X283.331 Y124.043
G1 E.5 F2400
;WIDTH:0.664975
G1 F1020
G1 X283.387 Y124.018 E.50432
;WIDTH:0.621846
G1 X283.442 Y123.992 E.5083
;WIDTH:0.578717
G1 X283.498 Y123.967 E.512
;WIDTH:0.535587
G1 X283.553 Y123.942 E.51534
;WIDTH:0.492459
G1 X283.609 Y123.917 E.51843
;WIDTH:0.44933
G1 X283.665 Y123.891 E.52123
;WIDTH:0.406201
G1 X283.72 Y123.866 E.52366
;WIDTH:0.39033
G1 X303.846 Y122.564 E1.29899
;WIDTH:0.428174
G1 X304.159 Y122.562 E1.3124
;WIDTH:0.466018
G1 X304.473 Y122.561 E1.32724
;WIDTH:0.510125
G1 X304.602 Y122.574 E1.33403
;WIDTH:0.554233
G1 X304.73 Y122.588 E1.34144
;WIDTH:0.59834
G1 X304.859 Y122.602 E1.34957
;WIDTH:0.642448
G1 X304.987 Y122.615 E1.35829
;WIDTH:0.686556
G1 X305.115 Y122.629 E1.36768
G1 X305.238 Y122.599 E1.37691
;WIDTH:0.642547
G1 X305.361 Y122.569 E1.38549
;WIDTH:0.598538
G1 X305.484 Y122.539 E1.39343
;WIDTH:0.55453
G1 X305.606 Y122.509 E1.40066
;WIDTH:0.510521
G1 X305.729 Y122.479 E1.4073
;WIDTH:0.466513
G1 X306.038 Y122.44 E1.42204
;WIDTH:0.430118
G1 X306.347 Y122.402 E1.43545
;WIDTH:0.394827
G1 X307.342 Y122.337 E1.4743
G1 X307.342 Y122.673 E1.48739
G1 X306.365 Y122.735 E1.52554
;WIDTH:0.430117
G1 X306.105 Y122.796 E1.53704
;WIDTH:0.466513
G1 X305.844 Y122.857 E1.54972
;WIDTH:0.511487
G1 X305.752 Y122.912 E1.55535
;WIDTH:0.556462
G1 X305.66 Y122.967 E1.56154
;WIDTH:0.601436
G1 X305.567 Y123.022 E1.56835
;WIDTH:0.646411
G1 X305.475 Y123.076 E1.57563
;WIDTH:0.691386
G1 X305.382 Y123.131 E1.58357
G1 X305.08 Y123.552 E1.62165
G1 X304.893 Y123.16 E1.65357
G1 X304.796 Y123.118 E1.66134
;WIDTH:0.646312
G1 X304.698 Y123.076 E1.66862
;WIDTH:0.601238
G1 X304.601 Y123.034 E1.67528
;WIDTH:0.556165
G1 X304.504 Y122.992 E1.68138
;WIDTH:0.511091
G1 X304.406 Y122.949 E1.687
;WIDTH:0.466018
G1 X304.136 Y122.921 E1.69983
;WIDTH:0.428174
G1 X303.867 Y122.893 E1.71142
;WIDTH:0.39033
G1 X283.74 Y124.168 E2.48672
;WIDTH:0.406201
G1 X283.681 Y124.15 E2.48921
;WIDTH:0.44933
G1 X283.623 Y124.132 E2.49196
;WIDTH:0.492459
G1 X283.564 Y124.115 E2.49505
;WIDTH:0.535587
G1 X283.506 Y124.097 E2.49841
;WIDTH:0.578717
G1 X283.448 Y124.079 E2.50208
;WIDTH:0.621846
G1 X283.389 Y124.061 E2.50611
;WIDTH:0.664975
G1 X283.388 Y124.06 E2.50621
G1 E2.00621 F2400
G92 E0
G1 X283.349 Y123.463 F4800
G1 X38.145 Y139.775
G1 X28.422 Y147.527
G1 X18.682 Y160.615
G1 X13.725 Y172.449
G1 X12.219 Y184.836
G1 X13.664 Y194.832
G1 X17.282 Y202.437
G1 X25.912 Y209.192
G1 X28.742 Y209.501
G1 X32.145 Y209.874
G1 X32.599 Y209.889
G1 X32.618 Y209.326
G1 E.5 F2400
;WIDTH:0.637057
G1 F1020
G1 X32.55 Y209.346 E.50476
;WIDTH:0.592112
G1 X32.483 Y209.367 E.50911
;WIDTH:0.547167
G1 X32.416 Y209.387 E.51307
;WIDTH:0.502223
G1 X32.348 Y209.407 E.51672
;WIDTH:0.457279
G1 X32.281 Y209.427 E.51995
;WIDTH:0.412334
G1 X32.214 Y209.448 E.52283
;WIDTH:0.398724
G1 X31.549 Y209.41 E.54909
;WIDTH:0.430058
G1 X30.862 Y209.369 E.57873
G1 X28.828 Y209.064 E.66731
;WIDTH:0.400885
G1 X28.774 Y209.057 E.66947
;WIDTH:0.425716
G1 X26.128 Y208.755 E.78282
G1 X25.664 Y208.578 E.80396
;WIDTH:0.414106
G1 X23.181 Y207.381 E.91756
G1 X21.774 Y206.295 E.99081
G1 X25.813 Y208.271 E1.17611
;WIDTH:0.425716
G1 X26.172 Y208.392 E1.19223
G1 X28.814 Y208.719 E1.30554
;WIDTH:0.400885
G1 X28.876 Y208.727 E1.30802
;WIDTH:0.430058
G1 X30.915 Y209.003 E1.39664
G1 X31.577 Y209.072 E1.42531
;WIDTH:0.398724
G1 X32.239 Y209.142 E1.45155
;WIDTH:0.412334
G1 X32.302 Y209.172 E1.45441
;WIDTH:0.457279
G1 X32.365 Y209.203 E1.45766
;WIDTH:0.502223
G1 X32.428 Y209.234 E1.46127
;WIDTH:0.547167
G1 X32.491 Y209.265 E1.46525
;WIDTH:0.592112
G1 X32.554 Y209.295 E1.46957
;WIDTH:0.637057
G1 X32.564 Y209.3 E1.47032
G1 E.97032 F2400
G92 E0
G1 X240.826 Y214.78 F4800
G1 E.5 F2400
;WIDTH:0.596579
G1 F1020
G1 X240.991 Y214.892 E.51245
;WIDTH:0.643158
G1 X241.189 Y215.026 E.52868
;WIDTH:0.689736
G1 X241.387 Y215.16 E.5462
G1 X307.397 Y216.91 E5.38628
;WIDTH:0.669466
G1 X307.694 Y216.918 E5.40736
G1 X307.693 Y217.527 E5.45056
G1 X307.381 Y217.519 E5.4727
;WIDTH:0.689736
G1 X241.37 Y215.79 E10.31281
G1 X240.979 Y215.803 E10.34149
;WIDTH:0.643158
G1 X240.588 Y215.816 E10.36804
;WIDTH:0.596579
G1 X240.197 Y215.829 E10.39247
;WIDTH:0.596819
G1 X239.806 Y215.795 E10.41699
;WIDTH:0.643639
G1 X239.416 Y215.762 E10.44358
;WIDTH:0.690459
G1 X239.026 Y215.728 E10.47231
;WIDTH:0.70138
G1 X203.46 Y214.796 E13.12833
G1 X203.36 Y214.813 E13.1359
;WIDTH:0.663535
G1 X203.259 Y214.829 E13.14308
;WIDTH:0.62569
G1 X203.159 Y214.845 E13.14975
;WIDTH:0.587845
G1 X203.058 Y214.862 E13.15604
;WIDTH:0.549999
G1 X38.513 Y210.576 E22.54335
G1 X37.88 Y210.514 E22.57962
G1 X35.641 Y209.976 E22.71095
G1 X35.494 Y209.957 E22.7194
G1 X30.833 Y209.8 E22.98537
G1 X28.729 Y209.47 E23.10683
G1 X25.921 Y209.163 E23.26793
G1 X23.015 Y207.769 E23.45174
G1 X22.908 Y207.703 E23.45891
;WIDTH:0.583778
G1 X22.284 Y207.201 E23.50773
;WIDTH:0.617557
G1 X21.661 Y206.698 E23.55969
;WIDTH:0.651336
G1 X21.037 Y206.195 E23.61485
;WIDTH:0.659676
G1 X20.683 Y205.915 E23.64635
;WIDTH:0.689148
G1 X18.556 Y203.851 E23.86339
G1 X17.994 Y203.192 E23.92681
;WIDTH:0.644886
G1 X17.458 Y202.563 E23.98307
;WIDTH:0.600625
G1 X16.923 Y201.934 E24.03503
;WIDTH:0.57465
G1 X16.633 Y201.559 E24.06343
;WIDTH:0.578274
G1 X15.193 Y199.077 E24.23652
G1 X14.96 Y198.531 E24.27233
;WIDTH:0.533019
G1 X14.746 Y198.025 E24.30258
;WIDTH:0.487765
G1 X14.532 Y197.518 E24.32998
;WIDTH:0.44251
G1 X14.317 Y197.012 E24.35446
;WIDTH:0.397256
G1 X14.267 Y196.886 E24.35978
;WIDTH:0.41347
G1 X14.101 Y196.411 E24.38048
;WIDTH:0.422855
G1 X13.341 Y193.627 E24.50235
G1 X13.153 Y192.762 E24.53973
;WIDTH:0.394439
G1 X12.969 Y191.91 E24.57366
;WIDTH:0.412669
G1 X12.979 Y191.84 E24.57656
;WIDTH:0.459316
G1 X12.989 Y191.77 E24.57985
;WIDTH:0.505962
G1 X12.998 Y191.7 E24.58351
;WIDTH:0.552609
G1 X13.008 Y191.63 E24.58756
;WIDTH:0.599256
G1 X13.018 Y191.56 E24.592
;WIDTH:0.645903
G1 X13.028 Y191.49 E24.59682
G1 X13.068 Y191.549 E24.60168
;WIDTH:0.599256
G1 X13.108 Y191.607 E24.6061
;WIDTH:0.552609
G1 X13.147 Y191.665 E24.61011
;WIDTH:0.505962
G1 X13.187 Y191.724 E24.61381
;WIDTH:0.459316
G1 X13.227 Y191.782 E24.61708
;WIDTH:0.412669
G1 X13.267 Y191.84 E24.61997
;WIDTH:0.394439
G1 X13.479 Y192.686 E24.65392
;WIDTH:0.422855
G1 X14.442 Y196.319 E24.81264
;WIDTH:0.41347
G1 X14.621 Y196.868 E24.83639
;WIDTH:0.44251
G1 X14.876 Y197.355 E24.86086
;WIDTH:0.487765
G1 X15.131 Y197.843 E24.88827
;WIDTH:0.533019
G1 X15.387 Y198.33 E24.91856
;WIDTH:0.578274
G1 X15.642 Y198.817 E24.95172
G1 X17.068 Y201.284 E25.12361
;WIDTH:0.57465
G1 X17.292 Y201.603 E25.14696
;WIDTH:0.600625
G1 X17.86 Y202.202 E25.1989
;WIDTH:0.644886
G1 X18.428 Y202.802 E25.25515
;WIDTH:0.689148
G1 X18.996 Y203.401 E25.3156
G1 X21.103 Y205.487 E25.53272
;WIDTH:0.659676
G1 X21.359 Y205.678 E25.55501
;WIDTH:0.651336
G1 X22.085 Y206.016 E25.61013
;WIDTH:0.617557
G1 X22.812 Y206.354 E25.66216
;WIDTH:0.583778
G1 X23.538 Y206.692 E25.71098
;WIDTH:0.549999
G1 X25.996 Y207.899 E25.86715
G1 X26.226 Y207.968 E25.88084
G1 X34.076 Y208.976 E26.33221
G1 X38.602 Y209.684 E26.59347
G1 X203.079 Y214.069 E35.97705
;WIDTH:0.587845
G1 X203.179 Y214.091 E35.98334
;WIDTH:0.62569
G1 X203.278 Y214.112 E35.99
;WIDTH:0.663535
G1 X203.378 Y214.134 E35.99719
;WIDTH:0.70138
G1 X203.477 Y214.155 E36.00475
G1 X239.043 Y215.098 E38.6608
;WIDTH:0.698949
G1 X239.183 Y215.094 E38.67122
G1 X239.342 Y214.97 E38.68622
;WIDTH:0.649299
G1 X239.502 Y214.846 E38.7001
;WIDTH:0.599649
G1 X239.661 Y214.722 E38.71276
;WIDTH:0.549999
G1 X240.426 Y213.649 E38.78791
;WIDTH:0.540136
G1 X304.531 Y124.462 E44.92578
;WIDTH:0.547481
G1 X304.599 Y124.355 E44.93297
;WIDTH:0.549999
G1 X304.665 Y123.927 E44.95767
G1 X304.48 Y123.539 E44.98218
G1 X304.229 Y123.361 E44.99973
G1 X303.893 Y123.302 E45.01919
G1 X172.104 Y131.563 E52.54997
;WIDTH:0.587805
G1 X172.003 Y131.55 E52.55623
;WIDTH:0.625611
G1 X171.902 Y131.537 E52.56293
;WIDTH:0.663416
G1 X171.801 Y131.525 E52.57007
;WIDTH:0.701222
G1 X171.7 Y131.512 E52.57767
G1 X138.476 Y133.617 E55.0623
;WIDTH:0.656224
G1 X105.251 Y135.722 E57.37262
;WIDTH:0.611226
G1 X72.027 Y137.827 E59.50849
;WIDTH:0.566229
G1 X38.803 Y139.932 E61.46997
;WIDTH:0.521231
G1 X38.688 Y139.956 E61.47628
;WIDTH:0.488241
G1 X38.574 Y139.98 E61.48209
;WIDTH:0.455251
G1 X38.425 Y140.043 E61.48953
;WIDTH:0.422558
G1 X38.277 Y140.106 E61.49632
;WIDTH:0.389865
G1 X37.411 Y140.653 E61.53564
;WIDTH:0.352564
G1 X36.544 Y141.2 E61.57054
;WIDTH:0.315264
G1 X35.677 Y141.748 E61.60101
;WIDTH:0.278214
G1 X35.602 Y141.801 E61.60334
;WIDTH:0.326356
G1 X34.687 Y142.54 E61.6398
;WIDTH:0.374498
G1 X33.773 Y143.278 E61.6828
;WIDTH:0.42264
G1 X32.858 Y144.016 E61.73241
;WIDTH:0.424715
G1 X32.786 Y144.081 E61.73653
;WIDTH:0.462265
G1 X32.245 Y144.611 E61.77199
;WIDTH:0.499815
G1 X31.704 Y145.141 E61.81076
;WIDTH:0.546659
G1 X30.953 Y145.881 E61.87048
;WIDTH:0.593504
G1 X30.202 Y146.621 E61.93595
;WIDTH:0.640348
G1 X29.451 Y147.361 E62.00717
G1 X27.876 Y149.016 E62.16149
;WIDTH:0.595331
G1 X26.301 Y150.672 E62.30389
;WIDTH:0.550314
G1 X25.817 Y151.195 E62.34456
;WIDTH:0.514966
G1 X25.333 Y151.719 E62.38233
;WIDTH:0.479619
G1 X25.268 Y151.798 E62.38733
;WIDTH:0.514802
G1 X24.34 Y153.056 E62.47008
;WIDTH:0.55171
G1 X23.411 Y154.314 E62.55958
G1 X22.089 Y156.166 E62.6898
;WIDTH:0.533194
G1 X22.052 Y156.221 E62.69345
;WIDTH:0.575409
G1 X21.453 Y157.196 E62.7621
;WIDTH:0.617624
G1 X20.854 Y158.17 E62.83631
;WIDTH:0.621315
G1 X18.554 Y162.065 E63.13183
G1 X17.964 Y163.109 E63.21018
;WIDTH:0.575043
G1 X17.375 Y164.154 E63.28209
;WIDTH:0.528772
G1 X16.785 Y165.198 E63.34752
;WIDTH:0.482871
G1 X16.735 Y165.302 E63.3532
;WIDTH:0.508366
G1 X16.512 Y165.843 E63.38374
;WIDTH:0.515238
G1 X15.034 Y169.657 E63.60046
G1 X14.77 Y170.405 E63.64249
;WIDTH:0.527616
G1 X14.549 Y171.371 E63.69642
;WIDTH:0.568043
G1 X14.328 Y172.337 E63.75502
;WIDTH:0.60847
G1 X14.107 Y173.303 E63.81828
G1 X13.402 Y176.711 E64.04044
;WIDTH:0.602493
G1 X13.243 Y177.566 E64.09535
;WIDTH:0.565836
G1 X13.084 Y178.422 E64.14661
;WIDTH:0.529181
G1 X12.925 Y179.277 E64.1941
;WIDTH:0.494705
G1 X12.81 Y180.561 E64.25932
;WIDTH:0.452439
G1 X12.749 Y181.362 E64.29601
;WIDTH:0.410173
G1 X12.688 Y182.164 E64.32879
;WIDTH:0.412208
G1 X12.659 Y182.228 E64.33167
;WIDTH:0.45651
G1 X12.63 Y182.292 E64.33491
;WIDTH:0.500812
G1 X12.601 Y182.356 E64.33851
;WIDTH:0.545113
G1 X12.572 Y182.42 E64.34248
;WIDTH:0.589415
G1 X12.544 Y182.484 E64.34678
;WIDTH:0.633717
G1 X12.515 Y182.548 E64.35147
G1 X12.492 Y182.481 E64.3562
;WIDTH:0.589415
G1 X12.47 Y182.415 E64.36049
;WIDTH:0.545113
G1 X12.448 Y182.348 E64.36447
;WIDTH:0.500812
G1 X12.425 Y182.282 E64.36806
;WIDTH:0.45651
G1 X12.403 Y182.215 E64.37131
;WIDTH:0.412208
G1 X12.381 Y182.149 E64.37416
;WIDTH:0.410173
G1 X12.4 Y181.345 E64.40693
;WIDTH:0.452439
G1 X12.419 Y180.541 E64.44366
;WIDTH:0.494705
G1 X12.439 Y179.711 E64.48567
G1 X12.499 Y179.207 E64.51135
;WIDTH:0.529181
G1 X12.622 Y178.346 E64.55884
;WIDTH:0.565836
G1 X12.744 Y177.485 E64.61004
;WIDTH:0.602493
G1 X12.871 Y176.602 E64.66637
;WIDTH:0.60847
G1 X13.569 Y173.192 E64.88857
G1 X13.835 Y172.214 E64.95327
;WIDTH:0.568043
G1 X14.096 Y171.257 E65.01193
;WIDTH:0.527616
G1 X14.356 Y170.301 E65.06585
;WIDTH:0.487227
G1 X14.399 Y170.157 E65.07332
;WIDTH:0.515238
G1 X14.606 Y169.501 E65.10977
G1 X16.094 Y165.681 E65.32698
;WIDTH:0.508366
G1 X16.414 Y164.998 E65.36634
;WIDTH:0.528772
G1 X16.963 Y163.932 E65.43176
;WIDTH:0.575043
G1 X17.511 Y162.865 E65.50367
;WIDTH:0.621315
G1 X18.07 Y161.779 E65.58347
G1 X20.374 Y157.886 E65.87902
;WIDTH:0.617624
G1 X21.02 Y156.918 E65.95455
;WIDTH:0.575409
G1 X21.654 Y155.966 E66.02316
;WIDTH:0.533194
G1 X21.704 Y155.894 E66.02799
;WIDTH:0.55171
G1 X23.01 Y154.03 E66.15824
G1 X23.977 Y152.782 E66.24859
;WIDTH:0.514802
G1 X24.935 Y151.546 E66.33137
;WIDTH:0.479619
G1 X25.019 Y151.443 E66.33786
;WIDTH:0.514966
G1 X25.476 Y150.896 E66.3756
;WIDTH:0.550314
G1 X25.943 Y150.337 E66.41717
;WIDTH:0.595331
G1 X27.485 Y148.651 E66.55953
;WIDTH:0.640348
G1 X29.027 Y146.965 E66.71387
G1 X29.837 Y146.233 E66.78762
;WIDTH:0.593504
G1 X30.62 Y145.527 E66.85309
;WIDTH:0.546659
G1 X31.403 Y144.821 E66.91281
;WIDTH:0.499815
G1 X31.97 Y144.318 E66.95161
;WIDTH:0.462265
G1 X32.537 Y143.814 E66.98713
;WIDTH:0.424715
G1 X32.637 Y143.73 E66.99267
;WIDTH:0.42264
G1 X33.581 Y143.03 E67.04227
;WIDTH:0.374498
G1 X34.525 Y142.329 E67.08531
;WIDTH:0.326356
G1 X35.468 Y141.629 E67.12171
;WIDTH:0.278214
G1 X35.558 Y141.566 E67.1245
;WIDTH:0.315264
G1 X36.404 Y140.987 E67.15495
;WIDTH:0.352564
G1 X37.25 Y140.409 E67.18983
;WIDTH:0.389865
G1 X38.096 Y139.83 E67.22919
;WIDTH:0.422558
G1 X38.272 Y139.726 E67.23782
;WIDTH:0.455251
G1 X38.447 Y139.621 E67.24721
;WIDTH:0.488241
G1 X38.61 Y139.547 E67.25613
;WIDTH:0.521231
G1 X38.773 Y139.472 E67.26576
;WIDTH:0.566229
G1 X71.995 Y137.322 E69.2273
;WIDTH:0.611226
G1 X105.216 Y135.172 E71.36316
;WIDTH:0.656224
G1 X138.438 Y133.022 E73.67347
;WIDTH:0.701222
G1 X171.659 Y130.872 E76.15809
G1 X171.757 Y130.847 E76.16564
;WIDTH:0.663416
G1 X171.856 Y130.822 E76.17281
;WIDTH:0.625611
G1 X171.955 Y130.796 E76.17955
;WIDTH:0.587805
G1 X172.053 Y130.771 E76.18576
;WIDTH:0.549999
G1 X307.754 Y121.897 E83.94142
G1 X307.754 Y123.06 E84.00775
G1 X306.394 Y123.146 E84.08547
G1 X306.07 Y123.244 E84.10477
G1 X305.843 Y123.45 E84.12225
G1 X304.921 Y124.742 E84.21277
;WIDTH:0.540136
G1 X240.816 Y213.93 E90.35068
;WIDTH:0.547486
G1 X240.748 Y214.037 E90.35787
;WIDTH:0.549999
G1 X240.674 Y214.379 E90.37783
G1 X240.787 Y214.739 E90.39935
G1 X241.202 Y214.488 F4800
;TYPE:External perimeter
