; generated by PrusaSlicer 2.6.1 on 2023-11-03 at 21:08:00 UTC

; 

; external perimeters extrusion width = 0.45mm
; perimeters extrusion width = 0.45mm
; infill extrusion width = 0.45mm
; solid infill extrusion width = 0.45mm
; top infill extrusion width = 0.45mm
; support material extrusion width = 0.35mm
; first layer extrusion width = 0.55mm

M190 S60 ; set bed temperature and wait for it to be reached
;TYPE:Custom
; Start GCODE (begins)

G28 ; home all axes
G1 Z5 F5000 ; lift nozzle

M109 S200 ; Do this now so we can purge

; Extrude a small amount of waste material
G92 E0
G1 E20 F200
G92 E0

; Start GCODE (ends)
G21 ; set units to millimeters
G90 ; use absolute coordinates
M82 ; use absolute distances for extrusion
G92 E0
; Filament gcode
M107
;LAYER_CHANGE
;Z:0.28
;HEIGHT:0.28
G1 Z.28 F4800
G1 E-.5 F2400
G92 E0
G1 X136.756 Y117.31 F4800
G1 E.5 F2400
;TYPE:Skirt/Brim
;WIDTH:0.55
G1 F1020
G1 X138.336 Y115.68 E.62947
G1 X140.381 Y114.695 E.75892
G1 X142.132 Y114.454 E.85972
G1 X177.868 Y114.454 E2.89777
G1 X180.103 Y114.851 E3.02723
G1 X182.064 Y115.993 E3.15665
G1 X183.512 Y117.741 E3.2861
G1 X184.04 Y118.939 E3.36076
G1 X188.527 Y132.751 E4.18899
G1 X188.845 Y134.756 E4.30477
G1 X188.845 Y205.244 E8.32476
G1 X188.496 Y207.344 E8.44617
G1 X184.01 Y220.461 E9.23678
G1 X182.912 Y222.447 E9.3662
G1 X181.196 Y223.933 E9.49566
G1 X179.074 Y224.738 E9.62509
G1 X177.876 Y224.851 E9.69372
G1 X142.124 Y224.851 E11.73269
G1 X139.889 Y224.451 E11.86218
G1 X137.929 Y223.307 E11.99161
G1 X136.483 Y221.558 E12.12103
G1 X135.99 Y220.461 E12.18962
G1 X131.504 Y207.344 E12.98023
G1 X131.155 Y205.244 E13.10164
G1 X131.155 Y139.052 E16.87662
G1 X131.346 Y137.492 E16.96625
G1 X135.833 Y119.383 E18.03025
G1 X136.731 Y117.364 E18.15627
G1 E17.65627 F2400
G92 E0
G1 X141.629 Y175.169 F4800
G1 E.5 F2400
;TYPE:Support material
G1 F1020
G1 X137.645 Y175.169 E.72721
G1 X137.645 Y139.052 E2.78699
G1 X141.63 Y139.052 E3.01426
G1 X141.629 Y175.096 E5.06988
G1 X140.404 Y174.949 F4800
G1 F1020
G1 X140.404 Y139.493 E7.09197
G1 X139.424 Y139.493 E7.14786
G1 X139.424 Y174.729 E9.1574
G1 X138.444 Y174.729 E9.21329
G1 X138.444 Y139.273 E11.23538
G1 E10.73538 F2400
G92 E0
G1 X142.73 Y142.762 F4800
G1 X177.271 Y170.569
G1 X177.271 Y171.028
G1 X182.355 Y175.169
G1 E.5 F2400
G1 F1020
G1 X178.372 Y175.169 E.72715
G1 X178.37 Y134.756 E3.03194
G1 X182.355 Y134.756 E3.25921
G1 X182.355 Y175.096 E5.55983
G1 X181.556 Y174.949 F4800
G1 F1020
G1 X181.556 Y135.197 E7.82692
G1 X180.576 Y135.197 E7.88281
G1 X180.576 Y174.729 E10.13735
G1 X179.596 Y174.729 E10.19324
G1 X179.596 Y134.977 E12.46033
G1 E11.96033 F2400
G92 E0
G1 X182.355 Y205.244 F4800
G1 E.5 F2400
G1 F1020
G1 X178.372 Y205.244 E.72715
G1 X178.372 Y186.312 E1.80686
G1 X182.355 Y186.312 E2.03401
G1 X182.355 Y205.17 E3.1095
G1 X181.556 Y205.023 F4800
G1 F1020
G1 X181.556 Y186.753 E4.15145
G1 X180.576 Y186.753 E4.20734
G1 X180.576 Y204.803 E5.23675
G1 X179.596 Y204.803 E5.29264
G1 X179.596 Y186.533 E6.33459
G1 E5.83459 F2400
G92 E0
G1 X177.272 Y187.67 F4800
G1 X142.728 Y204.847
G1 X142.728 Y204.71
G1 X141.628 Y205.244
G1 E.5 F2400
G1 F1020
G1 X137.645 Y205.244 E.72715
G1 X137.645 Y186.312 E1.80686
G1 X141.629 Y186.312 E2.03407
G1 X141.628 Y205.17 E3.10956
G1 X140.404 Y205.023 F4800
G1 F1020
G1 X140.404 Y186.753 E4.15151
G1 X139.424 Y186.753 E4.2074
G1 X139.424 Y204.803 E5.23681
G1 X138.444 Y204.803 E5.2927
G1 X138.444 Y186.533 E6.33465
G1 E5.83465 F2400
G92 E0
G1 X142.728 Y189.951 F4800
G1 X176.358 Y217.762
G1 X176.616 Y217.762
G1 X176.615 Y217.106
G1 E.5 F2400
;TYPE:Perimeter
;WIDTH:0.549999
G1 F1020
G1 X143.385 Y217.106 E2.39513
G1 X143.384 Y184.019 E4.28211
G1 X143.367 Y183.95 E4.28616
G1 X143.367 Y180.663 E4.47362
G1 X143.384 Y179.879 E4.51834
G1 X143.387 Y122.199 E7.80787
G1 X176.613 Y122.199 E9.70277
G1 X176.617 Y179.879 E12.9923
G1 X176.633 Y179.946 E12.99623
G1 X176.633 Y183.256 E13.185
G1 X176.617 Y184.019 E13.22852
G1 X176.615 Y217.046 E15.11208
G1 X177.105 Y217.596 F4800
G1 F1020
G1 X142.895 Y217.596 E17.0631
G1 X142.894 Y184.019 E18.97802
G1 X142.877 Y183.971 E18.98092
G1 X142.877 Y180.663 E19.16958
G1 X142.894 Y179.879 E19.2143
G1 X142.897 Y121.709 E22.53178
G1 X177.103 Y121.709 E24.48257
G1 X177.107 Y179.879 E27.80005
G1 X177.123 Y179.926 E27.80288
G1 X177.123 Y183.256 E27.99279
G1 X177.107 Y184.019 E28.03631
G1 X177.105 Y217.536 E29.94781
G1 X177.595 Y218.086 F4800
;TYPE:External perimeter
G1 F1020
G1 X142.405 Y218.086 E31.95472
G1 X142.404 Y184.019 E33.89759
G1 X142.387 Y183.992 E33.89941
G1 X142.387 Y180.663 E34.08927
G1 X142.404 Y179.879 E34.13399
G1 X142.407 Y121.219 E37.47941
G1 X177.593 Y121.219 E39.48609
G1 X177.597 Y179.879 E42.83151
G1 X177.613 Y179.905 E42.83325
G1 X177.613 Y183.256 E43.02436
G1 X177.597 Y184.019 E43.06788
G1 X177.595 Y218.026 E45.00733
G1 X177.248 Y217.886 F4800
G1 E44.50733 F2400
G92 E0
G1 X175.475 Y122.346 F4800
G1 E.5 F2400
;TYPE:Solid infill
;WIDTH:0.550626
G1 F1020
G1 X176.246 Y123.117 E.56226
G1 X176.246 Y123.811 E.60189
G1 X175.001 Y122.566 E.70243
G1 X174.308 Y122.566 E.742
G1 X176.246 Y124.505 E.89855
G1 X176.246 Y125.199 E.93818
G1 X173.614 Y122.566 E1.15077
G1 X172.92 Y122.566 E1.1904
G1 X176.246 Y125.892 E1.459
G1 X176.246 Y126.586 E1.49863
G1 X172.227 Y122.566 E1.82323
G1 X171.533 Y122.566 E1.86286
G1 X176.246 Y127.28 E2.24351
G1 X176.246 Y127.974 E2.28314
G1 X170.839 Y122.566 E2.71983
G1 X170.145 Y122.566 E2.75946
G1 X176.246 Y128.667 E3.25216
G1 X176.246 Y129.361 E3.29179
G1 X169.452 Y122.566 E3.84049
G1 X168.758 Y122.566 E3.88012
G1 X176.246 Y130.055 E4.48487
G1 X176.246 Y130.749 E4.5245
G1 X168.064 Y122.566 E5.18529
G1 X167.371 Y122.566 E5.22486
G1 X176.247 Y131.443 E5.9417
G1 X176.247 Y132.136 E5.98127
G1 X166.677 Y122.566 E6.75411
G1 X165.983 Y122.566 E6.79374
G1 X176.247 Y132.83 E7.62263
G1 X176.247 Y133.524 E7.66226
G1 X165.289 Y122.566 E8.54719
G1 X164.596 Y122.566 E8.58676
G1 X176.247 Y134.218 E9.5277
G1 X176.247 Y134.911 E9.56727
G1 X163.902 Y122.566 E10.56421
G1 X163.208 Y122.566 E10.60384
G1 X176.247 Y135.605 E11.65683
G1 X176.247 Y136.299 E11.69646
G1 X162.514 Y122.566 E12.80549
G1 X161.821 Y122.566 E12.84506
G1 X176.247 Y136.993 E14.0101
G1 X176.247 Y137.686 E14.04967
G1 X161.127 Y122.566 E15.27071
G1 X160.433 Y122.566 E15.31034
G1 X176.247 Y138.38 E16.58743
G1 X176.247 Y139.074 E16.62706
G1 X159.74 Y122.566 E17.96015
G1 X159.046 Y122.566 E17.99978
G1 X176.247 Y139.768 E19.38892
G1 X176.247 Y140.461 E19.42849
G1 X158.352 Y122.566 E20.87363
G1 X157.658 Y122.566 E20.91326
G1 X176.247 Y141.155 E22.41445
G1 X176.247 Y141.849 E22.45408
G1 X156.965 Y122.566 E24.01127
G1 X156.271 Y122.566 E24.0509
G1 X176.247 Y142.543 E25.66414
G1 X176.247 Y143.237 E25.70377
G1 X155.577 Y122.566 E27.37305
G1 X154.883 Y122.566 E27.41268
G1 X176.247 Y143.93 E29.13797
G1 X176.247 Y144.624 E29.1776
G1 X154.19 Y122.566 E30.95889
G1 X153.496 Y122.566 E30.99852
G1 X176.247 Y145.318 E32.83586
G1 X176.247 Y146.012 E32.87549
G1 X152.802 Y122.566 E34.76887
G1 X152.109 Y122.566 E34.80844
G1 X176.247 Y146.705 E36.75779
G1 X176.248 Y147.399 E36.79742
G1 X151.415 Y122.566 E38.80285
G1 X150.721 Y122.566 E38.84248
G1 X176.248 Y148.093 E40.90396
G1 X176.248 Y148.787 E40.94359
G1 X150.027 Y122.566 E43.06111
G1 X149.334 Y122.566 E43.10068
G1 X176.248 Y149.48 E45.27417
G1 X176.248 Y150.174 E45.3138
G1 X148.64 Y122.566 E47.54333
G1 X147.946 Y122.566 E47.58296
G1 X176.248 Y150.868 E49.86854
G1 X176.248 Y151.562 E49.90817
G1 X147.253 Y122.566 E52.24975
G1 X146.559 Y122.566 E52.28938
G1 X176.248 Y152.256 E54.68701
G1 X176.248 Y152.949 E54.72658
G1 X145.865 Y122.566 E57.18021
G1 X145.171 Y122.566 E57.21984
G1 X176.248 Y153.643 E59.72952
G1 X176.248 Y154.337 E59.76915
G1 X144.478 Y122.566 E62.33483
G1 X143.784 Y122.566 E62.37446
G1 X176.248 Y155.031 E64.99619
G1 X176.248 Y155.724 E65.03576
G1 X143.754 Y123.231 E67.65983
G1 X143.754 Y123.924 E67.6994
G1 X176.248 Y156.418 E70.32351
G1 X176.248 Y157.112 E70.36314
G1 X143.754 Y124.618 E72.98725
G1 X143.754 Y125.312 E73.02688
G1 X176.248 Y157.806 E75.65099
G1 X176.248 Y158.499 E75.69056
G1 X143.754 Y126.005 E78.31467
G1 X143.754 Y126.699 E78.3543
G1 X176.248 Y159.193 E80.97841
G1 X176.248 Y159.887 E81.01804
G1 X143.754 Y127.393 E83.64215
G1 X143.754 Y128.087 E83.68178
G1 X176.248 Y160.581 E86.30589
G1 X176.248 Y161.274 E86.34546
G1 X143.754 Y128.78 E88.96957
G1 X143.754 Y129.474 E89.0092
G1 X176.248 Y161.968 E91.63331
G1 X176.248 Y162.662 E91.67294
G1 X143.754 Y130.168 E94.29705
G1 X143.754 Y130.861 E94.33662
G1 X176.249 Y163.356 E96.96081
G1 X176.249 Y164.05 E97.00044
G1 X143.754 Y131.555 E99.62463
G1 X143.754 Y132.249 E99.66426
G1 X176.249 Y164.743 E102.28841
G1 X176.249 Y165.437 E102.32804
G1 X143.754 Y132.942 E104.95223
G1 X143.754 Y133.636 E104.99186
G1 X176.249 Y166.131 E107.61605
G1 X176.249 Y166.825 E107.65568
G1 X143.754 Y134.33 E110.27987
G1 X143.754 Y135.023 E110.31944
G1 X176.249 Y167.518 E112.94363
G1 X176.249 Y168.212 E112.98326
G1 X143.754 Y135.717 E115.60745
G1 X143.754 Y136.411 E115.64708
G1 X176.249 Y168.906 E118.27127
G1 X176.249 Y169.6 E118.3109
G1 X143.754 Y137.104 E120.93513
G1 X143.754 Y137.798 E120.97476
G1 X176.249 Y170.293 E123.59895
G1 X176.249 Y170.987 E123.63858
G1 X143.754 Y138.492 E126.26277
G1 X143.754 Y139.185 E126.30234
G1 X176.249 Y171.681 E128.92657
G1 X176.249 Y172.375 E128.9662
G1 X143.753 Y139.879 E131.59047
G1 X143.753 Y140.573 E131.6301
G1 X176.249 Y173.069 E134.25437
G1 X176.249 Y173.762 E134.29394
G1 X143.753 Y141.267 E136.91817
G1 X143.753 Y141.96 E136.95774
G1 X176.249 Y174.456 E139.58201
G1 X176.249 Y175.15 E139.62164
G1 X143.753 Y142.654 E142.24591
G1 X143.753 Y143.348 E142.28554
G1 X176.249 Y175.844 E144.90981
G1 X176.249 Y176.537 E144.94938
G1 X143.753 Y144.041 E147.57365
G1 X143.753 Y144.735 E147.61328
G1 X176.249 Y177.231 E150.23755
G1 X176.249 Y177.925 E150.27718
G1 X143.753 Y145.429 E152.90145
G1 X143.753 Y146.122 E152.94102
G1 X176.249 Y178.619 E155.56533
G1 X176.25 Y179.312 E155.6049
G1 X143.753 Y146.816 E158.22921
G1 X143.753 Y147.51 E158.26884
G1 X176.266 Y180.023 E160.89448
G1 X176.266 Y180.716 E160.93405
G1 X143.753 Y148.203 E163.55969
G1 X143.753 Y148.897 E163.59932
G1 X176.266 Y181.41 E166.22496
G1 X176.266 Y182.104 E166.26459
G1 X143.753 Y149.591 E168.89023
G1 X143.753 Y150.284 E168.9298
G1 X176.266 Y182.798 E171.55548
G1 X176.266 Y183.491 E171.59505
G1 X143.753 Y150.978 E174.22069
G1 X143.753 Y151.672 E174.26032
G1 X176.25 Y184.169 E176.88467
G1 X176.25 Y184.862 E176.92424
G1 X143.753 Y152.366 E179.54855
G1 X143.753 Y153.059 E179.58812
G1 X176.25 Y185.556 E182.21247
G1 X176.25 Y186.25 E182.2521
G1 X143.753 Y153.753 E184.87645
G1 X143.753 Y154.447 E184.91608
G1 X176.249 Y186.943 E187.54035
G1 X176.249 Y187.637 E187.57998
G1 X143.753 Y155.14 E190.20429
G1 X143.753 Y155.834 E190.24392
G1 X176.249 Y188.331 E192.86823
G1 X176.249 Y189.024 E192.9078
G1 X143.753 Y156.528 E195.53207
G1 X143.753 Y157.221 E195.57164
G1 X176.249 Y189.718 E198.19595
G1 X176.249 Y190.412 E198.23558
G1 X143.752 Y157.915 E200.85993
G1 X143.752 Y158.609 E200.89956
G1 X176.249 Y191.105 E203.52387
G1 X176.249 Y191.799 E203.5635
G1 X143.752 Y159.302 E206.18785
G1 X143.752 Y159.996 E206.22748
G1 X176.249 Y192.493 E208.85183
G1 X176.249 Y193.186 E208.8914
G1 X143.752 Y160.69 E211.51571
G1 X143.752 Y161.383 E211.55528
G1 X176.249 Y193.88 E214.17963
G1 X176.249 Y194.574 E214.21926
G1 X143.752 Y162.077 E216.84361
G1 X143.752 Y162.771 E216.88324
G1 X176.249 Y195.267 E219.50755
G1 X176.249 Y195.961 E219.54718
G1 X143.752 Y163.464 E222.17153
G1 X143.752 Y164.158 E222.21116
G1 X176.249 Y196.655 E224.83551
G1 X176.249 Y197.349 E224.87514
G1 X143.752 Y164.852 E227.49949
G1 X143.752 Y165.546 E227.53912
G1 X176.249 Y198.042 E230.16343
G1 X176.249 Y198.736 E230.20306
G1 X143.752 Y166.239 E232.82741
G1 X143.752 Y166.933 E232.86704
G1 X176.249 Y199.43 E235.49139
G1 X176.249 Y200.123 E235.53096
G1 X143.752 Y167.627 E238.15527
G1 X143.752 Y168.32 E238.19484
G1 X176.249 Y200.817 E240.81919
G1 X176.248 Y201.511 E240.85882
G1 X143.752 Y169.014 E243.48313
G1 X143.752 Y169.708 E243.52276
G1 X176.248 Y202.204 E246.14703
G1 X176.248 Y202.898 E246.18666
G1 X143.752 Y170.401 E248.81097
G1 X143.752 Y171.095 E248.8506
G1 X176.248 Y203.592 E251.47491
G1 X176.248 Y204.285 E251.51448
G1 X143.752 Y171.789 E254.13875
G1 X143.752 Y172.482 E254.17832
G1 X176.248 Y204.979 E256.80263
G1 X176.248 Y205.673 E256.84226
G1 X143.752 Y173.176 E259.46657
G1 X143.752 Y173.87 E259.5062
G1 X176.248 Y206.366 E262.13047
G1 X176.248 Y207.06 E262.1701
G1 X143.752 Y174.563 E264.79441
G1 X143.751 Y175.257 E264.83404
G1 X176.248 Y207.754 E267.45839
G1 X176.248 Y208.447 E267.49796
G1 X143.751 Y175.951 E270.12227
G1 X143.751 Y176.644 E270.16184
G1 X176.248 Y209.141 E272.78619
G1 X176.248 Y209.835 E272.82582
G1 X143.751 Y177.338 E275.45017
G1 X143.751 Y178.032 E275.4898
G1 X176.248 Y210.528 E278.11411
G1 X176.248 Y211.222 E278.15374
G1 X143.751 Y178.726 E280.77805
G1 X143.751 Y179.419 E280.81762
G1 X176.248 Y211.916 E283.44197
G1 X176.248 Y212.609 E283.48154
G1 X143.734 Y180.096 E286.10722
G1 X143.734 Y180.789 E286.14679
G1 X176.248 Y213.303 E288.77251
G1 X176.248 Y213.997 E288.81214
G1 X143.734 Y181.483 E291.43786
G1 X143.734 Y182.177 E291.47749
G1 X176.248 Y214.69 E294.10317
G1 X176.248 Y215.384 E294.1428
G1 X143.734 Y182.871 E296.76848
G1 X143.734 Y183.564 E296.80805
G1 X176.247 Y216.078 E299.43373
G1 X176.247 Y216.739 E299.47148
G1 X176.215 Y216.739 E299.47331
G1 X143.751 Y184.275 E302.095
G1 X143.751 Y184.969 E302.13463
G1 X175.521 Y216.739 E304.70027
G1 X174.827 Y216.739 E304.7399
G1 X143.751 Y185.663 E307.2495
G1 X143.751 Y186.356 E307.28907
G1 X174.133 Y216.739 E309.74266
G1 X173.44 Y216.739 E309.78223
G1 X143.751 Y187.05 E312.17982
G1 X143.751 Y187.744 E312.21945
G1 X172.746 Y216.739 E314.56099
G1 X172.052 Y216.739 E314.60062
G1 X143.751 Y188.438 E316.88612
G1 X143.751 Y189.131 E316.92569
G1 X171.359 Y216.739 E319.15522
G1 X170.665 Y216.739 E319.19485
G1 X143.751 Y189.825 E321.36834
G1 X143.751 Y190.519 E321.40797
G1 X169.971 Y216.739 E323.52541
G1 X169.277 Y216.739 E323.56504
G1 X143.751 Y191.213 E325.62644
G1 X143.751 Y191.906 E325.66601
G1 X168.584 Y216.739 E327.67144
G1 X167.89 Y216.739 E327.71107
G1 X143.751 Y192.6 E329.66046
G1 X143.752 Y193.294 E329.70009
G1 X167.196 Y216.739 E331.59339
G1 X166.502 Y216.739 E331.63302
G1 X143.752 Y193.988 E333.47028
G1 X143.752 Y194.681 E333.50985
G1 X165.809 Y216.739 E335.29114
G1 X165.115 Y216.739 E335.33077
G1 X143.752 Y195.375 E337.05602
G1 X143.752 Y196.069 E337.09565
G1 X164.421 Y216.739 E338.76485
G1 X163.728 Y216.739 E338.80442
G1 X143.752 Y196.763 E340.41762
G1 X143.752 Y197.457 E340.45725
G1 X163.034 Y216.739 E342.0144
G1 X162.34 Y216.739 E342.05403
G1 X143.752 Y198.15 E343.55518
G1 X143.752 Y198.844 E343.59481
G1 X161.646 Y216.739 E345.03991
G1 X160.953 Y216.739 E345.07948
G1 X143.752 Y199.538 E346.46858
G1 X143.752 Y200.232 E346.50821
G1 X160.259 Y216.739 E347.84126
G1 X159.565 Y216.739 E347.88089
G1 X143.752 Y200.925 E349.15794
G1 X143.752 Y201.619 E349.19757
G1 X158.871 Y216.739 E350.41857
G1 X158.178 Y216.739 E350.45814
G1 X143.752 Y202.313 E351.62314
G1 X143.752 Y203.007 E351.66277
G1 X157.484 Y216.739 E352.77172
G1 X156.79 Y216.739 E352.81135
G1 X143.752 Y203.7 E353.8643
G1 X143.752 Y204.394 E353.90393
G1 X156.097 Y216.739 E354.90087
G1 X155.403 Y216.739 E354.9405
G1 X143.752 Y205.088 E355.8814
G1 X143.752 Y205.782 E355.92103
G1 X154.709 Y216.739 E356.80588
G1 X154.015 Y216.739 E356.84551
G1 X143.752 Y206.475 E357.67436
G1 X143.752 Y207.169 E357.71399
G1 X153.322 Y216.739 E358.48683
G1 X152.628 Y216.739 E358.52646
G1 X143.752 Y207.863 E359.24326
G1 X143.752 Y208.557 E359.28289
G1 X151.934 Y216.739 E359.94364
G1 X151.241 Y216.739 E359.98321
G1 X143.752 Y209.25 E360.588
G1 X143.752 Y209.944 E360.62763
G1 X150.547 Y216.739 E361.17637
G1 X149.853 Y216.739 E361.216
G1 X143.752 Y210.638 E361.7087
G1 X143.752 Y211.332 E361.74833
G1 X149.159 Y216.739 E362.18498
G1 X148.466 Y216.739 E362.22455
G1 X143.752 Y212.025 E362.60524
G1 X143.752 Y212.719 E362.64487
G1 X147.772 Y216.739 E362.96951
